(1003)
(T1  D=0.25 CR=0. - ZMIN=-0.04 - FLAT END MILL)
G90 G94 G91.1 G40 G49 G17
G20
G28 G91 Z0.
G90

(2D POCKET2)
M5
M9
T1 M6
S2100 M3
G54
M8
G0 X-0.0229 Y0.1601
G43 Z0.6 H1
Z0.2
G1 Z-0.015 F5.3
G19 G2 Y0.1351 Z-0.04 R0.025
G1 Y0.1209
Y-2.6209
Y-2.6219
G2 Y-2.6469 Z-0.015 R0.025
G0 Z0.2
X-0.2212 Y0.16
G1 Z-0.0175 F5.3
X-0.2213 Y0.1598 Z-0.021
X-0.2214 Y0.1589 Z-0.0245
X-0.2216 Y0.1576 Z-0.0277
X-0.2219 Y0.1558 Z-0.0307
X-0.2223 Y0.1535 Z-0.0334
X-0.2227 Y0.1509 Z-0.0357
X-0.2232 Y0.1479 Z-0.0375
X-0.2237 Y0.1447 Z-0.0389
X-0.2242 Y0.1413 Z-0.0397
X-0.2248 Y0.1378 Z-0.04
X-0.2268 Y0.1247
G17 G3 X-0.2271 Y0.1208 R0.025
G1 Y-2.5
Y-2.6206
G3 X-0.2268 Y-2.6245 R0.025
G1 X-0.2251 Y-2.6351
X-0.2245 Y-2.639 Z-0.0397
X-0.2239 Y-2.6427 Z-0.0388
X-0.2234 Y-2.6463 Z-0.0373
X-0.2228 Y-2.6496 Z-0.0352
X-0.2224 Y-2.6526 Z-0.0327
X-0.222 Y-2.6551 Z-0.0297
X-0.2217 Y-2.6571 Z-0.0263
X-0.2214 Y-2.6586 Z-0.0227
X-0.2213 Y-2.6595 Z-0.0189
X-0.2212 Y-2.6598 Z-0.015
G0 Z0.6

M9
G28 G91 Z0.
G28 X0. Y0.
M30
