(MANFROTTOPLATE-1)
(T1  D=0.25 CR=0. - ZMIN=-0.52 - FLAT END MILL)
G90 G94 G91.1 G40 G49 G17
G20
G28 G91 Z0.
G90

(FACE2)
M5
M9
T1 M6
S2100 M3
G54
M8
G0 X3.1625 Y-2.3952
G43 Z0.6 H1
Z0.2
G1 Z-0.025 F5.3
G18 G3 X3.1375 Z-0.05 R0.025
G1 X3.
X0.
G17 G2 Y-2.1678 R0.1137
G1 X3.
G3 Y-1.9404 R0.1137
G1 X0.
G2 Y-1.713 R0.1137
G1 X3.
G3 Y-1.4856 R0.1137
G1 X0.
G2 Y-1.2582 R0.1137
G1 X3.
G3 Y-1.0308 R0.1137
G1 X0.
G2 Y-0.8034 R0.1137
G1 X3.
G3 Y-0.5759 R0.1137
G1 X0.
G2 Y-0.3485 R0.1137
G1 X3.
G3 Y-0.1211 R0.1137
G1 X0.
G18 G3 X-0.025 Z-0.025 R0.025
G0 Z0.6
G17

(ADAPTIVE1)
M8
G0 X-0.0169 Y-2.7297
Z0.6
Z0.2
Z-0.275
G1 Z-0.3 F5.3
Y-2.7294 Z-0.3039
X-0.0166 Y-2.7286 Z-0.3077
X-0.0163 Y-2.7271 Z-0.3113
X-0.0158 Y-2.7251 Z-0.3147
X-0.0151 Y-2.7227 Z-0.3177
X-0.0144 Y-2.7198 Z-0.3202
X-0.0136 Y-2.7165 Z-0.3223
X-0.0127 Y-2.713 Z-0.3238
X-0.0117 Y-2.7093 Z-0.3247
X-0.0107 Y-2.7055 Z-0.325
G3 X0.0004 Y-2.6278 R0.3646
G1 Y-2.6218
X-0.0071 Y-2.5835
X-0.0123 Y-2.5449
X-0.0159 Y-2.5061
X-0.0184 Y-2.4672
X-0.0201 Y-2.4282
X-0.0213 Y-2.3892
X-0.0221 Y-2.3502
X-0.0226 Y-2.3113
X-0.023 Y-2.2723
X-0.0233 Y-2.2333
X-0.0234 Y-2.1943
X-0.0237 Y-2.1163
X-0.0238 Y-1.9993
X-0.024 Y-1.6484
X-0.0243 Y-0.6347
X-0.0245 Y-0.118
X-0.0214 Y-0.0988
X-0.0125 Y-0.0814
X0.0118 Y-0.0509
X0.0437 Y-0.0286
X0.0793 Y-0.0126
X0.1166 Y-0.0013
X0.1548 Y0.0065
X0.1934 Y0.012
X0.2322 Y0.0157
X0.2711 Y0.0183
X0.3101 Y0.0201
X0.3491 Y0.0213
X0.388 Y0.0221
X0.427 Y0.0227
X0.466 Y0.0231
X0.505 Y0.0234
X0.544 Y0.0236
X0.622 Y0.0238
X0.739 Y0.0239
X1.0509 Y0.0241
X1.4018 Y0.0242
X2.8834 Y0.0246
X2.9026 Y0.0208
X2.9198 Y0.0115
X2.9499 Y-0.0131
X2.972 Y-0.0453
X2.9878 Y-0.0809
X2.9989 Y-0.1183
X3.0067 Y-0.1565
X3.012 Y-0.1951
X3.0157 Y-0.2339
X3.0183 Y-0.2728
X3.02 Y-0.3118
X3.0212 Y-0.3508
X3.0221 Y-0.3898
X3.0226 Y-0.4287
X3.023 Y-0.4677
X3.0233 Y-0.5067
X3.0235 Y-0.5457
X3.0237 Y-0.6237
X3.0239 Y-0.7407
X3.024 Y-1.0526
X3.0244 Y-2.3783
X3.0239 Y-2.388
X3.0197 Y-2.4071
X2.9997 Y-2.4405
X2.9697 Y-2.4654
X2.935 Y-2.4833
X2.8982 Y-2.4959
X2.8602 Y-2.5048
X2.8217 Y-2.5109
X2.7829 Y-2.5152
X2.744 Y-2.5181
X2.7051 Y-2.5201
X2.6661 Y-2.5215
X2.6271 Y-2.5224
X2.5882 Y-2.523
X2.5492 Y-2.5235
X2.5102 Y-2.5238
X2.4712 Y-2.524
X2.4322 Y-2.5241
X2.3542 Y-2.5243
X2.1983 Y-2.5244
X1.1845 Y-2.5245
X1.0675
X0.2292 Y-2.5246
X0.2098 Y-2.5234
X0.1918 Y-2.516
X0.1596 Y-2.4939
X0.1355 Y-2.4632
X0.118 Y-2.4284
X0.1055 Y-2.3915
X0.0966 Y-2.3535
X0.0904 Y-2.315
X0.086 Y-2.2763
X0.083 Y-2.2374
X0.0809 Y-2.1985
X0.0794 Y-2.1595
X0.0784 Y-2.1205
X0.0777 Y-2.0815
X0.0772 Y-2.0425
X0.0769 Y-2.0035
X0.0766 Y-1.9646
X0.0764 Y-1.9256
X0.0762 Y-1.8476
X0.0761 Y-1.7306
X0.0759 Y-1.4577
X0.0755 Y-0.249
X0.0785 Y-0.2297
X0.092 Y-0.1931
X0.0991 Y-0.1822
X0.1035 Y-0.17
X0.1051 Y-0.1572
Y-0.156
X0.1059 Y-0.1383
X0.1066 Y-0.1295
X0.1081 Y-0.1206
X0.1103 Y-0.1117
X0.113 Y-0.1029
X0.1163 Y-0.094
X0.1205 Y-0.0852
X0.1243 Y-0.0779
X0.1252 Y-0.0763
X0.1313 Y-0.0674
X0.1377 Y-0.0586
X0.142 Y-0.0536
X0.1509 Y-0.0444
X0.1549 Y-0.0409
X0.1659 Y-0.032
X0.1685 Y-0.0302
X0.1774 Y-0.0245
X0.1862 Y-0.02
X0.1951 Y-0.016
X0.1993 Y-0.0143
X0.2039 Y-0.0126
X0.2128 Y-0.01
X0.2216 Y-0.008
X0.2305 Y-0.0063
X0.2393 Y-0.0058
X0.2482 Y-0.0053
X0.257 Y-0.005
X2.743
X2.7518 Y-0.0053
X2.7607 Y-0.0058
X2.7695 Y-0.0063
X2.7784 Y-0.008
X2.7872 Y-0.01
X2.7961 Y-0.0126
X2.8007 Y-0.0143
X2.8049 Y-0.016
X2.8138 Y-0.02
X2.8226 Y-0.0245
X2.8315 Y-0.0302
X2.8341 Y-0.032
X2.8451 Y-0.0409
X2.8491 Y-0.0444
X2.858 Y-0.0536
X2.8623 Y-0.0586
X2.8687 Y-0.0674
X2.8748 Y-0.0763
X2.8757 Y-0.0779
X2.8795 Y-0.0852
X2.8837 Y-0.094
X2.887 Y-0.1029
X2.8897 Y-0.1117
X2.8919 Y-0.1206
X2.8934 Y-0.1292
X2.9018 Y-0.1673
X2.9072 Y-0.2059
X2.9114 Y-0.2446
X2.9146 Y-0.2835
X2.9171 Y-0.3224
X2.9189 Y-0.3614
X2.9202 Y-0.4003
X2.9212 Y-0.4393
X2.922 Y-0.4783
X2.9225 Y-0.5173
X2.9229 Y-0.5563
X2.9232 Y-0.5953
X2.9234 Y-0.6343
X2.9235 Y-0.6732
X2.9237 Y-0.7512
X2.9239 Y-0.8682
X2.924 Y-1.1801
X2.9243 Y-2.1159
Y-2.2524
X2.9214 Y-2.2716
X2.9077 Y-2.3082
X2.9008 Y-2.319
X2.8965 Y-2.3311
X2.8949 Y-2.3439
X2.8941 Y-2.3617
X2.8934 Y-2.3705
X2.8919 Y-2.3794
X2.8897 Y-2.3883
X2.887 Y-2.3971
X2.8837 Y-2.406
X2.8795 Y-2.4148
X2.8757 Y-2.4221
X2.8748 Y-2.4237
X2.8687 Y-2.4326
X2.8623 Y-2.4414
X2.858 Y-2.4464
X2.8491 Y-2.4556
X2.8451 Y-2.4591
X2.8341 Y-2.468
X2.8315 Y-2.4698
X2.8226 Y-2.4755
X2.8138 Y-2.48
X2.8049 Y-2.484
X2.8007 Y-2.4857
X2.7961 Y-2.4874
X2.7872 Y-2.49
X2.7784 Y-2.492
X2.7695 Y-2.4937
X2.7607 Y-2.4942
X2.7518 Y-2.4947
X2.743 Y-2.495
X0.257
X0.2482 Y-2.4947
X0.2393 Y-2.4942
X0.2305 Y-2.4937
X0.2216 Y-2.492
X0.2128 Y-2.49
X0.2039 Y-2.4874
X0.1993 Y-2.4857
X0.1951 Y-2.484
X0.1862 Y-2.48
X0.1774 Y-2.4755
X0.1685 Y-2.4698
X0.1659 Y-2.468
X0.1549 Y-2.4591
X0.1509 Y-2.4556
X0.142 Y-2.4464
X0.1377 Y-2.4414
X0.1313 Y-2.4326
X0.1252 Y-2.4237
X0.1243 Y-2.4221
X0.1205 Y-2.4148
X0.1163 Y-2.406
X0.113 Y-2.3971
X0.1103 Y-2.3883
X0.1081 Y-2.3794
X0.1066 Y-2.3705
X0.1059 Y-2.3617
X0.1051 Y-2.344
X0.105 Y-2.3351
Y-0.1649
X0.1051 Y-0.1572
G3 X0.0796 Y-0.1327 R0.025
X0.0551 Y-0.1582 R0.025
G1 X0.0552 Y-0.1621 Z-0.3247
X0.0553 Y-0.1659 Z-0.3238
X0.0554 Y-0.1695 Z-0.3223
Y-0.1729 Z-0.3202
X0.0555 Y-0.1759 Z-0.3177
Y-0.1784 Z-0.3147
X0.0556 Y-0.1805 Z-0.3113
Y-0.182 Z-0.3077
Y-0.1829 Z-0.3039
Y-0.1832 Z-0.3
G0 Z0.2
X2.8934 Y-0.0258
Z-0.275
G1 Z-0.3 F5.3
Y-0.0261 Z-0.3039
X2.8933 Y-0.027 Z-0.3077
X2.8932 Y-0.0285 Z-0.3113
X2.893 Y-0.0305 Z-0.3147
X2.8928 Y-0.0331 Z-0.3177
X2.8925 Y-0.036 Z-0.3202
X2.8923 Y-0.0394 Z-0.3223
X2.892 Y-0.043 Z-0.3238
X2.8917 Y-0.0468 Z-0.3247
X2.8913 Y-0.0507 Z-0.325
G3 X2.8934 Y-0.1292 R0.3646
G1 Y-0.1295
X2.8941 Y-0.1383
X2.8949 Y-0.156
X2.895 Y-0.1649
Y-2.3351
X2.8949 Y-2.3439
G3 X2.9338 Y-2.3641 R0.025
G1 X2.936 Y-2.362 Z-0.3248
X2.9381 Y-2.36 Z-0.3243
X2.9401 Y-2.358 Z-0.3234
X2.9415 Y-2.3551 Z-0.3219
X2.9428 Y-2.3525 Z-0.32
X2.9439 Y-2.3501 Z-0.3177
X2.9443 Y-2.3477 Z-0.3149
X2.9445 Y-2.3458 Z-0.3118
X2.9447 Y-2.3443 Z-0.3085
X2.9449 Y-2.3434 Z-0.305
Y-2.343 Z-0.3025
Y-2.3428 Z-0.3
G0 Z0.2
X0.0633 Y-2.1724
Z-0.16
G1 Z-0.185 F5.3
X0.0635 Y-2.1721 Z-0.1889
X0.064 Y-2.1714 Z-0.1927
X0.0649 Y-2.1701 Z-0.1963
X0.0661 Y-2.1684 Z-0.1997
X0.0675 Y-2.1664 Z-0.2026
X0.0692 Y-2.1639 Z-0.2052
X0.0711 Y-2.1612 Z-0.2072
X0.0732 Y-2.1582 Z-0.2087
X0.0754 Y-2.155 Z-0.2097
X0.0776 Y-2.1518 Z-0.21
G3 X0.105 Y-2.0782 R0.1583
G1 X0.1056 Y-2.0694
X0.1071 Y-2.0517
X0.1088 Y-2.0428
X0.1111 Y-2.0339
X0.1139 Y-2.0251
X0.1176 Y-2.0162
X0.122 Y-2.0074
X0.1243 Y-2.003
X0.1268 Y-1.9985
X0.1332 Y-1.9894
X0.1401 Y-1.9808
X0.1437 Y-1.976
X0.1513 Y-1.964
X0.1593 Y-1.9486
X0.1678 Y-1.9284
X0.1767 Y-1.9015
X0.1859 Y-1.8636
X0.1921 Y-1.8251
X0.1963 Y-1.7864
X0.1991 Y-1.7475
X0.201 Y-1.7085
X0.2023 Y-1.6696
X0.2031 Y-1.6306
X0.2037 Y-1.5916
X0.2041 Y-1.5526
X0.2044 Y-1.5136
X0.2046 Y-1.4746
X0.2047 Y-1.4356
X0.2049 Y-1.3577
X0.205 Y-1.2017
Y-0.6012
X0.2038 Y-0.5893
X0.2003 Y-0.5778
X0.1945 Y-0.5672
X0.1868 Y-0.558
X0.1774 Y-0.5505
X0.1685 Y-0.5447
X0.1597 Y-0.5382
X0.1582 Y-0.5369
X0.1509 Y-0.5307
X0.1482 Y-0.5281
X0.142 Y-0.5215
X0.1401 Y-0.5192
X0.1332 Y-0.5106
X0.1268 Y-0.5015
X0.1243 Y-0.497
X0.122 Y-0.4926
X0.1176 Y-0.4838
X0.1139 Y-0.4749
X0.1111 Y-0.4661
X0.1088 Y-0.4572
X0.1071 Y-0.4483
X0.1056 Y-0.4306
G3 X0.056 Y-0.4364 R0.025
G1 X0.0564 Y-0.4403 Z-0.2097
X0.0569 Y-0.4441 Z-0.2087
X0.0573 Y-0.4477 Z-0.2072
X0.0577 Y-0.451 Z-0.2052
X0.058 Y-0.454 Z-0.2026
X0.0583 Y-0.4565 Z-0.1997
X0.0585 Y-0.4585 Z-0.1963
X0.0587 Y-0.46 Z-0.1927
X0.0588 Y-0.4609 Z-0.1889
Y-0.4612 Z-0.185
G0 Z0.2
X0.0606 Y-2.047
Z-0.16
G1 Z-0.185 F5.3
X0.0609 Y-2.0469 Z-0.1889
X0.0616 Y-2.0463 Z-0.1927
X0.0629 Y-2.0455 Z-0.1963
X0.0645 Y-2.0443 Z-0.1997
X0.0666 Y-2.0428 Z-0.2026
X0.0691 Y-2.0411 Z-0.2052
X0.0718 Y-2.0392 Z-0.2072
X0.0748 Y-2.0371 Z-0.2087
X0.0779 Y-2.0349 Z-0.2097
X0.0811 Y-2.0326 Z-0.21
G3 X0.1401 Y-1.9808 R0.3646
G1 X0.142 Y-1.9785
X0.1482 Y-1.9719
X0.1509 Y-1.9693
X0.1582 Y-1.9631
X0.1597 Y-1.9618
X0.1685 Y-1.9553
X0.1774 Y-1.9495
X0.1855 Y-1.9454
X0.1929 Y-1.941
X0.1998 Y-1.9363
X0.2072 Y-1.9302
X0.2155 Y-1.9221
X0.224 Y-1.9125
X0.233 Y-1.9004
X0.2426 Y-1.8852
X0.2524 Y-1.8664
X0.2625 Y-1.8426
X0.2729 Y-1.8112
X0.2822 Y-1.7734
X0.2888 Y-1.7349
X0.2935 Y-1.6962
X0.2968 Y-1.6574
X0.2992 Y-1.6185
X0.3009 Y-1.5795
X0.3021 Y-1.5405
X0.3029 Y-1.5015
X0.3036 Y-1.4626
X0.304 Y-1.4236
X0.3043 Y-1.3846
X0.3045 Y-1.3456
X0.3046 Y-1.3066
X0.3048 Y-1.2286
X0.3049 Y-1.1116
X0.305 Y-0.7997
Y-0.6827
X0.3037 Y-0.6504
X0.3009 Y-0.6269
X0.3004 Y-0.6242
X0.2966 Y-0.6123
X0.2904 Y-0.6015
X0.282 Y-0.5923
X0.2719 Y-0.585
X0.2605 Y-0.58
X0.2305 Y-0.5708
X0.2039 Y-0.5624
X0.1951 Y-0.559
X0.1862 Y-0.555
X0.1774 Y-0.5505
G3 X0.1554 Y-0.5954 R0.025
X0.156 Y-0.5957 R0.025
G1 X0.1595 Y-0.5973 Z-0.2097
X0.163 Y-0.599 Z-0.2087
X0.1663 Y-0.6005 Z-0.2072
X0.1693 Y-0.602 Z-0.2052
X0.172 Y-0.6032 Z-0.2026
X0.1743 Y-0.6043 Z-0.1997
X0.1761 Y-0.6052 Z-0.1963
X0.1775 Y-0.6058 Z-0.1927
X0.1783 Y-0.6062 Z-0.1889
X0.1786 Y-0.6064 Z-0.185
G0 Z0.2
X0.0869 Y-1.9767
Z-0.16
G1 Z-0.185 F5.3
X0.0872 Z-0.1889
X0.0881 Y-1.9765 Z-0.1927
X0.0896 Y-1.9761 Z-0.1963
X0.0916 Y-1.9757 Z-0.1997
X0.094 Y-1.9751 Z-0.2026
X0.0969 Y-1.9744 Z-0.2052
X0.1002 Y-1.9737 Z-0.2072
X0.1037 Y-1.9729 Z-0.2087
X0.1075 Y-1.972 Z-0.2097
X0.1113 Y-1.9711 Z-0.21
G3 X0.1855 Y-1.9454 R0.3646
G1 X0.1862 Y-1.945
X0.1951 Y-1.941
X0.2039 Y-1.9376
X0.2356 Y-1.9276
X0.2482 Y-1.9238
X0.2553 Y-1.9211
X0.2629 Y-1.9176
X0.271 Y-1.9131
X0.2803 Y-1.9069
X0.2895 Y-1.8995
X0.2994 Y-1.8902
X0.3104 Y-1.8782
X0.3208 Y-1.8647
X0.3324 Y-1.847
X0.3436 Y-1.8264
X0.3552 Y-1.8
X0.3671 Y-1.7661
X0.3769 Y-1.7284
X0.3843 Y-1.6901
X0.3897 Y-1.6515
X0.3938 Y-1.6127
X0.3968 Y-1.5739
X0.399 Y-1.5349
X0.4006 Y-1.496
X0.4018 Y-1.457
X0.4027 Y-1.418
X0.4033 Y-1.379
X0.4038 Y-1.34
X0.4041 Y-1.3011
X0.4044 Y-1.2621
X0.4045 Y-1.2231
X0.4048 Y-1.1451
X0.4049 Y-1.0281
X0.405 Y-0.7942
X0.4049 Y-0.7552
X0.4041 Y-0.7162
X0.402 Y-0.6826
X0.3985 Y-0.659
X0.3971 Y-0.6529
X0.3932 Y-0.6413
X0.387 Y-0.6309
X0.3787 Y-0.622
X0.3687 Y-0.6149
X0.3575 Y-0.6101
X0.2605 Y-0.58
G3 X0.2467 Y-0.6281 R0.025
X0.2473 Y-0.6283 R0.025
G1 X0.2511 Y-0.6293 Z-0.2097
X0.2548 Y-0.6303 Z-0.2087
X0.2583 Y-0.6313 Z-0.2072
X0.2615 Y-0.6322 Z-0.2052
X0.2644 Y-0.6329 Z-0.2026
X0.2668 Y-0.6336 Z-0.1997
X0.2688 Y-0.6341 Z-0.1963
X0.2703 Y-0.6345 Z-0.1927
X0.2712 Y-0.6348 Z-0.1889
X0.2715 Y-0.6349 Z-0.185
G0 Z0.2
X0.1453 Y-1.9191
Z-0.16
G1 Z-0.185 F5.3
X0.1456 Y-1.9192 Z-0.1889
X0.1465 Y-1.9194 Z-0.1927
X0.148 Y-1.9197 Z-0.1963
X0.15 Y-1.9202 Z-0.1997
X0.1525 Y-1.9208 Z-0.2026
X0.1554 Y-1.9215 Z-0.2052
X0.1586 Y-1.9223 Z-0.2072
X0.1621 Y-1.9231 Z-0.2087
X0.1658 Y-1.924 Z-0.2097
X0.1696 Y-1.9249 Z-0.21
G3 X0.2482 Y-1.9238 R0.1583
G1 X0.3327 Y-1.8976
X0.341 Y-1.8945
X0.3497 Y-1.8905
X0.3588 Y-1.8854
X0.3685 Y-1.8789
X0.3795 Y-1.8702
X0.3901 Y-1.8603
X0.4017 Y-1.8474
X0.4136 Y-1.832
X0.426 Y-1.8131
X0.4383 Y-1.7903
X0.4511 Y-1.7614
X0.464 Y-1.7247
X0.4738 Y-1.6869
X0.4814 Y-1.6487
X0.4872 Y-1.6101
X0.4916 Y-1.5714
X0.4949 Y-1.5325
X0.4974 Y-1.4936
X0.4993 Y-1.4547
X0.5008 Y-1.4157
X0.5019 Y-1.3767
X0.5027 Y-1.3378
X0.5033 Y-1.2988
X0.5037 Y-1.2598
X0.5041 Y-1.2208
X0.5043 Y-1.1818
X0.5045 Y-1.1428
X0.5047 Y-1.0648
X0.5049 Y-0.9479
Y-0.8699
Y-0.8309
X0.5046 Y-0.7919
X0.5035 Y-0.7529
X0.5008 Y-0.715
X0.4971 Y-0.6905
X0.4954 Y-0.683
X0.4914 Y-0.6716
X0.4852 Y-0.6612
X0.4769 Y-0.6524
X0.467 Y-0.6454
X0.4559 Y-0.6406
X0.3575 Y-0.6101
G3 X0.3437 Y-0.6582 R0.025
X0.3444 Y-0.6584 R0.025
G1 X0.3482 Y-0.6594 Z-0.2097
X0.3519 Y-0.6604 Z-0.2087
X0.3554 Y-0.6614 Z-0.2072
X0.3586 Y-0.6622 Z-0.2052
X0.3615 Y-0.663 Z-0.2026
X0.3639 Y-0.6637 Z-0.1997
X0.3659 Y-0.6642 Z-0.1963
X0.3673 Y-0.6646 Z-0.1927
X0.3682 Y-0.6649 Z-0.1889
X0.3685 Y-0.665 Z-0.185
G0 Z0.2
X0.2298 Y-1.8929
Z-0.16
G1 Z-0.185 F5.3
X0.2301 Y-1.893 Z-0.1889
X0.231 Y-1.8932 Z-0.1927
X0.2325 Y-1.8935 Z-0.1963
X0.2345 Y-1.894 Z-0.1997
X0.2369 Y-1.8946 Z-0.2026
X0.2398 Y-1.8953 Z-0.2052
X0.2431 Y-1.8961 Z-0.2072
X0.2466 Y-1.8969 Z-0.2087
X0.2503 Y-1.8978 Z-0.2097
X0.2541 Y-1.8987 Z-0.21
G3 X0.3327 Y-1.8976 R0.1583
G1 X0.4251 Y-1.8689
X0.4323 Y-1.8663
X0.441 Y-1.8623
X0.4511 Y-1.8566
X0.461 Y-1.85
X0.472 Y-1.8412
X0.484 Y-1.8299
X0.4957 Y-1.8171
X0.5086 Y-1.8004
X0.5212 Y-1.7811
X0.5344 Y-1.7567
X0.548 Y-1.7261
X0.5608 Y-1.6893
X0.5709 Y-1.6516
X0.5787 Y-1.6134
X0.5847 Y-1.5749
X0.5895 Y-1.5362
X0.5931 Y-1.4974
X0.5959 Y-1.4585
X0.5981 Y-1.4196
X0.5997 Y-1.3806
X0.601 Y-1.3417
X0.602 Y-1.3027
X0.6027 Y-1.2637
X0.6033 Y-1.2247
X0.6037 Y-1.1857
X0.604 Y-1.1467
X0.6043 Y-1.1077
X0.6045 Y-1.0688
X0.6047 Y-0.9908
X0.6048 Y-0.9518
Y-0.9128
X0.6047 Y-0.8738
X0.6043 Y-0.8348
X0.6032 Y-0.7958
X0.6009 Y-0.7569
X0.5972 Y-0.7286
X0.5943 Y-0.7149
X0.5905 Y-0.7031
X0.5843 Y-0.6924
X0.576 Y-0.6833
X0.5659 Y-0.6761
X0.5545 Y-0.6712
X0.4559 Y-0.6406
G3 X0.4243 Y-0.6641 R0.025
G1 X0.4234 Y-0.6974
X0.3944 Y-1.8122
X0.3936 Y-1.8441
G3 X0.4251 Y-1.8689 R0.025
G1 X0.5136 Y-1.8415
X0.5266 Y-1.8367
X0.5353 Y-1.8327
X0.5455 Y-1.827
X0.556 Y-1.8199
X0.567 Y-1.8112
X0.5795 Y-1.7995
X0.5914 Y-1.7864
X0.6048 Y-1.7691
X0.6177 Y-1.7493
X0.6314 Y-1.724
X0.6454 Y-1.6923
X0.6583 Y-1.6555
X0.6684 Y-1.6179
X0.6764 Y-1.5797
X0.6827 Y-1.5412
X0.6877 Y-1.5026
X0.6915 Y-1.4638
X0.6946 Y-1.4249
X0.697 Y-1.386
X0.6988 Y-1.347
X0.7002 Y-1.3081
X0.7013 Y-1.2691
X0.7022 Y-1.2301
X0.7029 Y-1.1911
X0.7034 Y-1.1521
X0.7038 Y-1.1132
X0.7041 Y-1.0742
X0.7043 Y-1.0352
X0.7045 Y-0.9962
Y-0.9572
Y-0.9182
X0.7041 Y-0.8792
X0.7031 Y-0.8402
X0.7011 Y-0.8013
X0.6976 Y-0.7677
X0.6932 Y-0.7438
X0.6929 Y-0.7425
X0.6887 Y-0.7316
X0.6824 Y-0.7217
X0.6743 Y-0.7132
X0.6646 Y-0.7066
X0.6538 Y-0.702
X0.5545 Y-0.6712
G3 X0.523 Y-0.6944 R0.025
G1 X0.5218 Y-0.7279
X0.4832 Y-1.7848
X0.482 Y-1.8164
G3 X0.5136 Y-1.8415 R0.025
G1 X0.6109 Y-1.8113
X0.622 Y-1.8072
X0.6309 Y-1.8032
X0.641 Y-1.7975
X0.6521 Y-1.7901
X0.6631 Y-1.7813
X0.6758 Y-1.7694
X0.688 Y-1.756
X0.7016 Y-1.7384
X0.7148 Y-1.7181
X0.7289 Y-1.6921
X0.7433 Y-1.6596
X0.7562 Y-1.6228
X0.7664 Y-1.5852
X0.7745 Y-1.5471
X0.781 Y-1.5086
X0.7861 Y-1.47
X0.7902 Y-1.4312
X0.7934 Y-1.3923
X0.7959 Y-1.3534
X0.7979 Y-1.3145
X0.7995 Y-1.2755
X0.8007 Y-1.2365
X0.8017 Y-1.1976
X0.8025 Y-1.1586
X0.803 Y-1.1196
X0.8035 Y-1.0806
X0.8038 Y-1.0416
X0.804 Y-1.0026
X0.8041 Y-0.9636
X0.8038 Y-0.9246
X0.803 Y-0.8857
X0.8013 Y-0.8467
X0.7982 Y-0.8078
X0.7942 Y-0.7826
X0.7909 Y-0.7686
X0.7867 Y-0.757
X0.7802 Y-0.7465
X0.7717 Y-0.7376
X0.7615 Y-0.7307
X0.75 Y-0.7262
X0.7379 Y-0.7241
X0.7305 Y-0.7236
X0.7284 Y-0.7234
X0.7259 Y-0.7229
X0.6994 Y-0.7161
X0.6538 Y-0.702
G3 X0.6223 Y-0.7251 R0.025
G1 X0.6209 Y-0.7587
X0.5806 Y-1.7546
X0.5793 Y-1.7862
G3 X0.6109 Y-1.8113 R0.025
G1 X0.6994 Y-1.7839
X0.7042 Y-1.7826
X0.7125 Y-1.7801
X0.7217 Y-1.7764
X0.7309 Y-1.7718
X0.7416 Y-1.7654
X0.7529 Y-1.7573
X0.7645 Y-1.7475
X0.7775 Y-1.7345
X0.7901 Y-1.7199
X0.804 Y-1.7007
X0.8179 Y-1.678
X0.8322 Y-1.6496
X0.8469 Y-1.6135
X0.8586 Y-1.5763
X0.8681 Y-1.5385
X0.8756 Y-1.5002
X0.8816 Y-1.4617
X0.8865 Y-1.423
X0.8903 Y-1.3842
X0.8934 Y-1.3454
X0.8959 Y-1.3064
X0.8978 Y-1.2675
X0.8994 Y-1.2285
X0.9006 Y-1.1896
X0.9016 Y-1.1506
X0.9023 Y-1.1116
X0.9029 Y-1.0726
X0.9032 Y-1.0336
X0.9033 Y-0.9946
X0.9031 Y-0.9557
X0.9023 Y-0.9167
X0.9007 Y-0.8777
X0.8976 Y-0.8388
X0.8934 Y-0.8111
X0.8882 Y-0.7889
X0.8825 Y-0.771
X0.8784 Y-0.7611
X0.8731 Y-0.751
X0.8658 Y-0.7422
X0.857 Y-0.7349
X0.8469 Y-0.7295
X0.8359 Y-0.7261
X0.8245 Y-0.725
X0.7524
X0.7379 Y-0.7241
G3 X0.7122 Y-0.7481 R0.025
G1 X0.7107 Y-0.7876
X0.6751 Y-1.7244
X0.6739 Y-1.7573
G3 X0.7042 Y-1.7826 R0.025
G1 X0.7263 Y-1.7771
X0.7284 Y-1.7766
X0.7305 Y-1.7764
X0.7524 Y-1.775
X0.7662
X0.7737 Y-1.7746
X0.7814 Y-1.7736
X0.7893 Y-1.7719
X0.7983 Y-1.7692
X0.8083 Y-1.7653
X0.8186 Y-1.7604
X0.8304 Y-1.7534
X0.842 Y-1.7452
X0.855 Y-1.7344
X0.8686 Y-1.7212
X0.8824 Y-1.7053
X0.8969 Y-1.6858
X0.912 Y-1.6614
X0.927 Y-1.6324
X0.9421 Y-1.5964
X0.9542 Y-1.5594
X0.9641 Y-1.5217
X0.9721 Y-1.4835
X0.9786 Y-1.4451
X0.9838 Y-1.4064
X0.9881 Y-1.3677
X0.9915 Y-1.3288
X0.9942 Y-1.2899
X0.9964 Y-1.251
X0.9982 Y-1.212
X0.9996 Y-1.1731
X1.0007 Y-1.1341
X1.0015 Y-1.0951
X1.0021 Y-1.0561
X1.0022 Y-1.0171
X1.002 Y-0.9782
X1.0011 Y-0.9392
X0.9994 Y-0.9002
X0.996 Y-0.8614
X0.9905 Y-0.8244
X0.9843 Y-0.7976
X0.9777 Y-0.7768
X0.9708 Y-0.7601
X0.9693 Y-0.757
X0.9622 Y-0.7462
X0.953 Y-0.7373
X0.9421 Y-0.7306
X0.93 Y-0.7264
X0.9172 Y-0.725
X0.8245
G3 X0.8004 Y-0.7485 R0.025
G1 X0.798 Y-0.7901
X0.7443 Y-1.7099
X0.7421 Y-1.7486
G3 X0.7662 Y-1.775 R0.025
G1 X0.8498
X0.8557 Y-1.7747
X0.8638 Y-1.7736
X0.8733 Y-1.7715
X0.8832 Y-1.7685
X0.8941 Y-1.7642
X0.906 Y-1.7583
X0.9183 Y-1.751
X0.9321 Y-1.7412
X0.9455 Y-1.7299
X0.9609 Y-1.7147
X0.9755 Y-1.6978
X0.9914 Y-1.6761
X1.0076 Y-1.6497
X1.0236 Y-1.6182
X1.0385 Y-1.5821
X1.0507 Y-1.5451
X1.0607 Y-1.5074
X1.0689 Y-1.4693
X1.0757 Y-1.4309
X1.0813 Y-1.3923
X1.0858 Y-1.3536
X1.0895 Y-1.3148
X1.0925 Y-1.2759
X1.095 Y-1.237
X1.0969 Y-1.1981
X1.0985 Y-1.1591
X1.0997 Y-1.1201
X1.1004 Y-1.0811
X1.1008 Y-1.0422
X1.1007 Y-1.0032
X1.0999 Y-0.9642
X1.0981 Y-0.9252
X1.095 Y-0.8864
X1.09 Y-0.8477
X1.083 Y-0.8128
X1.0759 Y-0.7876
X1.0688 Y-0.7686
X1.0641 Y-0.7586
X1.0572 Y-0.7474
X1.0479 Y-0.738
X1.0368 Y-0.7309
X1.0244 Y-0.7265
X1.0113 Y-0.725
X0.9172
G3 X0.8931 Y-0.7483 R0.025
G1 X0.8903 Y-0.79
X0.8283 Y-1.71
X0.8257 Y-1.7483
G3 X0.8498 Y-1.775 R0.025
G1 X0.9342
X0.942 Y-1.7746
X0.9509 Y-1.7734
X0.9602 Y-1.7715
X0.9711 Y-1.7682
X0.982 Y-1.7639
X0.9946 Y-1.7579
X1.0075 Y-1.7502
X1.0215 Y-1.7404
X1.0362 Y-1.7282
X1.0515 Y-1.7132
X1.0675 Y-1.695
X1.0843 Y-1.6722
X1.1008 Y-1.6458
X1.1179 Y-1.6126
X1.1329 Y-1.5766
X1.1455 Y-1.5397
X1.1559 Y-1.5021
X1.1646 Y-1.4641
X1.1718 Y-1.4258
X1.1778 Y-1.3873
X1.1828 Y-1.3486
X1.1869 Y-1.3098
X1.1903 Y-1.271
X1.193 Y-1.2321
X1.1952 Y-1.1932
X1.1969 Y-1.1542
X1.1981 Y-1.1152
X1.1989 Y-1.0763
X1.1991 Y-1.0373
X1.1986 Y-0.9983
X1.1973 Y-0.9593
X1.1948 Y-0.9204
X1.1908 Y-0.8816
X1.1849 Y-0.8431
X1.1776 Y-0.8098
X1.17 Y-0.7848
X1.1623 Y-0.7652
X1.1585 Y-0.7575
X1.1514 Y-0.7465
X1.1421 Y-0.7373
X1.1309 Y-0.7304
X1.1185 Y-0.7262
X1.1055 Y-0.7249
X1.0975 Y-0.725
X1.0113
G3 X0.9872 Y-0.7481 R0.025
G1 X0.984 Y-0.79
X0.9131 Y-1.71
X0.9102 Y-1.7481
G3 X0.9342 Y-1.775 R0.025
G1 X1.0227
X1.0315 Y-1.7746
X1.0408 Y-1.7733
X1.0503 Y-1.7713
X1.0614 Y-1.768
X1.0729 Y-1.7635
X1.0856 Y-1.7573
X1.0992 Y-1.7494
X1.1133 Y-1.7394
X1.1289 Y-1.7265
X1.1445 Y-1.7113
X1.1611 Y-1.6922
X1.1786 Y-1.6686
X1.1957 Y-1.6411
X1.2136 Y-1.6064
X1.2286 Y-1.5704
X1.2413 Y-1.5336
X1.252 Y-1.496
X1.2609 Y-1.4581
X1.2685 Y-1.4198
X1.2748 Y-1.3814
X1.28 Y-1.3427
X1.2844 Y-1.304
X1.288 Y-1.2652
X1.291 Y-1.2263
X1.2934 Y-1.1874
X1.2951 Y-1.1484
X1.2964 Y-1.1095
X1.297 Y-1.0705
X1.2969 Y-1.0315
X1.2961 Y-0.9925
X1.2942 Y-0.9535
X1.2911 Y-0.9147
X1.2864 Y-0.876
X1.2799 Y-0.8375
X1.2721 Y-0.8052
X1.2642 Y-0.781
X1.2562 Y-0.7618
X1.2482 Y-0.7463
X1.2429 Y-0.7377
X1.2358 Y-0.7285
X1.227 Y-0.7208
X1.2169 Y-0.7151
X1.2058 Y-0.7114
X1.1943 Y-0.71
X1.1826 Y-0.7109
X1.1714 Y-0.7141
X1.1682 Y-0.7153
X1.1594 Y-0.7181
X1.1505 Y-0.7202
X1.1378 Y-0.7229
X1.1329 Y-0.7239
X1.124 Y-0.7243
X1.1055 Y-0.7249
G3 X1.0817 Y-0.7478 R0.025
G1 X1.0782 Y-0.7902
X1.0018 Y-1.71
X0.9987 Y-1.7479
G3 X1.0227 Y-1.775 R0.025
G1 X1.0975
X1.1063 Y-1.7751
X1.1112 Y-1.7753
X1.119 Y-1.7751
X1.1279 Y-1.7743
X1.1376 Y-1.7725
X1.148 Y-1.7698
X1.1601 Y-1.7655
X1.1721 Y-1.7602
X1.1861 Y-1.7526
X1.2 Y-1.7435
X1.2155 Y-1.7314
X1.2314 Y-1.7169
X1.2486 Y-1.6985
X1.2654 Y-1.6773
X1.2834 Y-1.6503
X1.302 Y-1.6172
X1.3182 Y-1.5817
X1.3319 Y-1.5452
X1.3436 Y-1.508
X1.3535 Y-1.4703
X1.3619 Y-1.4323
X1.369 Y-1.3939
X1.375 Y-1.3554
X1.38 Y-1.3167
X1.3842 Y-1.2779
X1.3876 Y-1.2391
X1.3903 Y-1.2002
X1.3924 Y-1.1613
X1.3939 Y-1.1223
X1.3946 Y-1.0833
X1.3947 Y-1.0443
X1.3938 Y-1.0054
X1.392 Y-0.9664
X1.389 Y-0.9275
X1.3846 Y-0.8888
X1.3785 Y-0.8503
X1.3701 Y-0.8122
X1.3608 Y-0.7813
X1.3514 Y-0.7573
X1.3422 Y-0.7385
X1.3333 Y-0.7234
X1.3234 Y-0.7095
X1.3139 Y-0.6981
X1.3036 Y-0.6875
X1.2977 Y-0.6824
X1.2878 Y-0.6754
X1.2766 Y-0.6707
X1.2647 Y-0.6683
X1.2526 Y-0.6685
X1.2408 Y-0.6711
X1.2297 Y-0.6762
X1.22 Y-0.6834
X1.2155 Y-0.6875
X1.2125 Y-0.69
X1.2046 Y-0.6964
X1.2036 Y-0.6971
X1.1948 Y-0.7023
X1.1859 Y-0.7073
X1.1771 Y-0.7118
X1.1714 Y-0.7141
G3 X1.1568 Y-0.7352 R0.025
G1 X1.1533 Y-0.7866
X1.0906 Y-1.7094
X1.0879 Y-1.7486
G3 X1.1112 Y-1.7753 R0.025
G1 X1.124 Y-1.7757
X1.1329 Y-1.7761
X1.1378 Y-1.7771
X1.1505 Y-1.7798
X1.1594 Y-1.7819
X1.1682 Y-1.7847
X1.174 Y-1.7864
X1.1807 Y-1.7876
X1.1882 Y-1.7882
X1.197 Y-1.7883
X1.2062 Y-1.7876
X1.217 Y-1.7859
X1.228 Y-1.7832
X1.2407 Y-1.7791
X1.2537 Y-1.7737
X1.2682 Y-1.7662
X1.2833 Y-1.7568
X1.2996 Y-1.7447
X1.3165 Y-1.73
X1.3347 Y-1.7114
X1.3525 Y-1.6899
X1.3715 Y-1.6628
X1.391 Y-1.6297
X1.4081 Y-1.5946
X1.4227 Y-1.5584
X1.4352 Y-1.5215
X1.4459 Y-1.484
X1.4551 Y-1.4461
X1.4629 Y-1.4079
X1.4696 Y-1.3695
X1.4752 Y-1.3309
X1.4799 Y-1.2922
X1.4838 Y-1.2534
X1.4869 Y-1.2146
X1.4893 Y-1.1756
X1.491 Y-1.1367
X1.492 Y-1.0977
X1.4922 Y-1.0587
X1.4915 Y-1.0197
X1.4898 Y-0.9808
X1.4871 Y-0.9419
X1.4831 Y-0.9031
X1.4775 Y-0.8645
X1.47 Y-0.8262
X1.4602 Y-0.7885
X1.4486 Y-0.7551
X1.4364 Y-0.7273
X1.4231 Y-0.7026
X1.4102 Y-0.6827
X1.3983 Y-0.6672
X1.386 Y-0.6535
X1.3746 Y-0.6429
X1.3624 Y-0.6331
X1.3511 Y-0.6254
X1.3388 Y-0.6185
X1.3275 Y-0.6133
X1.3249 Y-0.6123
X1.3131 Y-0.6093
X1.301 Y-0.6088
X1.289 Y-0.6108
X1.2777 Y-0.6153
X1.2676 Y-0.622
X1.259 Y-0.6306
X1.2525 Y-0.6409
G3 X1.2503 Y-0.6491 R0.025
G1 X1.2442 Y-0.7188
X1.1574 Y-1.7124
X1.1533 Y-1.7596
G3 X1.1682 Y-1.7847 R0.025
G1 X1.1714 Y-1.7859
X1.1771 Y-1.7882
X1.1859 Y-1.7927
X1.1948 Y-1.7977
X1.2036 Y-1.8029
X1.2046 Y-1.8036
X1.2095 Y-1.8071
X1.2148 Y-1.81
X1.2207 Y-1.8125
X1.2271 Y-1.8147
X1.2347 Y-1.8166
X1.2429 Y-1.818
X1.2525 Y-1.8188
X1.2626 Y-1.8189
X1.2741 Y-1.818
X1.2862 Y-1.8162
X1.2999 Y-1.8129
X1.3141 Y-1.8083
X1.33 Y-1.8016
X1.3458 Y-1.7935
X1.3639 Y-1.7822
X1.3814 Y-1.7692
X1.4012 Y-1.752
X1.4208 Y-1.7319
X1.4409 Y-1.7077
X1.4619 Y-1.6779
X1.4817 Y-1.6443
X1.499 Y-1.6093
X1.514 Y-1.5734
X1.527 Y-1.5366
X1.5384 Y-1.4993
X1.5482 Y-1.4616
X1.5566 Y-1.4235
X1.5639 Y-1.3852
X1.57 Y-1.3467
X1.5752 Y-1.308
X1.5796 Y-1.2693
X1.5831 Y-1.2305
X1.5859 Y-1.1916
X1.5879 Y-1.1526
X1.5891 Y-1.1137
X1.5895 Y-1.0747
X1.5891 Y-1.0357
X1.5877 Y-0.9967
X1.5853 Y-0.9578
X1.5816 Y-0.919
X1.5767 Y-0.8803
X1.5701 Y-0.8419
X1.5616 Y-0.8038
X1.5508 Y-0.7664
X1.5376 Y-0.7297
X1.5229 Y-0.697
X1.507 Y-0.668
X1.4906 Y-0.6432
X1.474 Y-0.622
X1.4567 Y-0.6031
X1.4397 Y-0.5874
X1.4335 Y-0.5825
X1.4225 Y-0.5757
X1.4103 Y-0.5714
X1.3974 Y-0.57
X1.3009
X1.2921 Y-0.5701
X1.2899 Y-0.5703
X1.2877 Y-0.5707
X1.2855 Y-0.5714
X1.2831 Y-0.5724
X1.281 Y-0.5735
X1.2788 Y-0.575
X1.2766 Y-0.5768
X1.2744 Y-0.5791
X1.2727 Y-0.5812
X1.2713 Y-0.5834
X1.2702 Y-0.5856
X1.2693 Y-0.5879
X1.2687 Y-0.5901
X1.2668 Y-0.5989
X1.2622 Y-0.6166
X1.2595 Y-0.6255
X1.2567 Y-0.6325
X1.2525 Y-0.6409
G3 X1.2503 Y-0.6501 R0.025
G1 X1.247 Y-0.719
X1.1987 Y-1.7277
X1.196 Y-1.7836
G3 X1.2046 Y-1.8036 R0.025
G1 X1.2125 Y-1.81
X1.2155 Y-1.8125
X1.2213 Y-1.8178
X1.2302 Y-1.8267
X1.2332 Y-1.8302
X1.235 Y-1.8324
X1.2389 Y-1.8369
X1.2433 Y-1.841
X1.2481 Y-1.8446
X1.2535 Y-1.8481
X1.26 Y-1.8516
X1.2672 Y-1.8548
X1.2755 Y-1.8576
X1.2847 Y-1.86
X1.2949 Y-1.8618
X1.3064 Y-1.8628
X1.3187 Y-1.863
X1.3326 Y-1.862
X1.3468 Y-1.8599
X1.3632 Y-1.856
X1.3797 Y-1.8508
X1.398 Y-1.8432
X1.4171 Y-1.8335
X1.4369 Y-1.8213
X1.4588 Y-1.8053
X1.4798 Y-1.7872
X1.5023 Y-1.7644
X1.5255 Y-1.7367
X1.5481 Y-1.7049
X1.5682 Y-1.6715
X1.586 Y-1.6368
X1.6017 Y-1.6011
X1.6155 Y-1.5647
X1.6277 Y-1.5276
X1.6383 Y-1.4901
X1.6476 Y-1.4522
X1.6557 Y-1.4141
X1.6626 Y-1.3757
X1.6686 Y-1.3372
X1.6737 Y-1.2985
X1.6778 Y-1.2598
X1.6812 Y-1.2209
X1.6838 Y-1.182
X1.6856 Y-1.1431
X1.6866 Y-1.1041
X1.6867 Y-1.0651
X1.6859 Y-1.0261
X1.6842 Y-0.9872
X1.6815 Y-0.9483
X1.6775 Y-0.9095
X1.6721 Y-0.8709
X1.6652 Y-0.8325
X1.6566 Y-0.7945
X1.6461 Y-0.7569
X1.6335 Y-0.72
X1.6187 Y-0.684
X1.6014 Y-0.649
X1.5818 Y-0.6162
X1.5665 Y-0.5946
X1.5592 Y-0.5862
X1.5505 Y-0.5793
X1.5406 Y-0.5742
X1.53 Y-0.5711
X1.5189 Y-0.57
X1.3974
G3 X1.3985 Y-0.62 R0.025
X1.3992 R0.025
G1 X1.4031 Y-0.6198 Z-0.2097
X1.4069 Y-0.6197 Z-0.2087
X1.4105 Y-0.6196 Z-0.2072
X1.4139 Y-0.6195 Z-0.2052
X1.4168 Y-0.6194 Z-0.2026
X1.4194 Y-0.6193 Z-0.1997
X1.4214 Y-0.6192 Z-0.1963
X1.4229 Y-0.6191 Z-0.1927
X1.4238 Z-0.1889
X1.4242 Z-0.185
G0 Z0.2
X1.1848 Y-1.7419
Z-0.16
G1 Z-0.185 F5.3
X1.185 Y-1.7422 Z-0.1889
X1.1853 Y-1.7431 Z-0.1927
X1.1859 Y-1.7444 Z-0.1963
X1.1868 Y-1.7463 Z-0.1997
X1.1878 Y-1.7486 Z-0.2026
X1.1891 Y-1.7513 Z-0.2052
X1.1904 Y-1.7544 Z-0.2072
X1.1919 Y-1.7577 Z-0.2087
X1.1935 Y-1.7612 Z-0.2097
X1.1951 Y-1.7647 Z-0.21
G3 X1.235 Y-1.8324 R0.3646
G1 X1.2403 Y-1.8391
X1.2462 Y-1.8479
X1.2479 Y-1.8504
X1.2513 Y-1.8568
X1.2567 Y-1.8675
X1.2594 Y-1.8729
X1.2628 Y-1.8778
X1.2666 Y-1.8824
X1.2713 Y-1.8872
X1.2766 Y-1.8917
X1.283 Y-1.8964
X1.2902 Y-1.9008
X1.2986 Y-1.9051
X1.308 Y-1.9089
X1.3183 Y-1.9123
X1.3302 Y-1.915
X1.3428 Y-1.9169
X1.3573 Y-1.9179
X1.3723 Y-1.9177
X1.389 Y-1.9162
X1.4072 Y-1.913
X1.426 Y-1.9082
X1.4469 Y-1.9009
X1.4683 Y-1.8916
X1.4906 Y-1.8795
X1.5151 Y-1.8637
X1.5394 Y-1.8451
X1.5644 Y-1.8225
X1.5903 Y-1.7951
X1.6146 Y-1.7646
X1.6367 Y-1.7325
X1.6566 Y-1.6989
X1.6745 Y-1.6643
X1.6905 Y-1.6287
X1.7048 Y-1.5925
X1.7175 Y-1.5556
X1.7287 Y-1.5183
X1.7387 Y-1.4806
X1.7474 Y-1.4426
X1.7551 Y-1.4043
X1.7617 Y-1.3659
X1.7674 Y-1.3273
X1.7722 Y-1.2886
X1.7762 Y-1.2499
X1.7793 Y-1.211
X1.7816 Y-1.1721
X1.7832 Y-1.1331
X1.7839 Y-1.0941
X1.7837 Y-1.0551
X1.7827 Y-1.0162
X1.7807 Y-0.9772
X1.7776 Y-0.9384
X1.7733 Y-0.8996
X1.7676 Y-0.861
X1.7606 Y-0.8227
X1.752 Y-0.7846
X1.7417 Y-0.747
X1.7298 Y-0.7099
X1.7159 Y-0.6735
X1.7 Y-0.6379
X1.6839 Y-0.6072
X1.6775 Y-0.5971
X1.6703 Y-0.5879
X1.6613 Y-0.5803
X1.6511 Y-0.5747
X1.6399 Y-0.5712
X1.6282 Y-0.57
X1.5189
G3 X1.52 Y-0.62 R0.025
X1.5207 R0.025
G1 X1.5246 Y-0.6198 Z-0.2097
X1.5284 Y-0.6197 Z-0.2087
X1.532 Y-0.6196 Z-0.2072
X1.5353 Y-0.6195 Z-0.2052
X1.5383 Y-0.6194 Z-0.2026
X1.5409 Y-0.6193 Z-0.1997
X1.5429 Y-0.6192 Z-0.1963
X1.5444 Y-0.6191 Z-0.1927
X1.5453 Z-0.1889
X1.5456 Z-0.185
G0 Z0.2
X1.2353 Y-1.7663
Z-0.16
G1 Z-0.185 F5.3
X1.2354 Y-1.7666 Z-0.1889
X1.2355 Y-1.7675 Z-0.1927
X1.2357 Y-1.769 Z-0.1963
X1.2359 Y-1.7711 Z-0.1997
X1.2363 Y-1.7736 Z-0.2026
X1.2366 Y-1.7765 Z-0.2052
X1.2371 Y-1.7799 Z-0.2072
X1.2375 Y-1.7835 Z-0.2087
X1.238 Y-1.7872 Z-0.2097
X1.2385 Y-1.7911 Z-0.21
G3 X1.2567 Y-1.8675 R0.3646
G1 X1.2595 Y-1.8745
X1.2622 Y-1.8834
X1.2668 Y-1.9011
X1.2679 Y-1.9059
X1.2687 Y-1.9099
X1.2693 Y-1.9121
X1.2702 Y-1.9144
X1.2713 Y-1.9166
X1.2727 Y-1.9188
X1.2744 Y-1.9209
X1.2766 Y-1.9232
X1.2788 Y-1.925
X1.281 Y-1.9265
X1.2833 Y-1.9277
X1.2855 Y-1.9286
X1.2877 Y-1.9293
X1.2899 Y-1.9297
X1.2921 Y-1.9299
X1.3009 Y-1.93
X1.4867
X1.498 Y-1.9294
X1.5106 Y-1.9278
X1.5258 Y-1.9245
X1.541 Y-1.92
X1.559 Y-1.913
X1.5774 Y-1.904
X1.5984 Y-1.8916
X1.6195 Y-1.8769
X1.6429 Y-1.8574
X1.6678 Y-1.8332
X1.6932 Y-1.804
X1.7164 Y-1.7726
X1.7374 Y-1.7397
X1.7562 Y-1.7056
X1.7733 Y-1.6706
X1.7886 Y-1.6347
X1.8023 Y-1.5982
X1.8147 Y-1.5612
X1.8257 Y-1.5238
X1.8355 Y-1.4861
X1.8442 Y-1.4481
X1.8518 Y-1.4098
X1.8585 Y-1.3714
X1.8642 Y-1.3329
X1.8691 Y-1.2942
X1.8731 Y-1.2554
X1.8763 Y-1.2165
X1.8788 Y-1.1776
X1.8804 Y-1.1387
X1.8811 Y-1.0997
X1.881 Y-1.0607
X1.8801 Y-1.0217
X1.8781 Y-0.9828
X1.8751 Y-0.9439
X1.871 Y-0.9051
X1.8657 Y-0.8665
X1.8592 Y-0.828
X1.8513 Y-0.7899
X1.842 Y-0.752
X1.8387 Y-0.7404
X1.8345 Y-0.7299
X1.8285 Y-0.7205
X1.8207 Y-0.7123
X1.8115 Y-0.7059
X1.8052 Y-0.7023
X1.7964 Y-0.6971
X1.7954 Y-0.6964
X1.7875 Y-0.69
X1.7845 Y-0.6875
X1.7787 Y-0.6822
X1.7698 Y-0.6733
X1.7668 Y-0.6698
X1.7597 Y-0.6609
X1.7538 Y-0.6521
X1.7521 Y-0.6496
X1.7487 Y-0.6432
X1.7433 Y-0.6325
X1.7405 Y-0.6255
X1.7378 Y-0.6166
X1.7332 Y-0.5989
X1.7326 Y-0.5963
X1.7313 Y-0.5901
X1.7307 Y-0.5879
X1.7298 Y-0.5856
X1.7287 Y-0.5834
X1.7273 Y-0.5812
X1.7256 Y-0.5791
X1.7234 Y-0.5768
X1.7212 Y-0.575
X1.719 Y-0.5735
X1.7167 Y-0.5723
X1.7145 Y-0.5714
X1.7123 Y-0.5707
X1.7101 Y-0.5703
X1.7079 Y-0.5701
X1.6991 Y-0.57
X1.6282
G3 X1.6293 Y-0.62 R0.025
X1.63 R0.025
G1 X1.6339 Y-0.6198 Z-0.2097
X1.6377 Y-0.6197 Z-0.2087
X1.6413 Y-0.6196 Z-0.2072
X1.6447 Y-0.6195 Z-0.2052
X1.6476 Y-0.6194 Z-0.2026
X1.6502 Y-0.6193 Z-0.1997
X1.6522 Y-0.6192 Z-0.1963
X1.6537 Y-0.6191 Z-0.1927
X1.6546 Z-0.1889
X1.6549 Z-0.185
G0 Z0.2
X1.3899 Y-1.8951
Z-0.16
G1 Z-0.185 F5.3
X1.3901 Y-1.8952 Z-0.1889
X1.3909 Y-1.8957 Z-0.1927
X1.3922 Y-1.8965 Z-0.1963
X1.394 Y-1.8975 Z-0.1997
X1.3962 Y-1.8988 Z-0.2026
X1.3987 Y-1.9004 Z-0.2052
X1.4016 Y-1.9021 Z-0.2072
X1.4047 Y-1.9039 Z-0.2087
X1.408 Y-1.9059 Z-0.2097
X1.4114 Y-1.9079 Z-0.21
G3 X1.4867 Y-1.93 R0.1583
G1 X1.6017
X1.6144 Y-1.9294
X1.6259 Y-1.9279
X1.6387 Y-1.9251
X1.6522 Y-1.9211
X1.6683 Y-1.9148
X1.6843 Y-1.9071
X1.703 Y-1.8961
X1.7218 Y-1.8828
X1.7363 Y-1.8707
X1.7417 Y-1.8657
X1.7463 Y-1.8601
X1.7503 Y-1.8539
G3 X1.7168 Y-1.8202 R0.025
G1 X1.7024 Y-1.8274
X1.6026 Y-1.8771
X1.5915 Y-1.8826
G3 X1.6017 Y-1.93 R0.025
G1 X1.6991
X1.7079 Y-1.9299
X1.7101 Y-1.9297
X1.7123 Y-1.9293
X1.7145 Y-1.9286
X1.7169 Y-1.9276
X1.719 Y-1.9265
X1.7212 Y-1.925
X1.7234 Y-1.9232
X1.7256 Y-1.9209
X1.7273 Y-1.9188
X1.7287 Y-1.9166
X1.7298 Y-1.9144
X1.7307 Y-1.9121
X1.7313 Y-1.9099
X1.7332 Y-1.9011
X1.7368 Y-1.8873
X1.7378 Y-1.8834
X1.7405 Y-1.8745
X1.7433 Y-1.8675
X1.7487 Y-1.8568
X1.7521 Y-1.8504
X1.7538 Y-1.8479
X1.7597 Y-1.8391
X1.7668 Y-1.8302
X1.7698 Y-1.8267
X1.7752 Y-1.8213
X1.7951 Y-1.7992
X1.8177 Y-1.7696
X1.8388 Y-1.7369
X1.8575 Y-1.7027
X1.8742 Y-1.6674
X1.8892 Y-1.6314
X1.9025 Y-1.5948
X1.9144 Y-1.5577
X1.9251 Y-1.5201
X1.9345 Y-1.4823
X1.9429 Y-1.4442
X1.9503 Y-1.406
X1.9568 Y-1.3675
X1.9623 Y-1.3289
X1.9671 Y-1.2902
X1.9709 Y-1.2514
X1.974 Y-1.2125
X1.9763 Y-1.1736
X1.9777 Y-1.1347
X1.9784 Y-1.0957
X1.9782 Y-1.0567
X1.9771 Y-1.0177
X1.975 Y-0.9788
X1.9719 Y-0.9399
X1.9678 Y-0.9011
X1.9626 Y-0.8625
X1.9562 Y-0.824
X1.9485 Y-0.7858
X1.9432 Y-0.767
X1.9386 Y-0.7557
X1.9318 Y-0.7456
X1.923 Y-0.7371
X1.9126 Y-0.7306
X1.9011 Y-0.7264
X1.889 Y-0.7247
X1.876 Y-0.7243
X1.8671 Y-0.7239
X1.8622 Y-0.7229
X1.8495 Y-0.7202
G3 X1.8202 Y-0.7428 R0.025
G1 X1.8172 Y-0.7797
X1.7347 Y-1.7827
X1.7331 Y-1.8011
G3 X1.7752 Y-1.8213 R0.025
G1 X1.7787 Y-1.8178
X1.7845 Y-1.8125
X1.7875 Y-1.81
X1.7954 Y-1.8036
X1.7964 Y-1.8029
X1.8052 Y-1.7977
X1.8141 Y-1.7927
X1.8229 Y-1.7882
X1.8286 Y-1.7859
X1.8318 Y-1.7847
X1.8406 Y-1.7819
X1.8466 Y-1.7801
X1.855 Y-1.7767
X1.8648 Y-1.7719
X1.8758 Y-1.7653
X1.8874 Y-1.757
X1.9008 Y-1.7458
X1.9146 Y-1.7321
X1.9303 Y-1.7139
X1.947 Y-1.6909
X1.965 Y-1.6614
X1.9827 Y-1.6267
X1.9978 Y-1.5907
X2.0108 Y-1.554
X2.0221 Y-1.5166
X2.032 Y-1.4789
X2.0406 Y-1.4409
X2.0481 Y-1.4026
X2.0546 Y-1.3642
X2.0601 Y-1.3256
X2.0648 Y-1.2869
X2.0686 Y-1.2481
X2.0716 Y-1.2092
X2.0737 Y-1.1703
X2.0751 Y-1.1313
X2.0756 Y-1.0923
X2.0753 Y-1.0533
X2.0741 Y-1.0143
X2.072 Y-0.9754
X2.0689 Y-0.9365
X2.0648 Y-0.8978
X2.0597 Y-0.8591
X2.0531 Y-0.8207
X2.0468 Y-0.795
X2.0403 Y-0.7752
X2.0327 Y-0.7574
X2.0322 Y-0.7563
X2.0251 Y-0.7458
X2.0159 Y-0.737
X2.0051 Y-0.7305
X1.9931 Y-0.7264
X1.9805 Y-0.725
X1.9025
X1.8937 Y-0.7249
X1.889 Y-0.7247
G3 X1.8641 Y-0.7484 R0.025
G1 X1.8619 Y-0.789
X1.8123 Y-1.7234
X1.8105 Y-1.7561
G3 X1.8406 Y-1.7819 R0.025
G1 X1.8495 Y-1.7798
X1.8622 Y-1.7771
X1.8671 Y-1.7761
X1.876 Y-1.7757
X1.8937 Y-1.7751
X1.9025 Y-1.775
X1.9095 Y-1.7747
X1.9172 Y-1.7736
X1.9263 Y-1.7717
X1.9356 Y-1.7689
X1.9462 Y-1.7648
X1.9581 Y-1.759
X1.97 Y-1.752
X1.9839 Y-1.7422
X1.9979 Y-1.7307
X2.0135 Y-1.7154
X2.0293 Y-1.6973
X2.0467 Y-1.6738
X2.065 Y-1.6443
X2.0829 Y-1.6096
X2.0982 Y-1.5737
X2.1113 Y-1.537
X2.1226 Y-1.4997
X2.1323 Y-1.462
X2.1408 Y-1.4239
X2.148 Y-1.3856
X2.1542 Y-1.3471
X2.1594 Y-1.3084
X2.1638 Y-1.2697
X2.1672 Y-1.2309
X2.1698 Y-1.192
X2.1716 Y-1.153
X2.1726 Y-1.114
X2.1728 Y-1.075
X2.1721 Y-1.036
X2.1705 Y-0.9971
X2.168 Y-0.9582
X2.1646 Y-0.9193
X2.1601 Y-0.8806
X2.154 Y-0.8421
X2.1462 Y-0.8075
X2.1385 Y-0.7829
X2.1309 Y-0.764
X2.1276 Y-0.7573
X2.1206 Y-0.7465
X2.1113 Y-0.7374
X2.1004 Y-0.7306
X2.0882 Y-0.7264
X2.0754 Y-0.725
X1.9805
G3 X1.9564 Y-0.748 R0.025
G1 X1.9531 Y-0.79
X1.8814 Y-1.71
X1.8785 Y-1.7481
G3 X1.9025 Y-1.775 R0.025
G1 X1.987
X1.9953 Y-1.7746
X2.0043 Y-1.7734
X2.0137 Y-1.7714
X2.0249 Y-1.7681
X2.0361 Y-1.7637
X2.0488 Y-1.7575
X2.0627 Y-1.7494
X2.0768 Y-1.7394
X2.0929 Y-1.7261
X2.1087 Y-1.7107
X2.126 Y-1.6908
X2.1444 Y-1.666
X2.163 Y-1.636
X2.1809 Y-1.6014
X2.1962 Y-1.5655
X2.2094 Y-1.5288
X2.2207 Y-1.4915
X2.2305 Y-1.4538
X2.2389 Y-1.4157
X2.2461 Y-1.3774
X2.2523 Y-1.3389
X2.2574 Y-1.3002
X2.2616 Y-1.2614
X2.2649 Y-1.2226
X2.2674 Y-1.1837
X2.2691 Y-1.1447
X2.2699 Y-1.1058
Y-1.0668
X2.269 Y-1.0278
X2.2673 Y-0.9888
X2.2647 Y-0.9499
X2.261 Y-0.9111
X2.2559 Y-0.8725
X2.2488 Y-0.8341
X2.2408 Y-0.8022
X2.233 Y-0.779
X2.2247 Y-0.7598
X2.2227 Y-0.756
X2.2156 Y-0.7456
X2.2065 Y-0.7369
X2.1957 Y-0.7304
X2.1837 Y-0.7264
X2.1712 Y-0.725
X2.0754
G3 X2.0513 Y-0.7478 R0.025
G1 X2.0476 Y-0.79
X1.9663 Y-1.71
X1.963 Y-1.7478
G3 X1.987 Y-1.775 R0.025
G1 X2.0795
X2.0863 Y-1.7747
X2.0959 Y-1.7734
X2.1057 Y-1.7713
X2.1169 Y-1.768
X2.1293 Y-1.7631
X2.142 Y-1.7569
X2.1568 Y-1.7482
X2.1712 Y-1.7381
X2.1879 Y-1.7243
X2.2041 Y-1.7084
X2.2222 Y-1.6877
X2.2408 Y-1.6626
X2.2599 Y-1.6319
X2.2778 Y-1.5972
X2.2932 Y-1.5614
X2.3064 Y-1.5247
X2.3179 Y-1.4874
X2.3277 Y-1.4497
X2.3362 Y-1.4117
X2.3435 Y-1.3734
X2.3496 Y-1.3348
X2.3548 Y-1.2962
X2.359 Y-1.2574
X2.3623 Y-1.2186
X2.3647 Y-1.1797
X2.3663 Y-1.1407
X2.3671 Y-1.1017
Y-1.0627
X2.3662 Y-1.0238
X2.3644 Y-0.9848
X2.3616 Y-0.9459
X2.3575 Y-0.9071
X2.3519 Y-0.8685
X2.3444 Y-0.8303
X2.3362 Y-0.7993
X2.3282 Y-0.7765
X2.3198 Y-0.7576
X2.318 Y-0.7543
X2.3104 Y-0.7435
X2.3005 Y-0.7347
X2.289 Y-0.7283
X2.2763 Y-0.7247
X2.2631 Y-0.724
X2.2476 Y-0.725
X2.1712
G3 X2.1471 Y-0.7477 R0.025
G1 X2.1433 Y-0.79
X2.0589 Y-1.71
X2.0554 Y-1.7477
G3 X2.0795 Y-1.775 R0.025
G1 X2.1679
X2.1801 Y-1.7744
X2.1896 Y-1.7731
X2.1999 Y-1.7709
X2.2111 Y-1.7676
X2.2239 Y-1.7626
X2.2367 Y-1.7564
X2.2516 Y-1.7476
X2.2665 Y-1.7372
X2.2832 Y-1.7233
X2.2999 Y-1.707
X2.3184 Y-1.6858
X2.3372 Y-1.6604
X2.3567 Y-1.6291
X2.3745 Y-1.5945
X2.39 Y-1.5586
X2.4033 Y-1.522
X2.4148 Y-1.4847
X2.4247 Y-1.447
X2.4333 Y-1.409
X2.4406 Y-1.3707
X2.4468 Y-1.3322
X2.452 Y-1.2936
X2.4562 Y-1.2548
X2.4595 Y-1.2159
X2.4619 Y-1.177
X2.4635 Y-1.1381
X2.4643 Y-1.0991
X2.4642 Y-1.0601
X2.4633 Y-1.0211
X2.4614 Y-0.9822
X2.4583 Y-0.9433
X2.454 Y-0.9046
X2.4481 Y-0.866
X2.4404 Y-0.8278
X2.432 Y-0.7971
X2.4236 Y-0.7739
X2.4152 Y-0.7554
X2.4068 Y-0.7404
X2.3975 Y-0.7264
X2.3968 Y-0.7254
X2.3887 Y-0.717
X2.379 Y-0.7104
X2.3683 Y-0.7059
X2.3568 Y-0.7035
X2.3452
X2.3337 Y-0.7059
X2.3006 Y-0.7161
X2.2737 Y-0.7229
X2.2716 Y-0.7234
X2.2695 Y-0.7236
X2.2631 Y-0.724
G3 X2.2406 Y-0.7465 R0.025
G1 X2.2364 Y-0.7904
X2.1476 Y-1.7101
X2.1439 Y-1.7476
G3 X2.1679 Y-1.775 R0.025
G1 X2.2476
X2.2564 Y-1.7756
X2.2672 Y-1.7757
X2.2756 Y-1.7751
X2.2855 Y-1.7737
X2.2962 Y-1.7712
X2.3078 Y-1.7675
X2.3211 Y-1.7621
X2.3342 Y-1.7554
X2.3497 Y-1.746
X2.3649 Y-1.7349
X2.3822 Y-1.72
X2.3993 Y-1.7028
X2.4181 Y-1.6805
X2.4377 Y-1.6531
X2.4577 Y-1.6197
X2.475 Y-1.5848
X2.4899 Y-1.5487
X2.5028 Y-1.512
X2.514 Y-1.4746
X2.5237 Y-1.4368
X2.532 Y-1.3987
X2.5391 Y-1.3604
X2.5451 Y-1.3219
X2.55 Y-1.2832
X2.5541 Y-1.2444
X2.5572 Y-1.2055
X2.5595 Y-1.1666
X2.5609 Y-1.1277
X2.5615 Y-1.0887
X2.5611 Y-1.0497
X2.5599 Y-1.0107
X2.5576 Y-0.9718
X2.5542 Y-0.9329
X2.5494 Y-0.8942
X2.543 Y-0.8558
X2.5346 Y-0.8177
X2.5243 Y-0.783
X2.5138 Y-0.756
X2.5037 Y-0.7351
X2.494 Y-0.7185
X2.4843 Y-0.7047
X2.4793 Y-0.6986
X2.4711 Y-0.6905
X2.4616 Y-0.6842
X2.451 Y-0.6798
X2.4397 Y-0.6777
X2.4283
X2.417 Y-0.68
X2.3337 Y-0.7059
G3 X2.317 Y-0.7274 R0.025
G1 X2.313 Y-0.777
X2.2372 Y-1.7091
X2.2339 Y-1.7487
G3 X2.2564 Y-1.7756 R0.025
G1 X2.2695 Y-1.7764
X2.2716 Y-1.7766
X2.2741 Y-1.7771
X2.3006 Y-1.7839
X2.3144 Y-1.7881
X2.3225 Y-1.7902
X2.3283 Y-1.7917
X2.3342 Y-1.7927
X2.3402 Y-1.7933
X2.3462 Y-1.7936
X2.3522
X2.3582 Y-1.7932
X2.3641 Y-1.7926
X2.3701 Y-1.7917
X2.376 Y-1.7905
X2.3818 Y-1.7891
X2.3876 Y-1.7875
X2.3933 Y-1.7856
X2.3989 Y-1.7836
X2.4045 Y-1.7814
X2.41 Y-1.779
X2.4154 Y-1.7764
X2.4208 Y-1.7737
X2.426 Y-1.7709
X2.4312 Y-1.7679
X2.4364 Y-1.7647
X2.4414 Y-1.7614
X2.4463 Y-1.758
X2.4512 Y-1.7545
X2.456 Y-1.7509
X2.4607 Y-1.7472
X2.4653 Y-1.7434
X2.4699 Y-1.7395
X2.4744 Y-1.7355
X2.4787 Y-1.7314
X2.4831 Y-1.7272
X2.4873 Y-1.723
X2.4914 Y-1.7186
X2.4955 Y-1.7143
X2.4995 Y-1.7098
X2.5035 Y-1.7053
X2.5073 Y-1.7007
X2.5111 Y-1.696
X2.5148 Y-1.6913
X2.5185 Y-1.6865
X2.5221 Y-1.6817
X2.5256 Y-1.6769
X2.529 Y-1.6719
X2.5324 Y-1.667
X2.5357 Y-1.662
X2.539 Y-1.6569
X2.5421 Y-1.6518
X2.5453 Y-1.6467
X2.5483 Y-1.6416
X2.5513 Y-1.6364
X2.5543 Y-1.6311
X2.5572 Y-1.6259
X2.56 Y-1.6206
X2.5628 Y-1.6153
X2.5655 Y-1.6099
X2.5682 Y-1.6046
X2.5708 Y-1.5992
X2.5733 Y-1.5937
X2.5758 Y-1.5883
X2.5783 Y-1.5828
X2.5807 Y-1.5773
X2.5831 Y-1.5718
X2.5854 Y-1.5663
X2.5877 Y-1.5607
X2.5899 Y-1.5551
X2.5921 Y-1.5495
X2.5942 Y-1.5439
X2.5964 Y-1.538
X2.5984 Y-1.5324
X2.6005 Y-1.5267
X2.6024 Y-1.521
X2.6044 Y-1.5152
X2.6065 Y-1.5089
X2.6086 Y-1.5023
X2.6108 Y-1.4954
X2.6126 Y-1.4893
X2.6145 Y-1.483
X2.6164 Y-1.4763
X2.6184 Y-1.4692
X2.6205 Y-1.4615
X2.6226 Y-1.4538
X2.6244 Y-1.4468
X2.6262 Y-1.4395
X2.6281 Y-1.4316
X2.6301 Y-1.4231
X2.6322 Y-1.4142
X2.6339 Y-1.4064
X2.6356 Y-1.3981
X2.6375 Y-1.3891
X2.6394 Y-1.3794
X2.6411 Y-1.3701
X2.6427 Y-1.3612
X2.6444 Y-1.3515
X2.6471 Y-1.3352
X2.6485 Y-1.3257
X2.65 Y-1.3156
X2.6516 Y-1.3045
X2.6531 Y-1.2926
X2.6544 Y-1.2825
X2.6557 Y-1.2713
X2.6571 Y-1.2591
X2.6583 Y-1.2472
X2.6593 Y-1.2361
X2.6604 Y-1.2238
X2.6615 Y-1.2104
X2.6623 Y-1.1993
X2.6631 Y-1.1871
X2.6639 Y-1.1735
X2.6645 Y-1.1617
X2.665 Y-1.1498
X2.6655 Y-1.1366
X2.6658 Y-1.1238
X2.6661 Y-1.1125
X2.6663 Y-1.1001
X2.6664 Y-1.0864
X2.6663 Y-1.076
Y-1.0648
X2.6661 Y-1.0524
X2.6658 Y-1.0405
X2.6655 Y-1.0309
X2.6651 Y-1.0205
X2.6646 Y-1.009
X2.664 Y-0.9981
X2.6635 Y-0.9896
X2.6629 Y-0.9805
X2.6622 Y-0.9707
X2.6613 Y-0.9599
X2.6606 Y-0.9518
X2.6599 Y-0.9445
X2.6591 Y-0.9368
X2.6582 Y-0.9285
X2.6571 Y-0.9196
X2.656 Y-0.911
X2.6552 Y-0.9049
X2.6544 Y-0.899
X2.6535 Y-0.8928
X2.6525 Y-0.8863
X2.6513 Y-0.8793
X2.6501 Y-0.872
X2.649 Y-0.8658
X2.6479 Y-0.8599
X2.6467 Y-0.854
X2.6455 Y-0.8481
X2.6442 Y-0.8422
X2.6429 Y-0.8364
X2.6416 Y-0.8305
X2.6402 Y-0.8247
X2.6388 Y-0.8189
X2.6373 Y-0.8131
X2.6357 Y-0.8073
X2.6341 Y-0.8015
X2.6324 Y-0.7957
X2.6307 Y-0.79
X2.6289 Y-0.7843
X2.627 Y-0.7786
X2.6251 Y-0.7729
X2.6231 Y-0.7672
X2.621 Y-0.7616
X2.6189 Y-0.756
X2.6166 Y-0.7504
X2.6144 Y-0.7449
X2.612 Y-0.7393
X2.6096 Y-0.7339
X2.607 Y-0.7284
X2.6044 Y-0.723
X2.6017 Y-0.7177
X2.5989 Y-0.7124
X2.596 Y-0.7071
X2.593 Y-0.7019
X2.5899 Y-0.6968
X2.5866 Y-0.6917
X2.5833 Y-0.6868
X2.5798 Y-0.6819
X2.5762 Y-0.6771
X2.5725 Y-0.6723
X2.5705 Y-0.67
X2.5624 Y-0.662
X2.5529 Y-0.6557
X2.5423 Y-0.6514
X2.5311 Y-0.6493
X2.5197 Y-0.6494
X2.5085 Y-0.6517
X2.417 Y-0.68
G3 X2.4004 Y-0.7012 R0.025
G1 X2.3956 Y-0.7511
X2.3021 Y-1.7171
X2.2977 Y-1.7621
G3 X2.3144 Y-1.7881 R0.025
G1 X2.3929 Y-1.8125
X2.4019 Y-1.8148
X2.4077 Y-1.8162
X2.4137 Y-1.8173
X2.4196 Y-1.818
X2.4256 Y-1.8184
X2.4316 Y-1.8185
X2.4376 Y-1.8183
X2.4436 Y-1.8178
X2.4495 Y-1.8171
X2.4554 Y-1.8161
X2.4613 Y-1.8149
X2.4672 Y-1.8134
X2.4729 Y-1.8118
X2.4786 Y-1.81
X2.4843 Y-1.808
X2.4899 Y-1.8058
X2.4954 Y-1.8035
X2.5009 Y-1.801
X2.5063 Y-1.7983
X2.5116 Y-1.7955
X2.5168 Y-1.7926
X2.522 Y-1.7896
X2.5271 Y-1.7864
X2.5321 Y-1.7831
X2.537 Y-1.7797
X2.5419 Y-1.7762
X2.5467 Y-1.7726
X2.5514 Y-1.7688
X2.556 Y-1.765
X2.5606 Y-1.7612
X2.5651 Y-1.7572
X2.5695 Y-1.7531
X2.5739 Y-1.749
X2.5781 Y-1.7448
X2.5823 Y-1.7405
X2.5865 Y-1.7361
X2.5905 Y-1.7317
X2.5945 Y-1.7273
X2.5985 Y-1.7227
X2.6023 Y-1.7181
X2.6061 Y-1.7135
X2.6098 Y-1.7088
X2.6135 Y-1.704
X2.6171 Y-1.6992
X2.6206 Y-1.6944
X2.6241 Y-1.6895
X2.6275 Y-1.6846
X2.6309 Y-1.6796
X2.6342 Y-1.6746
X2.6374 Y-1.6695
X2.6406 Y-1.6644
X2.6437 Y-1.6593
X2.6468 Y-1.6542
X2.6498 Y-1.649
X2.6528 Y-1.6437
X2.6557 Y-1.6385
X2.6585 Y-1.6332
X2.6613 Y-1.6279
X2.6641 Y-1.6226
X2.6668 Y-1.6172
X2.6694 Y-1.6118
X2.672 Y-1.6064
X2.6746 Y-1.601
X2.6771 Y-1.5956
X2.6796 Y-1.5901
X2.682 Y-1.5846
X2.6843 Y-1.5791
X2.6867 Y-1.5736
X2.689 Y-1.568
X2.6912 Y-1.5624
X2.6934 Y-1.5569
X2.6956 Y-1.5512
X2.6978 Y-1.5454
X2.6999 Y-1.5396
X2.7021 Y-1.5336
X2.7042 Y-1.5275
X2.7064 Y-1.5212
X2.7085 Y-1.5148
X2.7107 Y-1.5083
X2.7128 Y-1.5016
X2.7149 Y-1.4948
X2.717 Y-1.4879
X2.7191 Y-1.4808
X2.7212 Y-1.4736
X2.7225 Y-1.4689
G3 X2.6797 Y-1.4462 R0.025
G1 X2.6712 Y-1.4555
X2.4023 Y-1.7505
X2.3826 Y-1.772
G3 X2.3929 Y-1.8125 R0.025
G1 X2.4776 Y-1.8387
X2.4861 Y-1.8409
X2.4919 Y-1.8424
X2.4978 Y-1.8435
X2.5038 Y-1.8442
X2.5098 Y-1.8446
X2.5158 Y-1.8447
X2.5218 Y-1.8446
X2.5278 Y-1.8442
X2.5337 Y-1.8435
X2.5396 Y-1.8426
X2.5455 Y-1.8415
X2.5514 Y-1.8402
X2.5572 Y-1.8386
X2.5629 Y-1.8369
X2.5686 Y-1.835
X2.5743 Y-1.833
X2.5798 Y-1.8307
X2.5853 Y-1.8284
X2.5908 Y-1.8258
X2.5962 Y-1.8232
X2.6015 Y-1.8204
X2.6067 Y-1.8174
X2.6119 Y-1.8144
X2.617 Y-1.8112
X2.622 Y-1.8079
X2.6269 Y-1.8045
X2.6318 Y-1.8011
X2.6366 Y-1.7975
X2.6414 Y-1.7938
X2.6461 Y-1.79
X2.6507 Y-1.7862
X2.6552 Y-1.7822
X2.6597 Y-1.7782
X2.664 Y-1.7742
X2.6684 Y-1.77
X2.6726 Y-1.7658
X2.6802 Y-1.7597
X2.6887 Y-1.7549
X2.6979 Y-1.7516
X2.7075 Y-1.7499
X2.7173 Y-1.7498
X2.7269 Y-1.7514
X2.7361 Y-1.7545
X2.7447 Y-1.7591
X2.7524 Y-1.7651
X2.759 Y-1.7723
X2.7643 Y-1.7804
X2.772 Y-1.7983
X2.7764 Y-1.8371
X2.7794 Y-1.876
X2.7805 Y-1.8965
X2.7825 Y-1.9087
X2.7871 Y-1.9201
X2.7941 Y-1.9303
X2.8031 Y-1.9387
X2.8138 Y-1.945
X2.8226 Y-1.9495
X2.8315 Y-1.9553
X2.8403 Y-1.9618
X2.8418 Y-1.9631
X2.8491 Y-1.9693
X2.8518 Y-1.9719
X2.858 Y-1.9785
X2.8599 Y-1.9808
X2.8668 Y-1.9894
X2.8732 Y-1.9985
X2.8757 Y-2.003
X2.878 Y-2.0074
X2.8824 Y-2.0162
X2.8861 Y-2.0251
X2.8889 Y-2.0339
X2.8912 Y-2.0428
X2.8929 Y-2.0517
X2.8944 Y-2.0694
G3 X2.9441 Y-2.0643 R0.025
X2.944 Y-2.0636 R0.025
G1 X2.9436 Y-2.0597 Z-0.2097
X2.9431 Y-2.0559 Z-0.2087
X2.9427 Y-2.0523 Z-0.2072
X2.9423 Y-2.049 Z-0.2052
X2.942 Y-2.046 Z-0.2026
X2.9417 Y-2.0435 Z-0.1997
X2.9415 Y-2.0415 Z-0.1963
X2.9413 Y-2.04 Z-0.1927
X2.9412 Y-2.0391 Z-0.1889
Y-2.0388 Z-0.185
G0 Z0.2
X2.9367 Y-0.3276
Z-0.16
G1 Z-0.185 F5.3
X2.9365 Y-0.3279 Z-0.1889
X2.936 Y-0.3286 Z-0.1927
X2.9351 Y-0.3299 Z-0.1963
X2.9339 Y-0.3316 Z-0.1997
X2.9325 Y-0.3336 Z-0.2026
X2.9308 Y-0.3361 Z-0.2052
X2.9289 Y-0.3388 Z-0.2072
X2.9268 Y-0.3418 Z-0.2087
X2.9246 Y-0.345 Z-0.2097
X2.9224 Y-0.3482 Z-0.21
G3 X2.895 Y-0.4218 R0.1583
G1 X2.8944 Y-0.4306
X2.8929 Y-0.4483
X2.8912 Y-0.4572
X2.8889 Y-0.4661
X2.8861 Y-0.4749
X2.8824 Y-0.4838
X2.878 Y-0.4926
X2.8757 Y-0.497
X2.8732 Y-0.5015
X2.8668 Y-0.5106
X2.8599 Y-0.5192
X2.8563 Y-0.524
X2.8527 Y-0.5288
X2.8494 Y-0.5338
X2.8462 Y-0.5388
X2.8432 Y-0.544
X2.8403 Y-0.5493
X2.8376 Y-0.5547
X2.835 Y-0.5601
X2.8326 Y-0.5656
X2.8303 Y-0.5711
X2.8281 Y-0.5767
X2.826 Y-0.5823
X2.824 Y-0.588
X2.8221 Y-0.5937
X2.8203 Y-0.5994
X2.8186 Y-0.6052
X2.817 Y-0.6109
X2.8155 Y-0.6167
X2.8141 Y-0.6226
X2.8127 Y-0.6284
X2.8114 Y-0.6343
X2.8101 Y-0.6401
X2.8089 Y-0.646
X2.8078 Y-0.6519
X2.8068 Y-0.6578
X2.8057 Y-0.6637
X2.8048 Y-0.6696
X2.8039 Y-0.6756
X2.803 Y-0.6816
X2.8021 Y-0.6879
X2.8012 Y-0.6947
X2.8003 Y-0.7018
X2.7994 Y-0.7094
X2.7989 Y-0.7143
G3 X2.8477 Y-0.7234 R0.025
G1 X2.8493 Y-0.7181
X2.899 Y-0.5541
X2.9023 Y-0.5433
G3 X2.8599 Y-0.5192 R0.025
G1 X2.858 Y-0.5215
X2.8518 Y-0.5281
X2.8491 Y-0.5307
X2.8418 Y-0.5369
X2.8403 Y-0.5382
X2.8315 Y-0.5447
X2.8226 Y-0.5505
X2.8138 Y-0.555
X2.8077 Y-0.5582
X2.8024 Y-0.561
X2.7973 Y-0.5641
X2.78 Y-0.5731
X2.7449 Y-0.5789
X2.7423 Y-0.5794
X2.7398 Y-0.58
X2.7373 Y-0.5807
G3 X2.7538 Y-0.628 R0.025
X2.8228 Y-0.5644 R0.1181
X2.8138 Y-0.555 R0.007
G1 X2.8049 Y-0.559
X2.7961 Y-0.5624
X2.7644 Y-0.5724
X2.5085 Y-0.6517
G3 X2.4918 Y-0.6746 R0.025
G1 X2.4904 Y-0.7229
X2.4621 Y-1.7675
X2.4608 Y-1.8145
G3 X2.4776 Y-1.8387 R0.025
G1 X2.7695 Y-1.9292
X2.7961 Y-1.9376
X2.8049 Y-1.941
X2.8138 Y-1.945
G3 X2.8332 Y-1.8989 R0.025
X2.8326 Y-1.8986 R0.025
G1 X2.829 Y-1.8972 Z-0.2097
X2.8254 Y-1.8957 Z-0.2087
X2.8221 Y-1.8944 Z-0.2072
X2.819 Y-1.8931 Z-0.2052
X2.8162 Y-1.892 Z-0.2026
X2.8139 Y-1.891 Z-0.1997
X2.812 Y-1.8902 Z-0.1963
X2.8106 Y-1.8897 Z-0.1927
X2.8097 Y-1.8893 Z-0.1889
X2.8094 Y-1.8892 Z-0.185
G0 Z0.6

(2D CONTOUR4)
M8
G0 X2.8331 Y-0.6086
Z0.6
Z0.2
G1 Z0.0394 F5.3
Z-0.185 F1.8
X2.833 Y-0.6083 Z-0.1889
X2.8327 Y-0.6075 Z-0.1927
X2.8323 Y-0.606 Z-0.1963
X2.8317 Y-0.6041 Z-0.1997
X2.8309 Y-0.6016 Z-0.2027
X2.83 Y-0.5988 Z-0.2052
X2.8291 Y-0.5956 Z-0.2073
X2.828 Y-0.5921 Z-0.2088
X2.8269 Y-0.5885 Z-0.2097
X2.8257 Y-0.5848 Z-0.21
X2.8183 Y-0.5609 F5.3
G3 X2.787 Y-0.5444 R0.025
G1 X2.287 Y-0.6994
G2 X2.25 Y-0.705 R0.125
G1 X1.885
G2 X1.75 Y-0.57 R0.135
G1 Y-0.55
X1.25
Y-0.57
G2 X1.115 Y-0.705 R0.135
G1 X0.75
G2 X0.713 Y-0.6994 R0.125
G1 X0.213 Y-0.5444
G2 X0.125 Y-0.425 R0.125
G1 Y-0.15
G2 X0.25 Y-0.025 R0.125
G1 X2.75
G2 X2.875 Y-0.15 R0.125
G1 Y-0.425
G2 X2.787 Y-0.5444 R0.125
G3 X2.7705 Y-0.5757 R0.025
G1 X2.7779 Y-0.5996
X2.7791 Y-0.6033 Z-0.2097
X2.7802 Y-0.6069 Z-0.2088
X2.7813 Y-0.6104 Z-0.2073
X2.7823 Y-0.6136 Z-0.2052
X2.7832 Y-0.6164 Z-0.2027
X2.7839 Y-0.6189 Z-0.1997
X2.7845 Y-0.6208 Z-0.1963
X2.785 Y-0.6223 Z-0.1927
X2.7852 Y-0.6231 Z-0.1889
X2.7853 Y-0.6234 Z-0.185
G0 Z0.6

(2D CONTOUR5)
M8
G0 X0.1669 Y-1.8914
Z0.6
Z0.2
G1 Z0.0394 F5.3
Z-0.185 F1.8
X0.167 Y-1.8917 Z-0.1889
X0.1673 Y-1.8925 Z-0.1927
X0.1677 Y-1.894 Z-0.1963
X0.1683 Y-1.8959 Z-0.1997
X0.1691 Y-1.8984 Z-0.2027
X0.17 Y-1.9012 Z-0.2052
X0.1709 Y-1.9044 Z-0.2073
X0.172 Y-1.9079 Z-0.2088
X0.1731 Y-1.9115 Z-0.2097
X0.1743 Y-1.9153 Z-0.21
X0.1817 Y-1.9391 F5.3
G3 X0.213 Y-1.9556 R0.025
G1 X0.713 Y-1.8006
G2 X0.75 Y-1.795 R0.125
G1 X1.115
G2 X1.25 Y-1.93 R0.135
G1 Y-1.95
X1.75
Y-1.93
G2 X1.885 Y-1.795 R0.135
G1 X2.25
G2 X2.287 Y-1.8006 R0.125
G1 X2.787 Y-1.9556
G2 X2.875 Y-2.075 R0.125
G1 Y-2.35
G2 X2.75 Y-2.475 R0.125
G1 X0.25
G2 X0.125 Y-2.35 R0.125
G1 Y-2.075
G2 X0.213 Y-1.9556 R0.125
G3 X0.2295 Y-1.9243 R0.025
G1 X0.2221 Y-1.9004
X0.2209 Y-1.8967 Z-0.2097
X0.2198 Y-1.8931 Z-0.2088
X0.2187 Y-1.8896 Z-0.2073
X0.2177 Y-1.8864 Z-0.2052
X0.2168 Y-1.8836 Z-0.2027
X0.2161 Y-1.8811 Z-0.1997
X0.2155 Y-1.8792 Z-0.1963
X0.215 Y-1.8777 Z-0.1927
X0.2148 Y-1.8769 Z-0.1889
X0.2147 Y-1.8766 Z-0.185
G0 Z0.6

(DRILL1)
M8
G0 X1.5 Y-1.25
Z0.6
Z0.2
G98 G81 X1.5 Y-1.25 Z-0.5 R-0.01 F1.8
G80
Z0.6

(2D CONTOUR8)
M8
G0 X0.05 Y-2.6
Z0.6
Z0.2
G1 Z0.0394 F5.3
Z-0.3 F1.8
G18 G2 X0.075 Z-0.325 R0.025
G1 X0.1 F5.3
G17 G3 X0.125 Y-2.575 R0.025
G1 Y0.075
G3 X0.1 Y0.1 R0.025
G1 X0.075
G18 G3 X0.05 Z-0.3 R0.025
G0 Z0.2
X2.95
G1 Z0.0394 F5.3
Z-0.3 F1.8
G3 X2.925 Z-0.325 R0.025
G1 X2.9 F5.3
G17 G3 X2.875 Y0.075 R0.025
G1 Y-2.575
G3 X2.9 Y-2.6 R0.025
G1 X2.925
G18 G2 X2.95 Z-0.3 R0.025
G0 Z0.6
G17

(2D CONTOUR9)
M8
G0 X3.025 Y-2.55
Z0.6
Z0.2
G1 Z0.0394 F5.3
Z-0.3 F1.8
G19 G3 Y-2.525 Z-0.325 R0.025
G1 Y-2.5 F5.3
G17 G3 X3. Y-2.475 R0.025
G1 X0.
G3 X-0.025 Y-2.5 R0.025
G1 Y-2.525
G19 G2 Y-2.55 Z-0.3 R0.025
G0 Z0.2
Y0.05
G1 Z0.0394 F5.3
Z-0.3 F1.8
G2 Y0.025 Z-0.325 R0.025
G1 Y0. F5.3
G17 G3 X0. Y-0.025 R0.025
G1 X2.75
X3.
G3 X3.025 Y0. R0.025
G1 Y0.025
G19 G3 Y0.05 Z-0.3 R0.025
G0 Z0.6
G17

(2D CONTOUR10)
M8
G0 X0.05 Y-2.1
Z0.6
Z0.2
G1 Z0.0394 F5.3
Z-0.495 F1.8
G18 G2 X0.075 Z-0.52 R0.025
G1 X0.1 F5.3
G17 G3 X0.125 Y-2.075 R0.025
G1 Y-0.425
G3 X0.1 Y-0.4 R0.025
G1 X0.075
G18 G3 X0.05 Z-0.495 R0.025
G0 Z0.2
X2.95
G1 Z0.0394 F5.3
Z-0.495 F1.8
G3 X2.925 Z-0.52 R0.025
G1 X2.9 F5.3
G17 G3 X2.875 Y-0.425 R0.025
G1 Y-2.075
G3 X2.9 Y-2.1 R0.025
G1 X2.925
G18 G2 X2.95 Z-0.495 R0.025
G0 Z0.6
G17

M9
G28 G91 Z0.
G28 X0. Y0.
M30
