(1001)
(T1  D=0.25 CR=0. - ZMIN=-0.52 - FLAT END MILL)
G90 G94 G91.1 G40 G49 G17
G20
G28 G91 Z0.
G90

(ADAPTIVE1)
M5
M9
T1 M6
S2100 M3
G54
M8
G0 X-0.0161 Y-2.729
G43 Z0.6 H1
Z0.2
Z-0.255
G1 Z-0.28 F5.3
Y-2.7287 Z-0.2839
X-0.0158 Y-2.7278 Z-0.2877
X-0.0155 Y-2.7263 Z-0.2913
X-0.0149 Y-2.7243 Z-0.2947
X-0.0143 Y-2.7219 Z-0.2977
X-0.0136 Y-2.719 Z-0.3002
X-0.0127 Y-2.7157 Z-0.3023
X-0.0118 Y-2.7122 Z-0.3038
X-0.0109 Y-2.7085 Z-0.3047
X-0.0099 Y-2.7047 Z-0.305
G3 X0.0013 Y-2.627 R0.3646
G1 X0.0012 Y-2.621
X-0.0065 Y-2.5828
X-0.0119 Y-2.5442
X-0.0157 Y-2.5054
X-0.0182 Y-2.4665
X-0.02 Y-2.4275
X-0.0212 Y-2.3885
X-0.022 Y-2.3496
X-0.0226 Y-2.3106
X-0.0229 Y-2.2716
X-0.0232 Y-2.2326
X-0.0234 Y-2.1936
X-0.0236 Y-2.1156
X-0.0237 Y-1.9987
Y-1.6867
X-0.0238 Y-0.634
Y-0.1174
X-0.0205 Y-0.0981
X-0.0115 Y-0.0809
X0.013 Y-0.0505
X0.0451 Y-0.0283
X0.0807 Y-0.0124
X0.118 Y-0.0012
X0.1562 Y0.0066
X0.1949 Y0.012
X0.2337 Y0.0157
X0.2726 Y0.0182
X0.3115 Y0.02
X0.3505 Y0.0212
X0.3895 Y0.022
X0.4285 Y0.0226
X0.4675 Y0.0229
X0.5064 Y0.0232
X0.5454 Y0.0234
X0.6234 Y0.0236
X0.7404 Y0.0237
X1.0523
X1.4032
X2.8849 Y0.0238
X2.9039 Y0.0194
X2.9209 Y0.0099
X2.9508 Y-0.0151
X2.9727 Y-0.0474
X2.9883 Y-0.0831
X2.9992 Y-0.1205
X3.0069 Y-0.1588
X3.0122 Y-0.1974
X3.0158 Y-0.2362
X3.0183 Y-0.2751
X3.0201 Y-0.3141
X3.0212 Y-0.3531
X3.022 Y-0.392
X3.0226 Y-0.431
X3.0229 Y-0.47
X3.0232 Y-0.509
X3.0234 Y-0.548
X3.0236 Y-0.626
X3.0237 Y-0.743
Y-1.0939
X3.0238 Y-2.3806
X3.0212 Y-2.3999
X3.0126 Y-2.4174
X2.9887 Y-2.4482
X2.9569 Y-2.4708
X2.9214 Y-2.4869
X2.8841 Y-2.4983
X2.8459 Y-2.5062
X2.8073 Y-2.5117
X2.7685 Y-2.5155
X2.7296 Y-2.5181
X2.6907 Y-2.5199
X2.6517 Y-2.5211
X2.6127 Y-2.522
X2.5737 Y-2.5225
X2.5348 Y-2.5229
X2.4958 Y-2.5232
X2.4568 Y-2.5234
X2.3788 Y-2.5236
X2.2618 Y-2.5237
X1.9499
X1.0921
X0.2148
X0.1963 Y-2.5175
X0.1632 Y-2.497
X0.1382 Y-2.4671
X0.1199 Y-2.4326
X0.1069 Y-2.3959
X0.0976 Y-2.358
X0.0911 Y-2.3196
X0.0866 Y-2.2809
X0.0834 Y-2.242
X0.0812 Y-2.2031
X0.0797 Y-2.1641
X0.0786 Y-2.1251
X0.0779 Y-2.0861
X0.0774 Y-2.0472
X0.077 Y-2.0082
X0.0768 Y-1.9692
X0.0766 Y-1.9302
X0.0764 Y-1.8522
X0.0763 Y-1.7352
Y-1.4623
Y-0.2536
X0.0783 Y-0.2342
X0.0902 Y-0.1971
X0.0929 Y-0.1937
X0.0994 Y-0.183
X0.1036 Y-0.1712
X0.1051 Y-0.1588
Y-0.156
X0.1059 Y-0.1383
X0.1066 Y-0.1295
X0.1081 Y-0.1206
X0.1103 Y-0.1117
X0.113 Y-0.1029
X0.1163 Y-0.094
X0.1205 Y-0.0852
X0.123 Y-0.0803
X0.1253 Y-0.0763
X0.1312 Y-0.0674
X0.1377 Y-0.0586
X0.1407 Y-0.055
X0.1495 Y-0.0459
X0.1548 Y-0.0409
X0.1659 Y-0.032
X0.1672 Y-0.031
X0.1761 Y-0.0254
X0.18 Y-0.0232
X0.1849 Y-0.0206
X0.1938 Y-0.0165
X0.2027 Y-0.013
X0.2115 Y-0.0104
X0.2204 Y-0.0082
X0.2292 Y-0.0065
X0.2381 Y-0.0059
X0.2469 Y-0.0054
X0.2558 Y-0.005
X2.7442
X2.754 Y-0.0054
X2.7619 Y-0.0059
X2.7708 Y-0.0065
X2.7796 Y-0.0082
X2.7885 Y-0.0104
X2.7973 Y-0.013
X2.8062 Y-0.0165
X2.8151 Y-0.0206
X2.82 Y-0.0232
X2.8239 Y-0.0254
X2.8328 Y-0.031
X2.8341 Y-0.032
X2.8452 Y-0.0409
X2.8505 Y-0.0459
X2.8593 Y-0.055
X2.8623 Y-0.0586
X2.8688 Y-0.0674
X2.8747 Y-0.0763
X2.877 Y-0.0803
X2.8795 Y-0.0852
X2.8837 Y-0.094
X2.887 Y-0.1029
X2.8897 Y-0.1117
X2.8919 Y-0.1206
X2.8934 Y-0.1295
X2.9 Y-0.1679
X2.9059 Y-0.2064
X2.9105 Y-0.2451
X2.914 Y-0.284
X2.9166 Y-0.3229
X2.9185 Y-0.3618
X2.92 Y-0.4008
X2.921 Y-0.4398
X2.9218 Y-0.4787
X2.9223 Y-0.5177
X2.9227 Y-0.5567
X2.923 Y-0.5957
X2.9232 Y-0.6347
X2.9234 Y-0.6737
X2.9236 Y-0.7517
X2.9237 Y-0.8686
Y-1.1806
X2.9238 Y-2.1164
Y-2.2528
X2.9204 Y-2.272
X2.9063 Y-2.3084
X2.9002 Y-2.3188
X2.8963 Y-2.3302
X2.8949 Y-2.3422
Y-2.344
X2.8941 Y-2.3617
X2.8934 Y-2.3705
X2.8919 Y-2.3794
X2.8897 Y-2.3883
X2.887 Y-2.3971
X2.8837 Y-2.406
X2.8795 Y-2.4148
X2.877 Y-2.4197
X2.8747 Y-2.4237
X2.8688 Y-2.4326
X2.8623 Y-2.4414
X2.8593 Y-2.445
X2.8505 Y-2.4541
X2.8452 Y-2.4591
X2.8341 Y-2.468
X2.8328 Y-2.469
X2.8239 Y-2.4746
X2.82 Y-2.4768
X2.8151 Y-2.4794
X2.8062 Y-2.4835
X2.7973 Y-2.487
X2.7885 Y-2.4896
X2.7796 Y-2.4918
X2.7708 Y-2.4935
X2.7619 Y-2.4941
X2.7531 Y-2.4946
X2.7442 Y-2.495
X0.2558
X0.246 Y-2.4946
X0.2381 Y-2.4941
X0.2292 Y-2.4935
X0.2204 Y-2.4918
X0.2115 Y-2.4896
X0.2027 Y-2.487
X0.1938 Y-2.4835
X0.1849 Y-2.4794
X0.18 Y-2.4768
X0.1761 Y-2.4746
X0.1672 Y-2.469
X0.1659 Y-2.468
X0.1548 Y-2.4591
X0.1495 Y-2.4541
X0.1407 Y-2.445
X0.1377 Y-2.4414
X0.1312 Y-2.4326
X0.1253 Y-2.4237
X0.123 Y-2.4197
X0.1205 Y-2.4148
X0.1163 Y-2.406
X0.113 Y-2.3971
X0.1103 Y-2.3883
X0.1081 Y-2.3794
X0.1066 Y-2.3705
X0.1059 Y-2.3617
X0.1051 Y-2.344
X0.105 Y-2.3351
Y-0.1649
X0.1051 Y-0.1588
Y-0.156
X0.1059 Y-0.1383
X0.1066 Y-0.1295
X0.1081 Y-0.1206
X0.1103 Y-0.1117
X0.113 Y-0.1029
X0.1163 Y-0.094
X0.1205 Y-0.0852
X0.1216 Y-0.0829
X0.123 Y-0.0803 F15.
X0.1253 Y-0.0763
X0.1312 Y-0.0674
X0.1377 Y-0.0586
X0.1407 Y-0.055
X0.1495 Y-0.0459
X0.1548 Y-0.0409
X0.1659 Y-0.032
X0.1672 Y-0.031
X0.1761 Y-0.0254
X0.18 Y-0.0232
X0.1849 Y-0.0206
X0.1938 Y-0.0165
X0.2027 Y-0.013
X0.2115 Y-0.0104
X0.2204 Y-0.0082
X0.2292 Y-0.0065
X0.2381 Y-0.0059
X0.2469 Y-0.0054
X0.2558 Y-0.005
X2.7442
X2.7531 Y-0.0054
X2.7619 Y-0.0059
X2.7708 Y-0.0065
X2.7796 Y-0.0082
X2.7885 Y-0.0104
X2.7973 Y-0.013
X2.8062 Y-0.0165
X2.8151 Y-0.0206
X2.82 Y-0.0232
X2.8239 Y-0.0254
X2.8328 Y-0.031
X2.8341 Y-0.032
X2.8452 Y-0.0409
X2.8505 Y-0.0459
X2.8593 Y-0.055
X2.8622 Y-0.0584
X2.8623 Y-0.0586 F5.3
X2.8688 Y-0.0674
X2.8747 Y-0.0763
X2.877 Y-0.0803
X2.8795 Y-0.0852
X2.8837 Y-0.094
X2.8859 Y-0.1
X2.887 Y-0.1029
X2.8897 Y-0.1117
X2.8919 Y-0.1206
X2.8934 Y-0.1295
X2.8941 Y-0.1383
X2.8949 Y-0.156
X2.895 Y-0.1649
Y-2.3351
X2.8949 Y-2.3422
G3 X2.9338 Y-2.3624 R0.025
G1 X2.936 Y-2.3604 Z-0.3048
X2.9381 Y-2.3583 Z-0.3043
X2.9401 Y-2.3563 Z-0.3034
X2.9415 Y-2.3535 Z-0.3019
X2.9428 Y-2.3508 Z-0.3
X2.944 Y-2.3484 Z-0.2977
X2.9443 Y-2.3461 Z-0.2949
X2.9446 Y-2.3441 Z-0.2918
X2.9448 Y-2.3427 Z-0.2885
X2.9449 Y-2.3417 Z-0.285
Y-2.3413 Z-0.2825
Y-2.3412 Z-0.28
G0 Z0.2
X0.0644 Y-2.1728
Z-0.14
G1 Z-0.165 F5.3
X0.0646 Y-2.1726 Z-0.1689
X0.0651 Y-2.1718 Z-0.1727
X0.0659 Y-2.1706 Z-0.1763
X0.0671 Y-2.1689 Z-0.1797
X0.0685 Y-2.1668 Z-0.1826
X0.0702 Y-2.1643 Z-0.1852
X0.0721 Y-2.1615 Z-0.1872
X0.0741 Y-2.1585 Z-0.1887
X0.0762 Y-2.1554 Z-0.1897
X0.0784 Y-2.1521 Z-0.19
G3 X0.105 Y-2.0782 R0.1583
G1 X0.1052 Y-2.0741
X0.1071 Y-2.0517
X0.1088 Y-2.0428
X0.1111 Y-2.0339
X0.1139 Y-2.0251
X0.1176 Y-2.0162
X0.122 Y-2.0074
X0.123 Y-2.0055
X0.1268 Y-1.9985
X0.133 Y-1.9897
X0.14 Y-1.9808
X0.1437 Y-1.9761
X0.1513 Y-1.964
X0.1593 Y-1.9486
X0.1678 Y-1.9285
X0.1767 Y-1.9016
X0.1859 Y-1.8637
X0.1921 Y-1.8252
X0.1963 Y-1.7864
X0.1991 Y-1.7475
X0.201 Y-1.7086
X0.2023 Y-1.6696
X0.2031 Y-1.6306
X0.2037 Y-1.5916
X0.2041 Y-1.5527
X0.2044 Y-1.5137
X0.2046 Y-1.4747
X0.2047 Y-1.4357
X0.2049 Y-1.3577
X0.205 Y-1.2017
Y-0.5976
X0.2037 Y-0.5859
X0.2 Y-0.5748
X0.1939 Y-0.5648
X0.1858 Y-0.5563
X0.1761 Y-0.5497
X0.1672 Y-0.5439
X0.1582 Y-0.5369
X0.1495 Y-0.5294
X0.1482 Y-0.5281
X0.1407 Y-0.5199
X0.14 Y-0.5192
X0.133 Y-0.5103
X0.1268 Y-0.5015
X0.123 Y-0.4945
X0.122 Y-0.4926
X0.1176 Y-0.4838
X0.1139 Y-0.4749
X0.1111 Y-0.4661
X0.1088 Y-0.4572
X0.1071 Y-0.4483
X0.1056 Y-0.4306
G3 X0.0558 Y-0.4342 R0.025
G1 X0.0559 Y-0.4364
X0.0961 Y-1.9453 F15.
X0.0967 Y-1.9645 F5.3
G3 X0.14 Y-1.9808 R0.025
G1 X0.1407 Y-1.9801
X0.1482 Y-1.9719
X0.1495 Y-1.9706
X0.1584 Y-1.9629
X0.1672 Y-1.9561
X0.1761 Y-1.9503
X0.1849 Y-1.9456
X0.1925 Y-1.9413
X0.1993 Y-1.9366
X0.2067 Y-1.9306
X0.215 Y-1.9227
X0.2235 Y-1.9131
X0.2324 Y-1.9013
X0.242 Y-1.8863
X0.2518 Y-1.8678
X0.2619 Y-1.8443
X0.2723 Y-1.8135
X0.2818 Y-1.7756
X0.2885 Y-1.7372
X0.2933 Y-1.6985
X0.2967 Y-1.6597
X0.2991 Y-1.6208
X0.3008 Y-1.5818
X0.302 Y-1.5429
X0.3029 Y-1.5039
X0.3035 Y-1.4649
X0.304 Y-1.4259
X0.3043 Y-1.3869
X0.3045 Y-1.3479
X0.3046 Y-1.3089
X0.3048 Y-1.231
X0.3049 Y-1.114
X0.305 Y-0.8021
Y-0.6851
X0.304 Y-0.6515
X0.3015 Y-0.6284
X0.3008 Y-0.6248
X0.2971 Y-0.6128
X0.2909 Y-0.6019
X0.2825 Y-0.5925
X0.2723 Y-0.5851
X0.2608 Y-0.5801
X0.2204 Y-0.5676
X0.2047 Y-0.5627
X0.2027 Y-0.562
X0.1938 Y-0.5585
X0.1855 Y-0.5546
X0.1761 Y-0.5497
G3 X0.1402 Y-0.5724 R0.025
G1 X0.1404 Y-0.6002
X0.1492 Y-1.8946 F15.
X0.1494 Y-1.9232 F5.3
G3 X0.1849 Y-1.9456 R0.025
G1 X0.1855 Y-1.9454
X0.1938 Y-1.9415
X0.2027 Y-1.938
X0.2115 Y-1.9352
X0.2381 Y-1.9269
X0.2469 Y-1.9241
X0.2554 Y-1.921
X0.2629 Y-1.9176
X0.2711 Y-1.913
X0.2804 Y-1.9067
X0.2895 Y-1.8995
X0.2995 Y-1.8901
X0.3103 Y-1.8782
X0.3209 Y-1.8646
X0.3323 Y-1.847
X0.3436 Y-1.8262
X0.3552 Y-1.7999
X0.3671 Y-1.7661
X0.3769 Y-1.7284
X0.3843 Y-1.6901
X0.3897 Y-1.6515
X0.3938 Y-1.6127
X0.3968 Y-1.5738
X0.399 Y-1.5349
X0.4006 Y-1.4959
X0.4018 Y-1.457
X0.4027 Y-1.418
X0.4033 Y-1.379
X0.4038 Y-1.34
X0.4041 Y-1.301
X0.4044 Y-1.262
X0.4045 Y-1.223
X0.4048 Y-1.1451
X0.4049 Y-1.0281
X0.405 Y-0.7941
X0.4049 Y-0.7552
X0.4042 Y-0.7162
X0.4021 Y-0.6828
X0.3987 Y-0.6591
X0.3973 Y-0.653
X0.3934 Y-0.6415
X0.3871 Y-0.631
X0.3789 Y-0.622
X0.3689 Y-0.615
X0.3577 Y-0.6102
X0.2608 Y-0.5801
G3 X0.2292 Y-0.604 R0.025
G1 X0.2289 Y-0.6369
X0.2157 Y-1.8674 F15.
X0.2154 Y-1.8998 F5.3
G3 X0.2469 Y-1.9241 R0.025
G1 X0.3355 Y-1.8967
X0.3411 Y-1.8946
X0.3499 Y-1.8906
X0.3591 Y-1.8854
X0.3688 Y-1.8788
X0.3798 Y-1.87
X0.3904 Y-1.86
X0.4021 Y-1.8471
X0.414 Y-1.8316
X0.4264 Y-1.8124
X0.4388 Y-1.7895
X0.4516 Y-1.7604
X0.4643 Y-1.7235
X0.4741 Y-1.6858
X0.4816 Y-1.6475
X0.4873 Y-1.6089
X0.4917 Y-1.5702
X0.495 Y-1.5313
X0.4975 Y-1.4924
X0.4994 Y-1.4535
X0.5008 Y-1.4145
X0.5019 Y-1.3755
X0.5027 Y-1.3366
X0.5033 Y-1.2976
X0.5037 Y-1.2586
X0.5041 Y-1.2196
X0.5043 Y-1.1806
X0.5045 Y-1.1416
X0.5047 Y-1.0636
X0.5049 Y-0.9467
Y-0.8687
Y-0.8297
X0.5045 Y-0.7907
X0.5035 Y-0.7517
X0.5008 Y-0.7145
X0.4971 Y-0.69
X0.4955 Y-0.683
X0.4915 Y-0.6716
X0.4852 Y-0.6612
X0.477 Y-0.6524
X0.4671 Y-0.6454
X0.456 Y-0.6407
X0.3577 Y-0.6102
G3 X0.3261 Y-0.6339 R0.025
G1 X0.3255 Y-0.6669
X0.3045 Y-1.8399 F15.
X0.3039 Y-1.8721 F5.3
G3 X0.3355 Y-1.8967 R0.025
G1 X0.424 Y-1.8692
X0.4324 Y-1.8662
X0.4411 Y-1.8622
X0.4511 Y-1.8566
X0.4611 Y-1.8499
X0.472 Y-1.8411
X0.4841 Y-1.8298
X0.4957 Y-1.8171
X0.5087 Y-1.8003
X0.5212 Y-1.7811
X0.5345 Y-1.7566
X0.548 Y-1.7261
X0.5609 Y-1.6893
X0.5709 Y-1.6516
X0.5787 Y-1.6134
X0.5848 Y-1.5749
X0.5895 Y-1.5362
X0.5931 Y-1.4974
X0.5959 Y-1.4585
X0.5981 Y-1.4195
X0.5997 Y-1.3806
X0.601 Y-1.3416
X0.602 Y-1.3026
X0.6027 Y-1.2637
X0.6033 Y-1.2247
X0.6037 Y-1.1857
X0.604 Y-1.1467
X0.6043 Y-1.1077
X0.6045 Y-1.0687
X0.6047 Y-0.9907
X0.6048 Y-0.9517
Y-0.9127
X0.6047 Y-0.8738
X0.6043 Y-0.8348
X0.6033 Y-0.7958
X0.6009 Y-0.7569
X0.5973 Y-0.7286
X0.5944 Y-0.7149
X0.5906 Y-0.7031
X0.5844 Y-0.6925
X0.576 Y-0.6833
X0.5659 Y-0.6761
X0.5546 Y-0.6712
X0.456 Y-0.6407
G3 X0.4244 Y-0.6641 R0.025
G1 X0.4235 Y-0.6974
X0.3934 Y-1.8125 F15.
X0.3925 Y-1.8444 F5.3
G3 X0.424 Y-1.8692 R0.025
G1 X0.5174 Y-1.8403
X0.5265 Y-1.837
X0.5352 Y-1.833
X0.5453 Y-1.8273
X0.5559 Y-1.8202
X0.567 Y-1.8114
X0.5795 Y-1.7997
X0.5914 Y-1.7866
X0.6047 Y-1.7693
X0.6177 Y-1.7495
X0.6314 Y-1.7241
X0.6454 Y-1.6925
X0.6583 Y-1.6557
X0.6684 Y-1.618
X0.6764 Y-1.5799
X0.6827 Y-1.5414
X0.6877 Y-1.5027
X0.6915 Y-1.4639
X0.6946 Y-1.425
X0.697 Y-1.3861
X0.6988 Y-1.3472
X0.7002 Y-1.3082
X0.7013 Y-1.2692
X0.7022 Y-1.2303
X0.7029 Y-1.1913
X0.7034 Y-1.1523
X0.7038 Y-1.1133
X0.7041 Y-1.0743
X0.7043 Y-1.0353
X0.7045 Y-0.9963
Y-0.9573
Y-0.9183
X0.7041 Y-0.8794
X0.7032 Y-0.8404
X0.7011 Y-0.8014
X0.6977 Y-0.7678
X0.6933 Y-0.7439
X0.6929 Y-0.7426
X0.6887 Y-0.7316
X0.6825 Y-0.7217
X0.6743 Y-0.7132
X0.6647 Y-0.7066
X0.6539 Y-0.702
X0.5546 Y-0.6712
G3 X0.523 Y-0.6945 R0.025
G1 X0.5219 Y-0.728
X0.4869 Y-1.7836 F15.
X0.4859 Y-1.8153 F5.3
G3 X0.5174 Y-1.8403 R0.025
G1 X0.61 Y-1.8116
X0.6221 Y-1.8072
X0.631 Y-1.8031
X0.6411 Y-1.7974
X0.6521 Y-1.79
X0.6632 Y-1.7812
X0.6758 Y-1.7694
X0.6881 Y-1.7559
X0.7016 Y-1.7384
X0.7149 Y-1.7181
X0.729 Y-1.6921
X0.7433 Y-1.6596
X0.7562 Y-1.6228
X0.7664 Y-1.5852
X0.7745 Y-1.5471
X0.781 Y-1.5086
X0.7861 Y-1.47
X0.7902 Y-1.4312
X0.7934 Y-1.3923
X0.7959 Y-1.3534
X0.7979 Y-1.3145
X0.7995 Y-1.2755
X0.8007 Y-1.2366
X0.8017 Y-1.1976
X0.8025 Y-1.1586
X0.803 Y-1.1196
X0.8035 Y-1.0806
X0.8038 Y-1.0416
X0.804 Y-1.0026
X0.8041 Y-0.9636
X0.8038 Y-0.9247
X0.803 Y-0.8857
X0.8013 Y-0.8467
X0.7982 Y-0.8079
X0.7943 Y-0.7826
X0.7909 Y-0.7686
X0.7867 Y-0.757
X0.7803 Y-0.7465
X0.7717 Y-0.7376
X0.7614 Y-0.7307
X0.75 Y-0.7261
X0.7378 Y-0.7241
X0.7302 Y-0.7236
X0.7283 Y-0.7234
X0.7264 Y-0.7229
X0.7074 Y-0.7182
X0.6986 Y-0.7159
X0.6539 Y-0.702
G3 X0.6223 Y-0.7251 R0.025
G1 X0.6209 Y-0.7587
X0.5798 Y-1.7549 F15.
X0.5785 Y-1.7864 F5.3
G3 X0.61 Y-1.8116 R0.025
G1 X0.6986 Y-1.7841
X0.7074 Y-1.7818
X0.7132 Y-1.7801
X0.7224 Y-1.7763
X0.7317 Y-1.7716
X0.7426 Y-1.7649
X0.7538 Y-1.7568
X0.7655 Y-1.7467
X0.7786 Y-1.7336
X0.7913 Y-1.7185
X0.8052 Y-1.6991
X0.8192 Y-1.6757
X0.8335 Y-1.6468
X0.8479 Y-1.6106
X0.8595 Y-1.5734
X0.8687 Y-1.5355
X0.8761 Y-1.4972
X0.8821 Y-1.4587
X0.8868 Y-1.42
X0.8906 Y-1.3812
X0.8936 Y-1.3423
X0.896 Y-1.3034
X0.898 Y-1.2644
X0.8995 Y-1.2255
X0.9007 Y-1.1865
X0.9016 Y-1.1475
X0.9023 Y-1.1086
X0.9029 Y-1.0696
X0.9032 Y-1.0306
X0.9033 Y-0.9916
X0.903 Y-0.9526
X0.9022 Y-0.9136
X0.9005 Y-0.8747
X0.8972 Y-0.8358
X0.8931 Y-0.8092
X0.8878 Y-0.7874
X0.882 Y-0.7695
X0.8783 Y-0.7608
X0.8729 Y-0.7508
X0.8656 Y-0.742
X0.8568 Y-0.7348
X0.8468 Y-0.7294
X0.8359 Y-0.7261
X0.8245 Y-0.725
X0.7606
X0.7517 Y-0.7249
X0.7378 Y-0.7241
G3 X0.7121 Y-0.7482 R0.025
G1 X0.7108 Y-0.7876
X0.6784 Y-1.7234 F15.
X0.6772 Y-1.7565 F5.3
G3 X0.7074 Y-1.7818 R0.025
G1 X0.7264 Y-1.7771
X0.7283 Y-1.7766
X0.7302 Y-1.7764
X0.7517 Y-1.7751
X0.7606 Y-1.775
X0.7694
X0.7754 Y-1.7747
X0.7833 Y-1.7735
X0.7914 Y-1.7716
X0.8007 Y-1.7686
X0.8109 Y-1.7644
X0.8213 Y-1.7591
X0.8334 Y-1.7516
X0.8451 Y-1.743
X0.8584 Y-1.7316
X0.8719 Y-1.7178
X0.8861 Y-1.7009
X0.9005 Y-1.6805
X0.9157 Y-1.655
X0.9311 Y-1.6237
X0.9454 Y-1.5874
X0.9569 Y-1.5502
X0.9663 Y-1.5123
X0.9739 Y-1.4741
X0.98 Y-1.4356
X0.985 Y-1.3969
X0.989 Y-1.3581
X0.9922 Y-1.3193
X0.9948 Y-1.2804
X0.9969 Y-1.2414
X0.9986 Y-1.2025
X0.9999 Y-1.1635
X1.0009 Y-1.1245
X1.0017 Y-1.0855
X1.0021 Y-1.0466
X1.0022 Y-1.0076
X1.0019 Y-0.9686
X1.0008 Y-0.9296
X0.9987 Y-0.8907
X0.9948 Y-0.8519
X0.9892 Y-0.8181
X0.983 Y-0.7933
X0.9762 Y-0.7731
X0.9692 Y-0.7566
X0.9689 Y-0.7561
X0.9619 Y-0.7457
X0.9527 Y-0.7369
X0.9419 Y-0.7304
X0.9299 Y-0.7264
X0.9173 Y-0.725
X0.8245
G3 X0.8004 Y-0.7486 R0.025
G1 X0.7981 Y-0.7901
X0.7475 Y-1.7099 F15.
X0.7453 Y-1.7486 F5.3
G3 X0.7694 Y-1.775 R0.025
G1 X0.8491
X0.8552 Y-1.7747
X0.8636 Y-1.7736
X0.8726 Y-1.7717
X0.8829 Y-1.7686
X0.8933 Y-1.7645
X0.9054 Y-1.7587
X0.9175 Y-1.7516
X0.9309 Y-1.7421
X0.9448 Y-1.7306
X0.9595 Y-1.7163
X0.9746 Y-1.6989
X0.9906 Y-1.6773
X1.0062 Y-1.6523
X1.0224 Y-1.6208
X1.0375 Y-1.5848
X1.0498 Y-1.5479
X1.06 Y-1.5102
X1.0684 Y-1.4721
X1.0753 Y-1.4338
X1.0809 Y-1.3952
X1.0855 Y-1.3565
X1.0893 Y-1.3176
X1.0924 Y-1.2788
X1.0948 Y-1.2399
X1.0968 Y-1.2009
X1.0984 Y-1.162
X1.0996 Y-1.123
X1.1004 Y-1.084
X1.1008 Y-1.045
Y-1.006
X1.1 Y-0.967
X1.0983 Y-0.9281
X1.0952 Y-0.8892
X1.0903 Y-0.8505
X1.0835 Y-0.8146
X1.0765 Y-0.7893
X1.0695 Y-0.7703
X1.0643 Y-0.759
X1.0588 Y-0.7494
X1.0515 Y-0.7411
X1.0428 Y-0.7342
X1.033 Y-0.7292
X1.0223 Y-0.7261
X1.0113 Y-0.725
X0.9173
G3 X0.8933 Y-0.7483 R0.025
G1 X0.8904 Y-0.79
X0.8277 Y-1.71 F15.
X0.825 Y-1.7483 F5.3
G3 X0.8491 Y-1.775 R0.025
G1 X0.9337
X0.9421 Y-1.7746
X0.9509 Y-1.7734
X0.9603 Y-1.7714
X0.9712 Y-1.7681
X0.9821 Y-1.7639
X0.9948 Y-1.7577
X1.0074 Y-1.7503
X1.0216 Y-1.7403
X1.0361 Y-1.7283
X1.0517 Y-1.7131
X1.0674 Y-1.6951
X1.0843 Y-1.6723
X1.1009 Y-1.6456
X1.1179 Y-1.6125
X1.133 Y-1.5766
X1.1455 Y-1.5396
X1.156 Y-1.5021
X1.1646 Y-1.4641
X1.1719 Y-1.4257
X1.1779 Y-1.3872
X1.1828 Y-1.3485
X1.1869 Y-1.3098
X1.1903 Y-1.2709
X1.193 Y-1.232
X1.1952 Y-1.1931
X1.1969 Y-1.1541
X1.1982 Y-1.1152
X1.1989 Y-1.0762
X1.1991 Y-1.0372
X1.1986 Y-0.9982
X1.1973 Y-0.9592
X1.1948 Y-0.9203
X1.1908 Y-0.8815
X1.185 Y-0.843
X1.1774 Y-0.8088
X1.1701 Y-0.7849
X1.1623 Y-0.7652
X1.1585 Y-0.7575
X1.1515 Y-0.7465
X1.1422 Y-0.7373
X1.131 Y-0.7305
X1.1187 Y-0.7263
X1.1057 Y-0.7249
X1.0971 Y-0.725
X1.0113
G3 X0.9873 Y-0.748 R0.025
G1 X0.984 Y-0.79
X0.9126 Y-1.71 F15.
X0.9096 Y-1.7481 F5.3
G3 X0.9337 Y-1.775 R0.025
G1 X1.0262
X1.0322 Y-1.7747
X1.0416 Y-1.7734
X1.0512 Y-1.7713
X1.0625 Y-1.7678
X1.074 Y-1.7632
X1.0869 Y-1.7568
X1.1004 Y-1.7487
X1.1148 Y-1.7384
X1.1303 Y-1.7253
X1.1461 Y-1.7096
X1.1627 Y-1.6903
X1.1803 Y-1.6661
X1.1976 Y-1.6378
X1.2152 Y-1.603
X1.23 Y-1.5669
X1.2425 Y-1.53
X1.2529 Y-1.4924
X1.2618 Y-1.4544
X1.2692 Y-1.4162
X1.2753 Y-1.3777
X1.2805 Y-1.339
X1.2848 Y-1.3003
X1.2884 Y-1.2614
X1.2913 Y-1.2226
X1.2936 Y-1.1836
X1.2953 Y-1.1447
X1.2965 Y-1.1057
X1.297 Y-1.0667
X1.2969 Y-1.0277
X1.2959 Y-0.9888
X1.294 Y-0.9498
X1.2908 Y-0.911
X1.286 Y-0.8723
X1.2792 Y-0.8339
X1.2713 Y-0.8021
X1.2636 Y-0.7792
X1.2554 Y-0.76
X1.2475 Y-0.7449
X1.2422 Y-0.7366
X1.2351 Y-0.7275
X1.2264 Y-0.72
X1.2163 Y-0.7145
X1.2054 Y-0.711
X1.1939 Y-0.7097
X1.1825 Y-0.7108
X1.1715 Y-0.7141
X1.1679 Y-0.7154
X1.1591 Y-0.7182
X1.1502 Y-0.7203
X1.1377 Y-0.7229
X1.1325 Y-0.7239
X1.1236 Y-0.7243
X1.1057 Y-0.7249
G3 X1.0819 Y-0.7479 R0.025
G1 X1.0785 Y-0.7901
X1.0052 Y-1.71 F15.
X1.0022 Y-1.748 F5.3
G3 X1.0262 Y-1.775 R0.025
G1 X1.0971
X1.1059 Y-1.7751
X1.1108 Y-1.7752
X1.1191 Y-1.7751
X1.1278 Y-1.7743
X1.1378 Y-1.7725
X1.148 Y-1.7698
X1.16 Y-1.7656
X1.1721 Y-1.7602
X1.1858 Y-1.7528
X1.2 Y-1.7435
X1.2153 Y-1.7317
X1.2315 Y-1.7169
X1.2482 Y-1.699
X1.2653 Y-1.6774
X1.2834 Y-1.6504
X1.3019 Y-1.6174
X1.3182 Y-1.5819
X1.332 Y-1.5454
X1.3437 Y-1.5082
X1.3536 Y-1.4705
X1.362 Y-1.4325
X1.369 Y-1.3941
X1.375 Y-1.3556
X1.38 Y-1.3169
X1.3842 Y-1.2782
X1.3876 Y-1.2393
X1.3903 Y-1.2004
X1.3924 Y-1.1615
X1.3939 Y-1.1225
X1.3946 Y-1.0835
X1.3947 Y-1.0445
X1.3938 Y-1.0056
X1.392 Y-0.9666
X1.3891 Y-0.9277
X1.3848 Y-0.889
X1.3787 Y-0.8505
X1.3703 Y-0.8124
X1.3608 Y-0.781
X1.3513 Y-0.7568
X1.3422 Y-0.7381
X1.3332 Y-0.7229
X1.3233 Y-0.709
X1.3139 Y-0.6977
X1.3035 Y-0.6871
X1.2979 Y-0.6822
X1.288 Y-0.6752
X1.2768 Y-0.6705
X1.265 Y-0.6682
X1.2529 Y-0.6683
X1.2411 Y-0.6709
X1.2301 Y-0.6759
X1.2203 Y-0.6831
X1.2155 Y-0.6875
X1.2122 Y-0.6903
X1.2046 Y-0.6964
X1.2033 Y-0.6973
X1.1945 Y-0.7025
X1.1856 Y-0.7075
X1.1768 Y-0.7119
X1.1715 Y-0.7141
G3 X1.1568 Y-0.7351 R0.025
G1 X1.1533 Y-0.7866
X1.0903 Y-1.7094 F15.
X1.0876 Y-1.7486 F5.3
G3 X1.1108 Y-1.7752 R0.025
G1 X1.1236 Y-1.7757
X1.1325 Y-1.7761
X1.1377 Y-1.7771
X1.1502 Y-1.7797
X1.1591 Y-1.7818
X1.1679 Y-1.7846
X1.1736 Y-1.7863
X1.1804 Y-1.7875
X1.1878 Y-1.7882
X1.1966 Y-1.7883
X1.2056 Y-1.7876
X1.2164 Y-1.786
X1.2273 Y-1.7834
X1.2399 Y-1.7794
X1.2529 Y-1.774
X1.2673 Y-1.7667
X1.2824 Y-1.7574
X1.2986 Y-1.7455
X1.3156 Y-1.7309
X1.3336 Y-1.7126
X1.3515 Y-1.6913
X1.3705 Y-1.6644
X1.39 Y-1.6317
X1.4072 Y-1.5967
X1.422 Y-1.5606
X1.4346 Y-1.5237
X1.4454 Y-1.4863
X1.4547 Y-1.4484
X1.4625 Y-1.4102
X1.4692 Y-1.3718
X1.4749 Y-1.3332
X1.4797 Y-1.2945
X1.4836 Y-1.2557
X1.4868 Y-1.2169
X1.4892 Y-1.1779
X1.4909 Y-1.139
X1.492 Y-1.1
X1.4922 Y-1.061
X1.4916 Y-1.022
X1.49 Y-0.9831
X1.4873 Y-0.9442
X1.4834 Y-0.9054
X1.478 Y-0.8668
X1.4707 Y-0.8285
X1.461 Y-0.7907
X1.4494 Y-0.7569
X1.4372 Y-0.7287
X1.424 Y-0.7038
X1.4112 Y-0.6837
X1.3991 Y-0.6678
X1.3868 Y-0.6541
X1.3755 Y-0.6433
X1.3633 Y-0.6334
X1.352 Y-0.6257
X1.3397 Y-0.6187
X1.3284 Y-0.6134
X1.3252 Y-0.6122
X1.3134 Y-0.6091
X1.3012 Y-0.6086
X1.2892 Y-0.6106
X1.2779 Y-0.6151
X1.2677 Y-0.6218
X1.2591 Y-0.6305
X1.2526 Y-0.6408
G3 X1.2504 Y-0.649 R0.025
G1 X1.2443 Y-0.7187
X1.1569 Y-1.7124 F15.
X1.1528 Y-1.7594 F5.3
G3 X1.1679 Y-1.7846 R0.025
G1 X1.1715 Y-1.7859
X1.1768 Y-1.7881
X1.1856 Y-1.7925
X1.1945 Y-1.7975
X1.2033 Y-1.8027
X1.2046 Y-1.8036
X1.2095 Y-1.8071
X1.2148 Y-1.81
X1.2207 Y-1.8125
X1.2271 Y-1.8147
X1.2348 Y-1.8166
X1.2429 Y-1.818
X1.2525 Y-1.8189
X1.2625
X1.2742 Y-1.8181
X1.2862 Y-1.8162
X1.3 Y-1.8129
X1.314 Y-1.8083
X1.33 Y-1.8016
X1.3458 Y-1.7935
X1.3638 Y-1.7823
X1.3815 Y-1.7692
X1.4011 Y-1.7522
X1.4211 Y-1.7317
X1.441 Y-1.7077
X1.4619 Y-1.678
X1.4817 Y-1.6444
X1.499 Y-1.6094
X1.514 Y-1.5734
X1.5271 Y-1.5367
X1.5384 Y-1.4994
X1.5482 Y-1.4616
X1.5566 Y-1.4236
X1.5639 Y-1.3853
X1.57 Y-1.3468
X1.5753 Y-1.3081
X1.5796 Y-1.2694
X1.5831 Y-1.2305
X1.5859 Y-1.1917
X1.5879 Y-1.1527
X1.5891 Y-1.1137
X1.5895 Y-1.0748
X1.5891 Y-1.0358
X1.5877 Y-0.9968
X1.5853 Y-0.9579
X1.5817 Y-0.9191
X1.5768 Y-0.8804
X1.5702 Y-0.8419
X1.5617 Y-0.8039
X1.551 Y-0.7664
X1.5378 Y-0.7297
X1.523 Y-0.6968
X1.507 Y-0.6677
X1.4908 Y-0.643
X1.4742 Y-0.6218
X1.4569 Y-0.603
X1.4399 Y-0.5873
X1.4338 Y-0.5825
X1.4228 Y-0.5757
X1.4106 Y-0.5714
X1.3978 Y-0.57
X1.3007
X1.2919 Y-0.5701
X1.2897 Y-0.5703
X1.2875 Y-0.5708
X1.2853 Y-0.5715
X1.283 Y-0.5724
X1.2808 Y-0.5736
X1.2786 Y-0.5751
X1.2764 Y-0.577
X1.2742 Y-0.5793
X1.2727 Y-0.5812
X1.2713 Y-0.5834
X1.2702 Y-0.5856
X1.2693 Y-0.5879
X1.2687 Y-0.5901
X1.2668 Y-0.5989
X1.2622 Y-0.6166
X1.2595 Y-0.6255
X1.2565 Y-0.6329
X1.2526 Y-0.6408
G3 X1.2503 Y-0.6499 R0.025
G1 X1.247 Y-0.7189
X1.1987 Y-1.7277 F15.
X1.196 Y-1.7835 F5.3
G3 X1.2046 Y-1.8036 R0.025
G1 X1.2122 Y-1.8097
X1.2155 Y-1.8125
X1.221 Y-1.8175
X1.2299 Y-1.8264
X1.2332 Y-1.8302
X1.2349 Y-1.8323
X1.2389 Y-1.8368
X1.2433 Y-1.8409
X1.248 Y-1.8446
X1.2534 Y-1.8481
X1.2598 Y-1.8515
X1.267 Y-1.8547
X1.2753 Y-1.8576
X1.2845 Y-1.86
X1.2947 Y-1.8618
X1.3061 Y-1.8628
X1.3184 Y-1.863
X1.3322 Y-1.8621
X1.3465 Y-1.86
X1.3628 Y-1.8562
X1.3792 Y-1.851
X1.3977 Y-1.8434
X1.4166 Y-1.8338
X1.4364 Y-1.8217
X1.4583 Y-1.8058
X1.4793 Y-1.7877
X1.5018 Y-1.765
X1.525 Y-1.7375
X1.5477 Y-1.7057
X1.5678 Y-1.6723
X1.5857 Y-1.6377
X1.6014 Y-1.602
X1.6153 Y-1.5656
X1.6274 Y-1.5285
X1.6381 Y-1.491
X1.6474 Y-1.4531
X1.6555 Y-1.415
X1.6625 Y-1.3766
X1.6685 Y-1.3381
X1.6736 Y-1.2995
X1.6778 Y-1.2607
X1.6812 Y-1.2219
X1.6838 Y-1.1829
X1.6856 Y-1.144
X1.6866 Y-1.105
X1.6867 Y-1.066
X1.686 Y-1.027
X1.6844 Y-0.9881
X1.6816 Y-0.9492
X1.6777 Y-0.9104
X1.6724 Y-0.8718
X1.6655 Y-0.8334
X1.6569 Y-0.7954
X1.6465 Y-0.7578
X1.634 Y-0.7208
X1.6193 Y-0.6848
X1.602 Y-0.6498
X1.5825 Y-0.6169
X1.5668 Y-0.5947
X1.5596 Y-0.5862
X1.5508 Y-0.5793
X1.541 Y-0.5742
X1.5303 Y-0.5711
X1.5192 Y-0.57
X1.3978
G3 X1.3738 Y-0.5921 R0.025
G1 X1.3688 Y-0.6348
X1.2371 Y-1.7552 F15.
X1.2301 Y-1.8145 F5.3
G3 X1.2349 Y-1.8323 R0.025
G1 X1.2403 Y-1.8391
X1.2462 Y-1.8479
X1.2476 Y-1.8501
X1.2513 Y-1.8568
X1.2565 Y-1.8671
X1.2592 Y-1.8725
X1.2625 Y-1.8774
X1.2663 Y-1.8821
X1.2709 Y-1.8868
X1.2761 Y-1.8913
X1.2825 Y-1.896
X1.2895 Y-1.9004
X1.2979 Y-1.9047
X1.3071 Y-1.9086
X1.3174 Y-1.912
X1.3292 Y-1.9148
X1.3417 Y-1.9168
X1.3561 Y-1.9179
X1.371 Y-1.9178
X1.3876 Y-1.9164
X1.4056 Y-1.9134
X1.4244 Y-1.9087
X1.4452 Y-1.9016
X1.4663 Y-1.8926
X1.4887 Y-1.8807
X1.5132 Y-1.8651
X1.5372 Y-1.847
X1.5622 Y-1.8247
X1.5881 Y-1.7976
X1.6127 Y-1.7673
X1.635 Y-1.7353
X1.6551 Y-1.7019
X1.6731 Y-1.6673
X1.6893 Y-1.6318
X1.7037 Y-1.5956
X1.7165 Y-1.5588
X1.7279 Y-1.5215
X1.7379 Y-1.4838
X1.7467 Y-1.4458
X1.7545 Y-1.4076
X1.7612 Y-1.3692
X1.767 Y-1.3306
X1.7718 Y-1.2919
X1.7759 Y-1.2532
X1.7791 Y-1.2143
X1.7815 Y-1.1754
X1.7831 Y-1.1364
X1.7839 Y-1.0974
X1.7838 Y-1.0584
X1.7829 Y-1.0195
X1.781 Y-0.9805
X1.778 Y-0.9416
X1.7737 Y-0.9029
X1.7682 Y-0.8643
X1.7613 Y-0.8259
X1.7529 Y-0.7878
X1.7428 Y-0.7502
X1.731 Y-0.713
X1.7174 Y-0.6765
X1.7016 Y-0.6408
X1.6851 Y-0.6089
X1.6779 Y-0.5974
X1.6707 Y-0.5881
X1.6618 Y-0.5804
X1.6514 Y-0.5747
X1.6402 Y-0.5712
X1.6285 Y-0.57
X1.5192
G3 X1.4955 Y-0.5903 R0.025
G1 X1.4871 Y-0.6344
X1.2675 Y-1.7899 F15.
X1.2554 Y-1.8538 F5.3
G3 X1.2565 Y-1.8671 R0.025
G1 X1.2595 Y-1.8745
X1.2622 Y-1.8834
X1.2668 Y-1.9011
X1.2679 Y-1.9059
X1.2687 Y-1.9099
X1.2693 Y-1.9121
X1.2702 Y-1.9144
X1.2713 Y-1.9166
X1.2727 Y-1.9188
X1.2742 Y-1.9207
X1.2764 Y-1.923
X1.2786 Y-1.9249
X1.2808 Y-1.9264
X1.2832 Y-1.9276
X1.2853 Y-1.9285
X1.2875 Y-1.9292
X1.2897 Y-1.9297
X1.2919 Y-1.9299
X1.3007 Y-1.93
X1.4867
X1.4979 Y-1.9294
X1.5108 Y-1.9278
X1.5259 Y-1.9245
X1.5411 Y-1.92
X1.5593 Y-1.9129
X1.5774 Y-1.9041
X1.5986 Y-1.8916
X1.6196 Y-1.8769
X1.6429 Y-1.8575
X1.6677 Y-1.8333
X1.6933 Y-1.8039
X1.7165 Y-1.7726
X1.7375 Y-1.7397
X1.7564 Y-1.7056
X1.7734 Y-1.6705
X1.7887 Y-1.6347
X1.8024 Y-1.5982
X1.8147 Y-1.5612
X1.8257 Y-1.5238
X1.8355 Y-1.486
X1.8442 Y-1.448
X1.8518 Y-1.4098
X1.8585 Y-1.3714
X1.8642 Y-1.3328
X1.8691 Y-1.2941
X1.8731 Y-1.2553
X1.8763 Y-1.2165
X1.8788 Y-1.1775
X1.8804 Y-1.1386
X1.8812 Y-1.0996
X1.8811 Y-1.0606
X1.8801 Y-1.0216
X1.8782 Y-0.9827
X1.8752 Y-0.9438
X1.8711 Y-0.905
X1.8658 Y-0.8664
X1.8593 Y-0.828
X1.8514 Y-0.7898
X1.8421 Y-0.7519
X1.8388 Y-0.7405
X1.8347 Y-0.7301
X1.8286 Y-0.7206
X1.8209 Y-0.7125
X1.8117 Y-0.706
X1.8055 Y-0.7025
X1.7967 Y-0.6973
X1.7954 Y-0.6964
X1.7878 Y-0.6903
X1.7845 Y-0.6875
X1.779 Y-0.6825
X1.7701 Y-0.6736
X1.7668 Y-0.6698
X1.7597 Y-0.6609
X1.7538 Y-0.6521
X1.7524 Y-0.6499
X1.7487 Y-0.6432
X1.7435 Y-0.6329
X1.7405 Y-0.6255
X1.7378 Y-0.6166
X1.7332 Y-0.5989
X1.7326 Y-0.5963
X1.7313 Y-0.5901
X1.7307 Y-0.5879
X1.7298 Y-0.5856
X1.7287 Y-0.5834
X1.7273 Y-0.5812
X1.7258 Y-0.5793
X1.7236 Y-0.577
X1.7214 Y-0.5751
X1.7192 Y-0.5736
X1.7168 Y-0.5724
X1.7147 Y-0.5715
X1.7125 Y-0.5708
X1.7103 Y-0.5703
X1.7081 Y-0.5701
X1.6993 Y-0.57
X1.6285
G3 X1.6045 Y-0.5923 R0.025
G1 X1.5999 Y-0.6349
X1.4668 Y-1.8651 F15.
X1.4627 Y-1.9023 F5.3
G3 X1.4867 Y-1.93 R0.025
G1 X1.6018
X1.6145 Y-1.9294
X1.626 Y-1.9279
X1.6388 Y-1.9251
X1.6523 Y-1.9211
X1.6684 Y-1.9148
X1.6843 Y-1.9071
X1.7031 Y-1.896
X1.7219 Y-1.8828
X1.7363 Y-1.8708
X1.7416 Y-1.8659
X1.7462 Y-1.8603
X1.7501 Y-1.8541
G3 X1.7167 Y-1.8204 R0.025
G1 X1.7024 Y-1.8276
X1.6027 Y-1.8771 F15.
X1.5916 Y-1.8826 F5.3
G3 X1.6018 Y-1.93 R0.025
G1 X1.6993
X1.7081 Y-1.9299
X1.7103 Y-1.9297
X1.7125 Y-1.9292
X1.7147 Y-1.9285
X1.717 Y-1.9276
X1.7192 Y-1.9264
X1.7214 Y-1.9249
X1.7236 Y-1.923
X1.7258 Y-1.9207
X1.7273 Y-1.9188
X1.7287 Y-1.9166
X1.7298 Y-1.9144
X1.7307 Y-1.9121
X1.7313 Y-1.9099
X1.7332 Y-1.9011
X1.7378 Y-1.8834
X1.7405 Y-1.8745
X1.7435 Y-1.8671
X1.7487 Y-1.8568
X1.7524 Y-1.8501
X1.7538 Y-1.8479
X1.7597 Y-1.8391
X1.7668 Y-1.8302
X1.7701 Y-1.8264
X1.7752 Y-1.8213
X1.7954 Y-1.7989
X1.8179 Y-1.7694
X1.839 Y-1.7366
X1.8577 Y-1.7024
X1.8744 Y-1.6672
X1.8893 Y-1.6311
X1.9026 Y-1.5945
X1.9146 Y-1.5574
X1.9252 Y-1.5199
X1.9346 Y-1.482
X1.943 Y-1.4439
X1.9504 Y-1.4057
X1.9568 Y-1.3672
X1.9624 Y-1.3286
X1.9671 Y-1.2899
X1.971 Y-1.2511
X1.9741 Y-1.2122
X1.9763 Y-1.1733
X1.9778 Y-1.1344
X1.9784 Y-1.0954
X1.9782 Y-1.0564
X1.9771 Y-1.0174
X1.975 Y-0.9785
X1.972 Y-0.9396
X1.9678 Y-0.9008
X1.9626 Y-0.8622
X1.9562 Y-0.8237
X1.9486 Y-0.7857
X1.9432 Y-0.767
X1.9387 Y-0.7557
X1.9318 Y-0.7456
X1.9231 Y-0.7371
X1.9127 Y-0.7306
X1.9012 Y-0.7264
X1.8891 Y-0.7248
X1.8764 Y-0.7243
X1.8675 Y-0.7239
X1.8623 Y-0.7229
X1.8498 Y-0.7203
G3 X1.8206 Y-0.7429 R0.025
G1 X1.8175 Y-0.7797
X1.7347 Y-1.7827 F15.
X1.7331 Y-1.8011 F5.3
G3 X1.7752 Y-1.8213 R0.025
G1 X1.779 Y-1.8175
X1.7845 Y-1.8125
X1.7878 Y-1.8097
X1.7954 Y-1.8036
X1.7967 Y-1.8027
X1.8055 Y-1.7975
X1.8144 Y-1.7925
X1.8232 Y-1.7881
X1.8285 Y-1.7859
X1.8321 Y-1.7846
X1.8409 Y-1.7818
X1.8467 Y-1.78
X1.8552 Y-1.7767
X1.865 Y-1.7718
X1.876 Y-1.7652
X1.8877 Y-1.7569
X1.901 Y-1.7456
X1.9149 Y-1.7318
X1.9305 Y-1.7136
X1.9473 Y-1.6906
X1.9653 Y-1.661
X1.9829 Y-1.6262
X1.998 Y-1.5902
X2.011 Y-1.5535
X2.0223 Y-1.5162
X2.0321 Y-1.4784
X2.0407 Y-1.4404
X2.0482 Y-1.4021
X2.0547 Y-1.3637
X2.0602 Y-1.3251
X2.0648 Y-1.2864
X2.0686 Y-1.2476
X2.0716 Y-1.2087
X2.0738 Y-1.1698
X2.0752 Y-1.1308
X2.0757 Y-1.0918
X2.0754 Y-1.0528
X2.0742 Y-1.0139
X2.072 Y-0.9749
X2.0689 Y-0.9361
X2.0648 Y-0.8973
X2.0597 Y-0.8586
X2.0531 Y-0.8202
X2.0468 Y-0.7946
X2.0403 Y-0.7749
X2.0327 Y-0.7571
X2.0322 Y-0.7563
X2.0252 Y-0.7457
X2.016 Y-0.737
X2.0052 Y-0.7304
X1.9932 Y-0.7264
X1.9806 Y-0.725
X1.9029
X1.8941 Y-0.7249
X1.8891 Y-0.7248
G3 X1.8642 Y-0.7484 R0.025
G1 X1.8621 Y-0.789
X1.8127 Y-1.7231 F15.
X1.811 Y-1.756 F5.3
G3 X1.8409 Y-1.7818 R0.025
G1 X1.8498 Y-1.7797
X1.8623 Y-1.7771
X1.8675 Y-1.7761
X1.8764 Y-1.7757
X1.8941 Y-1.7751
X1.9029 Y-1.775
X1.9095 Y-1.7747
X1.9173 Y-1.7737
X1.9264 Y-1.7717
X1.9356 Y-1.7689
X1.9462 Y-1.7648
X1.9581 Y-1.759
X1.97 Y-1.752
X1.9839 Y-1.7423
X1.9979 Y-1.7307
X2.0135 Y-1.7155
X2.0293 Y-1.6973
X2.0467 Y-1.6738
X2.0651 Y-1.6443
X2.0829 Y-1.6096
X2.0982 Y-1.5738
X2.1113 Y-1.537
X2.1226 Y-1.4997
X2.1324 Y-1.462
X2.1408 Y-1.4239
X2.148 Y-1.3856
X2.1542 Y-1.3471
X2.1595 Y-1.3084
X2.1638 Y-1.2697
X2.1672 Y-1.2309
X2.1699 Y-1.192
X2.1717 Y-1.153
X2.1727 Y-1.114
X2.1728 Y-1.075
X2.1721 Y-1.0361
X2.1705 Y-0.9971
X2.1681 Y-0.9582
X2.1647 Y-0.9193
X2.1602 Y-0.8806
X2.1541 Y-0.8421
X2.1463 Y-0.8075
X2.1386 Y-0.7829
X2.131 Y-0.764
X2.1277 Y-0.7573
X2.1207 Y-0.7465
X2.1114 Y-0.7374
X2.1005 Y-0.7306
X2.0883 Y-0.7264
X2.0755 Y-0.725
X1.9806
G3 X1.9565 Y-0.748 R0.025
G1 X1.9533 Y-0.79
X1.8818 Y-1.71 F15.
X1.8789 Y-1.7481 F5.3
G3 X1.9029 Y-1.775 R0.025
G1 X1.9875
X1.9953 Y-1.7746
X2.0044 Y-1.7734
X2.0138 Y-1.7714
X2.0249 Y-1.7681
X2.0362 Y-1.7637
X2.0489 Y-1.7575
X2.0627 Y-1.7494
X2.0769 Y-1.7394
X2.0929 Y-1.7261
X2.1087 Y-1.7107
X2.126 Y-1.6908
X2.1444 Y-1.666
X2.163 Y-1.6361
X2.1809 Y-1.6014
X2.1962 Y-1.5656
X2.2094 Y-1.5289
X2.2207 Y-1.4916
X2.2305 Y-1.4538
X2.2389 Y-1.4157
X2.2461 Y-1.3774
X2.2523 Y-1.3389
X2.2574 Y-1.3003
X2.2616 Y-1.2615
X2.265 Y-1.2227
X2.2674 Y-1.1837
X2.2691 Y-1.1448
X2.2699 Y-1.1058
Y-1.0668
X2.2691 Y-1.0278
X2.2674 Y-0.9889
X2.2648 Y-0.95
X2.2611 Y-0.9112
X2.2559 Y-0.8725
X2.2489 Y-0.8342
X2.2409 Y-0.8022
X2.2331 Y-0.7791
X2.2248 Y-0.7598
X2.2228 Y-0.756
X2.2157 Y-0.7456
X2.2066 Y-0.7369
X2.1958 Y-0.7304
X2.1838 Y-0.7264
X2.1713 Y-0.725
X2.0755
G3 X2.0514 Y-0.7478 R0.025
G1 X2.0477 Y-0.79
X1.9668 Y-1.71 F15.
X1.9635 Y-1.7478 F5.3
G3 X1.9875 Y-1.775 R0.025
G1 X2.08
X2.0863 Y-1.7747
X2.0959 Y-1.7734
X2.1058 Y-1.7713
X2.1169 Y-1.768
X2.1294 Y-1.7631
X2.1421 Y-1.757
X2.1568 Y-1.7483
X2.1712 Y-1.7381
X2.1879 Y-1.7243
X2.2042 Y-1.7085
X2.2222 Y-1.6878
X2.2408 Y-1.6626
X2.2599 Y-1.6319
X2.2778 Y-1.5973
X2.2932 Y-1.5614
X2.3064 Y-1.5248
X2.3179 Y-1.4875
X2.3277 Y-1.4498
X2.3362 Y-1.4117
X2.3435 Y-1.3734
X2.3497 Y-1.3349
X2.3548 Y-1.2962
X2.359 Y-1.2575
X2.3623 Y-1.2186
X2.3647 Y-1.1797
X2.3663 Y-1.1408
X2.3671 Y-1.1018
Y-1.0628
X2.3662 Y-1.0238
X2.3645 Y-0.9849
X2.3616 Y-0.946
X2.3576 Y-0.9072
X2.352 Y-0.8686
X2.3445 Y-0.8303
X2.3363 Y-0.7993
X2.3283 Y-0.7765
X2.3199 Y-0.7576
X2.3181 Y-0.7543
X2.3105 Y-0.7435
X2.3006 Y-0.7347
X2.2891 Y-0.7283
X2.2764 Y-0.7247
X2.2632 Y-0.724
X2.2483 Y-0.7249
X2.2394 Y-0.725
X2.1713
G3 X2.1472 Y-0.7477 R0.025
G1 X2.1434 Y-0.79
X2.0595 Y-1.71 F15.
X2.056 Y-1.7477 F5.3
G3 X2.08 Y-1.775 R0.025
G1 X2.1686
X2.1801 Y-1.7744
X2.1896 Y-1.7732
X2.1999 Y-1.771
X2.2111 Y-1.7676
X2.2239 Y-1.7626
X2.2367 Y-1.7564
X2.2516 Y-1.7476
X2.2665 Y-1.7372
X2.2832 Y-1.7233
X2.2999 Y-1.707
X2.3184 Y-1.6858
X2.3372 Y-1.6605
X2.3567 Y-1.6291
X2.3745 Y-1.5945
X2.39 Y-1.5587
X2.4033 Y-1.522
X2.4148 Y-1.4848
X2.4247 Y-1.4471
X2.4333 Y-1.409
X2.4406 Y-1.3707
X2.4468 Y-1.3322
X2.452 Y-1.2936
X2.4562 Y-1.2548
X2.4595 Y-1.216
X2.4619 Y-1.1771
X2.4636 Y-1.1381
X2.4643 Y-1.0991
Y-1.0601
X2.4634 Y-1.0212
X2.4614 Y-0.9822
X2.4584 Y-0.9433
X2.4541 Y-0.9046
X2.4482 Y-0.866
X2.4405 Y-0.8278
X2.4321 Y-0.7971
X2.4237 Y-0.774
X2.4153 Y-0.7554
X2.4069 Y-0.7404
X2.3976 Y-0.7264
X2.3969 Y-0.7254
X2.3887 Y-0.717
X2.3791 Y-0.7104
X2.3684 Y-0.7058
X2.3569 Y-0.7035
X2.3452
X2.3338 Y-0.7058
X2.3014 Y-0.7159
X2.2926 Y-0.7182
X2.2736 Y-0.7229
X2.2717 Y-0.7234
X2.2698 Y-0.7236
X2.2632 Y-0.724
G3 X2.2408 Y-0.7465 R0.025
G1 X2.2365 Y-0.7904
X2.1482 Y-1.71 F15.
X2.1446 Y-1.7476 F5.3
G3 X2.1686 Y-1.775 R0.025
G1 X2.2394
X2.2483 Y-1.7751
X2.2572 Y-1.7756
X2.2673 Y-1.7758
X2.2757 Y-1.7752
X2.2856 Y-1.7737
X2.2964 Y-1.7712
X2.3079 Y-1.7675
X2.3212 Y-1.7621
X2.3344 Y-1.7554
X2.3499 Y-1.7459
X2.3651 Y-1.7348
X2.3825 Y-1.7198
X2.3995 Y-1.7026
X2.4183 Y-1.6803
X2.4379 Y-1.6527
X2.4579 Y-1.6193
X2.4752 Y-1.5843
X2.4901 Y-1.5483
X2.503 Y-1.5115
X2.5142 Y-1.4741
X2.5238 Y-1.4363
X2.5321 Y-1.3982
X2.5392 Y-1.3599
X2.5452 Y-1.3214
X2.5501 Y-1.2827
X2.5541 Y-1.2439
X2.5573 Y-1.2051
X2.5595 Y-1.1661
X2.5609 Y-1.1272
X2.5615 Y-1.0882
X2.5612 Y-1.0492
X2.5599 Y-1.0102
X2.5576 Y-0.9713
X2.5542 Y-0.9325
X2.5494 Y-0.8938
X2.543 Y-0.8553
X2.5346 Y-0.8172
X2.5242 Y-0.7825
X2.5138 Y-0.7557
X2.5037 Y-0.7349
X2.4939 Y-0.7182
X2.4843 Y-0.7045
X2.4793 Y-0.6985
X2.4712 Y-0.6904
X2.4616 Y-0.6841
X2.451 Y-0.6798
X2.4398 Y-0.6776
X2.4283 Y-0.6777
X2.4171 Y-0.68
X2.3338 Y-0.7058
G3 X2.3171 Y-0.7274 R0.025
G1 X2.3131 Y-0.7769
X2.2379 Y-1.7092 F15.
X2.2347 Y-1.7487 F5.3
G3 X2.2572 Y-1.7756 R0.025
G1 X2.2698 Y-1.7764
X2.2717 Y-1.7766
X2.2736 Y-1.7771
X2.2926 Y-1.7818
X2.3014 Y-1.7841
X2.3152 Y-1.7884
X2.3225 Y-1.7903
X2.3283 Y-1.7917
X2.3342 Y-1.7927
X2.3402 Y-1.7934
X2.3462 Y-1.7936
X2.3522
X2.3582 Y-1.7932
X2.3641 Y-1.7926
X2.3701 Y-1.7917
X2.3759 Y-1.7905
X2.3818 Y-1.7891
X2.3876 Y-1.7875
X2.3933 Y-1.7857
X2.3989 Y-1.7837
X2.4045 Y-1.7815
X2.41 Y-1.7791
X2.4154 Y-1.7765
X2.4208 Y-1.7738
X2.426 Y-1.7709
X2.4312 Y-1.7679
X2.4363 Y-1.7648
X2.4414 Y-1.7615
X2.4463 Y-1.7581
X2.4512 Y-1.7546
X2.456 Y-1.751
X2.4607 Y-1.7473
X2.4653 Y-1.7434
X2.4699 Y-1.7395
X2.4743 Y-1.7355
X2.4787 Y-1.7314
X2.483 Y-1.7273
X2.4873 Y-1.723
X2.4914 Y-1.7187
X2.4955 Y-1.7143
X2.4995 Y-1.7098
X2.5035 Y-1.7053
X2.5073 Y-1.7007
X2.5111 Y-1.6961
X2.5148 Y-1.6914
X2.5185 Y-1.6866
X2.5221 Y-1.6818
X2.5256 Y-1.6769
X2.529 Y-1.672
X2.5324 Y-1.667
X2.5357 Y-1.662
X2.539 Y-1.657
X2.5421 Y-1.6519
X2.5453 Y-1.6468
X2.5483 Y-1.6416
X2.5513 Y-1.6364
X2.5543 Y-1.6312
X2.5572 Y-1.6259
X2.56 Y-1.6207
X2.5628 Y-1.6153
X2.5655 Y-1.61
X2.5682 Y-1.6046
X2.5708 Y-1.5992
X2.5733 Y-1.5938
X2.5758 Y-1.5883
X2.5783 Y-1.5829
X2.5807 Y-1.5774
X2.5831 Y-1.5719
X2.5854 Y-1.5663
X2.5877 Y-1.5608
X2.5899 Y-1.5552
X2.5921 Y-1.5496
X2.5942 Y-1.544
X2.5964 Y-1.5381
X2.5985 Y-1.5324
X2.6005 Y-1.5267
X2.6024 Y-1.521
X2.6044 Y-1.5152
X2.6065 Y-1.5089
X2.6086 Y-1.5024
X2.6108 Y-1.4954
X2.6127 Y-1.4893
X2.6145 Y-1.483
X2.6165 Y-1.4763
X2.6185 Y-1.4692
X2.6206 Y-1.4615
X2.6226 Y-1.4537
X2.6244 Y-1.4468
X2.6263 Y-1.4394
X2.6282 Y-1.4315
X2.6302 Y-1.4231
X2.6322 Y-1.4141
X2.6339 Y-1.4063
X2.6357 Y-1.398
X2.6375 Y-1.3891
X2.6394 Y-1.3793
X2.6412 Y-1.37
X2.6428 Y-1.3611
X2.6444 Y-1.3514
X2.6471 Y-1.3352
X2.6486 Y-1.3256
X2.6501 Y-1.3155
X2.6516 Y-1.3045
X2.6532 Y-1.2925
X2.6545 Y-1.2823
X2.6558 Y-1.2712
X2.6571 Y-1.259
X2.6583 Y-1.2471
X2.6594 Y-1.2359
X2.6605 Y-1.2236
X2.6615 Y-1.2103
X2.6623 Y-1.1992
X2.6631 Y-1.187
X2.6639 Y-1.1734
X2.6645 Y-1.1615
X2.6651 Y-1.1496
X2.6655 Y-1.1365
X2.6659 Y-1.1236
X2.6661 Y-1.1124
X2.6663 Y-1.0999
X2.6664 Y-1.0863
Y-1.0758
X2.6663 Y-1.0646
X2.6661 Y-1.0522
X2.6658 Y-1.0403
X2.6656 Y-1.0307
X2.6652 Y-1.0203
X2.6647 Y-1.0089
X2.6641 Y-0.9979
X2.6636 Y-0.9894
X2.663 Y-0.9804
X2.6623 Y-0.9705
X2.6614 Y-0.9599
X2.6606 Y-0.9516
X2.6599 Y-0.9443
X2.6591 Y-0.9366
X2.6582 Y-0.9284
X2.6572 Y-0.9195
X2.6561 Y-0.9108
X2.6553 Y-0.9047
X2.6544 Y-0.8988
X2.6535 Y-0.8926
X2.6525 Y-0.8862
X2.6514 Y-0.8793
X2.6501 Y-0.872
X2.649 Y-0.8656
X2.6479 Y-0.8597
X2.6467 Y-0.8538
X2.6455 Y-0.848
X2.6443 Y-0.8421
X2.643 Y-0.8362
X2.6416 Y-0.8304
X2.6403 Y-0.8245
X2.6388 Y-0.8187
X2.6373 Y-0.8129
X2.6357 Y-0.8071
X2.6341 Y-0.8013
X2.6324 Y-0.7956
X2.6307 Y-0.7898
X2.6289 Y-0.7841
X2.627 Y-0.7784
X2.6251 Y-0.7727
X2.6231 Y-0.7671
X2.621 Y-0.7614
X2.6189 Y-0.7558
X2.6167 Y-0.7503
X2.6144 Y-0.7447
X2.612 Y-0.7392
X2.6096 Y-0.7337
X2.6071 Y-0.7283
X2.6044 Y-0.7229
X2.6017 Y-0.7175
X2.5989 Y-0.7122
X2.596 Y-0.707
X2.593 Y-0.7018
X2.5899 Y-0.6967
X2.5867 Y-0.6916
X2.5833 Y-0.6866
X2.5798 Y-0.6817
X2.5762 Y-0.6769
X2.5725 Y-0.6722
X2.5706 Y-0.6699
X2.5624 Y-0.6619
X2.5529 Y-0.6557
X2.5423 Y-0.6514
X2.5312 Y-0.6493
X2.5198
X2.5086 Y-0.6516
X2.4171 Y-0.68
G3 X2.4005 Y-0.7012 R0.025
G1 X2.3957 Y-0.751
X2.3028 Y-1.7173 F15.
X2.2985 Y-1.7624 F5.3
G3 X2.3152 Y-1.7884 R0.025
G1 X2.3929 Y-1.8125
X2.402 Y-1.8148
X2.4078 Y-1.8163
X2.4137 Y-1.8173
X2.4197 Y-1.818
X2.4256 Y-1.8184
X2.4316 Y-1.8185
X2.4376 Y-1.8183
X2.4436 Y-1.8178
X2.4496 Y-1.8171
X2.4555 Y-1.8161
X2.4614 Y-1.8149
X2.4672 Y-1.8135
X2.473 Y-1.8118
X2.4787 Y-1.81
X2.4843 Y-1.808
X2.4899 Y-1.8058
X2.4955 Y-1.8035
X2.5009 Y-1.801
X2.5063 Y-1.7983
X2.5116 Y-1.7955
X2.5169 Y-1.7926
X2.522 Y-1.7896
X2.5271 Y-1.7864
X2.5321 Y-1.7831
X2.5371 Y-1.7797
X2.5419 Y-1.7762
X2.5467 Y-1.7726
X2.5514 Y-1.7688
X2.5561 Y-1.765
X2.5606 Y-1.7612
X2.5651 Y-1.7572
X2.5695 Y-1.7531
X2.5739 Y-1.749
X2.5782 Y-1.7448
X2.5824 Y-1.7405
X2.5865 Y-1.7361
X2.5906 Y-1.7317
X2.5946 Y-1.7273
X2.5985 Y-1.7227
X2.6024 Y-1.7181
X2.6062 Y-1.7135
X2.6099 Y-1.7088
X2.6135 Y-1.704
X2.6171 Y-1.6992
X2.6207 Y-1.6944
X2.6242 Y-1.6895
X2.6276 Y-1.6846
X2.6309 Y-1.6796
X2.6342 Y-1.6746
X2.6375 Y-1.6695
X2.6406 Y-1.6644
X2.6438 Y-1.6593
X2.6468 Y-1.6541
X2.6498 Y-1.649
X2.6528 Y-1.6437
X2.6557 Y-1.6385
X2.6586 Y-1.6332
X2.6614 Y-1.6279
X2.6641 Y-1.6226
X2.6668 Y-1.6172
X2.6695 Y-1.6118
X2.6721 Y-1.6064
X2.6746 Y-1.601
X2.6771 Y-1.5955
X2.6796 Y-1.5901
X2.682 Y-1.5846
X2.6844 Y-1.5791
X2.6867 Y-1.5735
X2.689 Y-1.568
X2.6912 Y-1.5624
X2.6934 Y-1.5568
X2.6956 Y-1.5511
X2.6978 Y-1.5454
X2.6999 Y-1.5396
X2.7021 Y-1.5335
X2.7043 Y-1.5274
X2.7064 Y-1.5212
X2.7086 Y-1.5148
X2.7107 Y-1.5083
X2.7128 Y-1.5016
X2.7149 Y-1.4948
X2.717 Y-1.4878
X2.7191 Y-1.4808
X2.7212 Y-1.4736
X2.7225 Y-1.4689
G3 X2.6797 Y-1.4462 R0.025
G1 X2.6713 Y-1.4554
X2.4023 Y-1.7505 F15.
X2.3826 Y-1.772 F5.3
G3 X2.3929 Y-1.8125 R0.025
G1 X2.4785 Y-1.839
X2.4861 Y-1.841
X2.4919 Y-1.8424
X2.4978 Y-1.8435
X2.5038 Y-1.8442
X2.5097 Y-1.8447
X2.5157 Y-1.8448
X2.5217 Y-1.8446
X2.5277 Y-1.8442
X2.5337 Y-1.8436
X2.5396 Y-1.8427
X2.5455 Y-1.8416
X2.5514 Y-1.8402
X2.5572 Y-1.8387
X2.5629 Y-1.837
X2.5686 Y-1.8351
X2.5742 Y-1.833
X2.5798 Y-1.8308
X2.5853 Y-1.8284
X2.5908 Y-1.8259
X2.5961 Y-1.8232
X2.6014 Y-1.8204
X2.6067 Y-1.8175
X2.6118 Y-1.8144
X2.6169 Y-1.8113
X2.622 Y-1.808
X2.6269 Y-1.8046
X2.6318 Y-1.8011
X2.6366 Y-1.7975
X2.6414 Y-1.7939
X2.646 Y-1.7901
X2.6506 Y-1.7862
X2.6552 Y-1.7823
X2.6596 Y-1.7783
X2.664 Y-1.7742
X2.6684 Y-1.7701
X2.6726 Y-1.7658
X2.6802 Y-1.7597
X2.6887 Y-1.755
X2.6979 Y-1.7517
X2.7075 Y-1.75
X2.7172 Y-1.7499
X2.7269 Y-1.7514
X2.7361 Y-1.7546
X2.7447 Y-1.7592
X2.7524 Y-1.7652
X2.759 Y-1.7723
X2.7643 Y-1.7805
X2.772 Y-1.7984
X2.7764 Y-1.8372
X2.7794 Y-1.876
X2.7804 Y-1.8954
X2.7825 Y-1.9078
X2.7871 Y-1.9195
X2.7942 Y-1.93
X2.8033 Y-1.9387
X2.8141 Y-1.9452
X2.8151 Y-1.9456
X2.8239 Y-1.9503
X2.8328 Y-1.9561
X2.8418 Y-1.9631
X2.8505 Y-1.9706
X2.8518 Y-1.9719
X2.8593 Y-1.9801
X2.86 Y-1.9808
X2.867 Y-1.9897
X2.8732 Y-1.9985
X2.877 Y-2.0055
X2.878 Y-2.0074
X2.8824 Y-2.0162
X2.8861 Y-2.0251
X2.8889 Y-2.0339
X2.8912 Y-2.0428
X2.8929 Y-2.0517
X2.8944 Y-2.0694
G3 X2.9441 Y-2.0643 R0.025
X2.944 Y-2.0636 R0.025
G1 X2.9436 Y-2.0597 Z-0.1897
X2.9431 Y-2.0559 Z-0.1887
X2.9427 Y-2.0523 Z-0.1872
X2.9423 Y-2.049 Z-0.1852
X2.942 Y-2.046 Z-0.1826
X2.9417 Y-2.0435 Z-0.1797
X2.9415 Y-2.0415 Z-0.1763
X2.9413 Y-2.04 Z-0.1727
X2.9412 Y-2.0391 Z-0.1689
Y-2.0388 Z-0.165
G0 Z0.2
X2.9356 Y-0.3272
Z-0.14
G1 Z-0.165 F5.3
X2.9354 Y-0.3274 Z-0.1689
X2.9349 Y-0.3282 Z-0.1727
X2.9341 Y-0.3294 Z-0.1763
X2.9329 Y-0.3311 Z-0.1797
X2.9315 Y-0.3332 Z-0.1826
X2.9298 Y-0.3357 Z-0.1852
X2.9279 Y-0.3385 Z-0.1872
X2.9259 Y-0.3415 Z-0.1887
X2.9238 Y-0.3446 Z-0.1897
X2.9216 Y-0.3479 Z-0.19
G3 X2.895 Y-0.4218 R0.1583
G1 X2.8948 Y-0.4259
X2.8929 Y-0.4483
X2.8912 Y-0.4572
X2.8889 Y-0.4661
X2.8861 Y-0.4749
X2.8824 Y-0.4838
X2.878 Y-0.4926
X2.877 Y-0.4945
X2.8732 Y-0.5015
X2.867 Y-0.5103
X2.86 Y-0.5192
X2.8563 Y-0.5239
X2.8527 Y-0.5288
X2.8494 Y-0.5338
X2.8462 Y-0.5388
X2.8432 Y-0.544
X2.8403 Y-0.5493
X2.8376 Y-0.5547
X2.835 Y-0.5601
X2.8326 Y-0.5656
X2.8303 Y-0.5711
X2.8281 Y-0.5767
X2.826 Y-0.5823
X2.824 Y-0.588
X2.8221 Y-0.5937
X2.8203 Y-0.5994
X2.8187 Y-0.6051
X2.817 Y-0.6109
X2.8155 Y-0.6167
X2.8141 Y-0.6226
X2.8127 Y-0.6284
X2.8114 Y-0.6342
X2.8101 Y-0.6401
X2.8089 Y-0.646
X2.8078 Y-0.6519
X2.8068 Y-0.6578
X2.8057 Y-0.6637
X2.8048 Y-0.6696
X2.8039 Y-0.6756
X2.803 Y-0.6816
X2.8021 Y-0.6879
X2.8012 Y-0.6946
X2.8003 Y-0.7018
X2.7994 Y-0.7094
X2.7989 Y-0.7142
G3 X2.8477 Y-0.7233 R0.025
G1 X2.8493 Y-0.7181
X2.899 Y-0.5542 F15.
X2.9023 Y-0.5434 F5.3
G3 X2.86 Y-0.5192 R0.025
G1 X2.8593 Y-0.5199
X2.8518 Y-0.5281
X2.8505 Y-0.5294
X2.8416 Y-0.5371
X2.8328 Y-0.5439
X2.8239 Y-0.5497
X2.8145 Y-0.5546
X2.812 Y-0.5558
X2.8067 Y-0.5586
X2.7903 Y-0.5691
X2.7721 Y-0.5762
X2.7362 Y-0.5818
X2.7333 Y-0.5823
X2.7305 Y-0.5829
X2.7278 Y-0.5837
G3 X2.7442 Y-0.6309 R0.025
X2.7739 Y-0.6156 R0.1181 F15.
X2.8163 Y-0.5599 R0.1181 F5.3
X2.812 Y-0.5558 R0.0032
G1 X2.8062 Y-0.5585
X2.7973 Y-0.562
X2.7885 Y-0.5648
X2.7619 Y-0.5731
X2.5086 Y-0.6516
G3 X2.4918 Y-0.6746 R0.025
G1 X2.4906 Y-0.7229
X2.463 Y-1.7678 F15.
X2.4618 Y-1.8148 F5.3
G3 X2.4785 Y-1.839 R0.025
G1 X2.7708 Y-1.9296
X2.7941 Y-1.937
X2.7973 Y-1.938
X2.8062 Y-1.9415
X2.8141 Y-1.9452
G3 X2.8485 Y-1.9179 R0.025
G1 X2.8475 Y-1.9151 Z-0.1898
X2.8465 Y-1.9123 Z-0.1892
X2.8455 Y-1.9096 Z-0.1883
X2.8434 Y-1.9072 Z-0.1869
X2.8415 Y-1.9049 Z-0.185
X2.8398 Y-1.9029 Z-0.1826
X2.8379 Y-1.9017 Z-0.18
X2.8363 Y-1.9007 Z-0.1772
X2.8351 Y-1.8999 Z-0.1741
X2.8342 Y-1.8994 Z-0.1708
X2.8337 Y-1.8992 Z-0.1679
X2.8336 Y-1.8991 Z-0.165
G0 Z0.2
X0.0599 Y-2.0702
Z0.02
G1 Z-0.005 F5.3
X0.0602 Y-2.0701 Z-0.0089
X0.0611 Y-2.0699 Z-0.0127
X0.0626 Y-2.0696 Z-0.0163
X0.0646 Y-2.0692 Z-0.0197
X0.0671 Y-2.0687 Z-0.0226
X0.07 Y-2.0681 Z-0.0252
X0.0733 Y-2.0674 Z-0.0272
X0.0768 Y-2.0667 Z-0.0287
X0.0806 Y-2.0659 Z-0.0297
X0.0844 Y-2.0651 Z-0.03
X0.1064 Y-2.0605
X0.1124 Y-2.061
X0.1505 Y-2.0529
X0.1882 Y-2.043
X0.2258 Y-2.0327
X0.2633 Y-2.0219
X0.3007 Y-2.0109
X0.3381 Y-1.9997
X0.3754 Y-1.9884
X0.4127 Y-1.9771
X0.4872 Y-1.9542
X0.599 Y-1.9196
X0.6362 Y-1.9081
X0.6738 Y-1.8979
X0.7122 Y-1.8907
X0.7508 Y-1.8858
X0.7897 Y-1.8824
X0.8286 Y-1.88
X0.8676 Y-1.8784
X0.9065 Y-1.8774
X0.9455 Y-1.8766
X0.9845 Y-1.8761
X1.0235 Y-1.8758
X1.0428 Y-1.8784
X1.0793 Y-1.8921
X1.1113 Y-1.9145
X1.1411 Y-1.9395
X1.166 Y-1.9596
X1.1836 Y-1.9716
X1.1988 Y-1.9803
X1.2165 Y-1.9886
X1.2397 Y-1.9973
X1.2716 Y-2.0064
X1.3098 Y-2.0141
X1.3485 Y-2.0192
X1.3873 Y-2.0227
X1.4262 Y-2.025
X1.4652 Y-2.0266
X1.5042 Y-2.0277
X1.5431 Y-2.0284
X1.5821 Y-2.0289
X1.6211 Y-2.0293
X1.6488 Y-2.0283
X1.6687 Y-2.026
X1.6851 Y-2.0228
X1.6992 Y-2.0188
X1.7117 Y-2.0142
X1.7227 Y-2.009
X1.7326 Y-2.0034
X1.7415 Y-1.9974
X1.7501 Y-1.9905
X1.7784 Y-1.9637
X1.8074 Y-1.9377
X1.8415 Y-1.9187
X1.8781 Y-1.9053
X1.9159 Y-1.8959
X1.9544 Y-1.8893
X1.9931 Y-1.8848
X2.032 Y-1.8817
X2.0709 Y-1.8796
X2.1099 Y-1.8781
X2.1488 Y-1.8771
X2.1878 Y-1.8782
X2.2266 Y-1.8825
X2.265 Y-1.8891
X2.3031 Y-1.8973
X2.341 Y-1.9065
X2.3787 Y-1.9165
X2.4163 Y-1.927
X2.4537 Y-1.9378
X2.4911 Y-1.9488
X2.5285 Y-1.96
X2.5658 Y-1.9713
X2.6031 Y-1.9827
X2.6403 Y-1.9941
X2.6776 Y-2.0056
X2.7111 Y-2.0256
X2.736 Y-2.0556
X2.7539 Y-2.0903
X2.7665 Y-2.1271
X2.7754 Y-2.1651
X2.7815 Y-2.2036
X2.7858 Y-2.2424
X2.7859 Y-2.2521
X2.7832 Y-2.2714
X2.7745 Y-2.2889
X2.7505 Y-2.3196
X2.7187 Y-2.3421
X2.6832 Y-2.3583
X2.6459 Y-2.3696
X2.6077 Y-2.3775
X2.5691 Y-2.383
X2.5303 Y-2.3868
X2.4914 Y-2.3894
X2.4525 Y-2.3912
X2.4135 Y-2.3924
X2.3745 Y-2.3932
X2.3355 Y-2.3938
X2.2965 Y-2.3942
X2.2575 Y-2.3944
X2.2185 Y-2.3946
X2.1406 Y-2.3948
X2.0236 Y-2.3949
X1.8286 Y-2.395
X1.7896
X1.7773 Y-2.3941
X1.7636 Y-2.3932
X1.7482 Y-2.3923
X1.7305 Y-2.3914
X1.7098 Y-2.3905
X1.6848 Y-2.3896
X1.6535 Y-2.3887
X1.6145 Y-2.3878
X1.5755 Y-2.3873
X1.5365 Y-2.3869
X1.4975 Y-2.3866
X1.4586 Y-2.3864
X1.3806 Y-2.3862
X1.2636 Y-2.3861
X0.9517 Y-2.386
X0.3668
X0.3473 Y-2.3858
X0.3283 Y-2.3814
X0.3116 Y-2.3714
X0.2826 Y-2.3453
X0.2618 Y-2.3124
X0.2544 Y-2.2943
X0.2482 Y-2.2758
Y-2.2563
X0.2591 Y-2.2189
X0.2821 Y-2.1874
X0.311 Y-2.1613
X0.3433 Y-2.1393
X0.3774 Y-2.1205
X0.4127 Y-2.1039
X0.4486 Y-2.0888
X0.485 Y-2.0749
X0.5217 Y-2.0617
X0.5576 Y-2.0463
X0.594 Y-2.0323
X0.6309 Y-2.0198
X0.6685 Y-2.0094
X0.7066 Y-2.001
X0.745 Y-1.9945
X0.7837 Y-1.9894
X0.8225 Y-1.9856
X0.8613 Y-1.9828
X0.9003 Y-1.9807
X0.9393 Y-1.9805
X0.9775 Y-1.9884
X1.0141 Y-2.0018
X1.0494 Y-2.0182
X1.0844 Y-2.0354
X1.1197 Y-2.052
X1.1556 Y-2.0671
X1.1923 Y-2.0803
X1.2297 Y-2.0914
X1.2676 Y-2.1005
X1.306 Y-2.1077
X1.3445 Y-2.1133
X1.3833 Y-2.1176
X1.4222 Y-2.1208
X1.4611 Y-2.1233
X1.5 Y-2.1251
X1.539 Y-2.1264
X1.578 Y-2.1268
X1.6169 Y-2.1253
X1.6496 Y-2.1216
X1.6775 Y-2.1162
X1.7015 Y-2.1095
X1.7235 Y-2.1014
X1.7493 Y-2.0894
X1.7833 Y-2.0703
X1.8169 Y-2.0505
X1.8519 Y-2.0334
X1.8883 Y-2.0194
X1.9257 Y-2.0084
X1.9637 Y-1.9998
X2.0022 Y-1.9933
X2.0409 Y-1.9884
X2.0797 Y-1.985
X2.1187 Y-1.9836
X2.1576 Y-1.9846
X2.1965 Y-1.9879
X2.2351 Y-1.993
X2.2736 Y-1.9997
X2.3117 Y-2.0076
X2.3497 Y-2.0165
X2.3875 Y-2.026
X2.4252 Y-2.0361
X2.4435 Y-2.0427
X2.4647 Y-2.0501
X2.4913 Y-2.0592
X2.5283 Y-2.0716
X2.5642 Y-2.0868
X2.5943 Y-2.1115
X2.6003 Y-2.1192
X2.6059 Y-2.1272
X2.6101 Y-2.136
X2.6128 Y-2.1453
X2.6139 Y-2.155
X2.6134 Y-2.1648
X2.6112 Y-2.1743
X2.6075 Y-2.1833
X2.6024 Y-2.1916
X2.5894 Y-2.2062
X2.5576 Y-2.2287
X2.5223 Y-2.2452
X2.4851 Y-2.257
X2.4471 Y-2.2655
X2.4086 Y-2.2716
X2.3698 Y-2.2758
X2.3309 Y-2.2789
X2.292 Y-2.281
X2.253 Y-2.2825
X2.2141 Y-2.2835
X2.1751 Y-2.2843
X2.1361 Y-2.2848
X2.0971 Y-2.2852
X2.0581 Y-2.2854
X2.0191 Y-2.2856
X1.9412 Y-2.2858
X1.907
X1.868 Y-2.2856
X1.8291 Y-2.2848
X1.7901 Y-2.2837
X1.7511 Y-2.2825
X1.7121 Y-2.2814
X1.6732 Y-2.2805
X1.6342 Y-2.2797
X1.5952 Y-2.2791
X1.5562 Y-2.2786
X1.5172 Y-2.2782
X1.4782 Y-2.2779
X1.4392 Y-2.2776
X1.4002 Y-2.2775
X1.3223 Y-2.2773
X1.2053 Y-2.2771
X0.9713 Y-2.277
X0.9324
X0.8934
X0.8545 Y-2.2798
X0.8155 Y-2.2818
X0.7766 Y-2.2831
X0.7376 Y-2.284
X0.6986 Y-2.2847
X0.6596 Y-2.2851
X0.6304 Y-2.2853
X0.5914 Y-2.2855
X0.5524 Y-2.2857
X0.5085 Y-2.2858
G3 X0.5097 Y-2.3358 R0.025
X0.5104 R0.025
G1 X0.5143 Y-2.3356 Z-0.0297
X0.5181 Y-2.3355 Z-0.0287
X0.5217 Y-2.3353 Z-0.0272
X0.525 Y-2.3352 Z-0.0252
X0.528 Y-2.3351 Z-0.0226
X0.5306 Y-2.335 Z-0.0197
X0.5326 Y-2.3349 Z-0.0163
X0.5341 Z-0.0127
X0.535 Y-2.3348 Z-0.0089
X0.5353 Z-0.005
G0 Z0.2
X2.4072 Y-2.375
Z0.02
G1 Z-0.005 F5.3
Y-2.3747 Z-0.0089
X2.4073 Y-2.3738 Z-0.0127
X2.4074 Y-2.3723 Z-0.0163
X2.4076 Y-2.3702 Z-0.0197
X2.4079 Y-2.3677 Z-0.0226
X2.4082 Y-2.3647 Z-0.0252
X2.4085 Y-2.3614 Z-0.0272
X2.4088 Y-2.3578 Z-0.0287
X2.4092 Y-2.354 Z-0.0297
X2.4096 Y-2.3501 Z-0.03
G3 X2.4086 Y-2.2716 R0.3646
G1 X2.4078 Y-2.2667
X2.4048 Y-2.2615
X2.4013 Y-2.2567
X2.3973 Y-2.2522
X2.393 Y-2.248
X2.3884 Y-2.2441
X2.3837 Y-2.2404
X2.3788 Y-2.237
X2.3738 Y-2.2337
X2.3686 Y-2.2306
X2.3634 Y-2.2278
X2.358 Y-2.225
X2.3526 Y-2.2224
X2.3471 Y-2.22
X2.3416 Y-2.2177
X2.336 Y-2.2156
X2.3303 Y-2.2135
X2.3246 Y-2.2116
X2.3189 Y-2.2097
X2.3132 Y-2.208
X2.3074 Y-2.2064
X2.3016 Y-2.2048
X2.2958 Y-2.2034
X2.29 Y-2.202
X2.2841 Y-2.2007
X2.2782 Y-2.1994
X2.2724 Y-2.1983
X2.2665 Y-2.1971
X2.2606 Y-2.1961
X2.2546 Y-2.1951
X2.2487 Y-2.1942
X2.2428 Y-2.1933
X2.2368 Y-2.1924
X2.2307 Y-2.1916
X2.2242 Y-2.1908
X2.2174 Y-2.1899
X2.2099 Y-2.1891
X2.2019 Y-2.1883
X2.1933 Y-2.1874
X2.1841 Y-2.1866
X2.174 Y-2.1857
X2.1628 Y-2.1849
X2.1504 Y-2.184
X2.1365 Y-2.1832
X2.1206 Y-2.1824
X2.1023 Y-2.1815
X2.0802 Y-2.1807
X2.0531 Y-2.1798
X2.0141 Y-2.1789
X1.9995 Y-2.1786
X1.9213 Y-2.186
X1.1039 Y-2.263 F15.
X1.0762 Y-2.2656 F5.3
G3 X1.0783 Y-2.2877 R0.0111
X1.0883 Y-2.277 R0.0111
G1 Y-2.2624
X1.0849 Y-2.2575
X1.081 Y-2.2529
X1.0769 Y-2.2486
X1.0725 Y-2.2445
X1.0679 Y-2.2406
X1.0632 Y-2.2369
X1.0583 Y-2.2334
X1.0533 Y-2.2301
X1.0482 Y-2.227
X1.0429 Y-2.224
X1.0376 Y-2.2212
X1.0323 Y-2.2186
X1.0268 Y-2.2161
X1.0213 Y-2.2137
X1.0157 Y-2.2114
X1.0101 Y-2.2093
X1.0045 Y-2.2072
X0.9988 Y-2.2053
X0.9931 Y-2.2034
X0.9874 Y-2.2017
X0.9816 Y-2.2001
X0.9758 Y-2.1986
X0.9699 Y-2.1972
X0.9641 Y-2.1959
X0.9582 Y-2.1947
X0.9523 Y-2.1936
X0.9464 Y-2.1925
X0.9405 Y-2.1915
X0.9346 Y-2.1906
X0.9286 Y-2.1897
X0.9227 Y-2.1889
X0.9167 Y-2.1881
X0.9108 Y-2.1874
X0.9048 Y-2.1867
X0.8984 Y-2.1861
X0.8914 Y-2.1854
X0.8836 Y-2.1847
X0.8752 Y-2.184
X0.8661 Y-2.1833
X0.8562 Y-2.1826
X0.8446 Y-2.1819
X0.8316 Y-2.1812
X0.8168 Y-2.1805
X0.7987 Y-2.1798
X0.777 Y-2.1791
X0.7476 Y-2.1784
X0.7281 Y-2.1781
G3 X0.7036 Y-2.2036 R0.025
X0.7292 Y-2.2281 R0.025
G1 X0.7331 Y-2.228 Z-0.0297
X0.7369 Y-2.2279 Z-0.0287
X0.7405 Z-0.0272
X0.7438 Y-2.2278 Z-0.0252
X0.7468 Y-2.2277 Z-0.0226
X0.7494 Z-0.0197
X0.7514 Y-2.2276 Z-0.0163
X0.7529 Z-0.0127
X0.7538 Z-0.0089
X0.7542 Z-0.005
G0 Z0.2
X0.0595 Y-0.2757
Z0.02
G1 Z-0.005 F5.3
X0.0598 Y-0.2756 Z-0.0089
X0.0607 Y-0.2753 Z-0.0127
X0.0621 Y-0.2749 Z-0.0163
X0.0641 Y-0.2743 Z-0.0197
X0.0665 Y-0.2736 Z-0.0226
X0.0694 Y-0.2728 Z-0.0252
X0.0726 Y-0.2718 Z-0.0272
X0.0761 Y-0.2708 Z-0.0287
X0.0798 Y-0.2697 Z-0.0297
X0.0835 Y-0.2686 Z-0.03
X0.105 Y-0.2623
X0.111
X0.1163 Y-0.2594
X0.1211 Y-0.2558
X0.1264 Y-0.2513
X0.1323 Y-0.2452
X0.1394 Y-0.2367
X0.1619 Y-0.2049
X0.1878 Y-0.1758
X0.2205 Y-0.1545
X0.2564 Y-0.1394
X0.2939 Y-0.1287
X0.3322 Y-0.1213
X0.3709 Y-0.1162
X0.4097 Y-0.1127
X0.4486 Y-0.1102
X0.4876 Y-0.1086
X0.5265 Y-0.1074
X0.5655 Y-0.1067
X0.6045 Y-0.1061
X0.6435 Y-0.1058
X0.6825 Y-0.1055
X0.7215 Y-0.1054
X0.7995 Y-0.1052
X0.9164 Y-0.1051
X1.2674 Y-0.105
X2.0472
X2.632
X2.6515 Y-0.1051
X2.6708 Y-0.1078
X2.6884 Y-0.1164
X2.7192 Y-0.1402
X2.7419 Y-0.1719
X2.7581 Y-0.2074
X2.7695 Y-0.2447
X2.7774 Y-0.2829
X2.7829 Y-0.3215
X2.7827 Y-0.3409
X2.7728 Y-0.3786
X2.7511 Y-0.411
X2.7231 Y-0.4382
X2.6915 Y-0.461
X2.6577 Y-0.4806
X2.6227 Y-0.4977
X2.5869 Y-0.5132
X2.5506 Y-0.5274
X2.514 Y-0.5408
X2.4772 Y-0.5537
X2.4402 Y-0.5661
X2.4032 Y-0.5782
X2.3661 Y-0.5902
X2.3286 Y-0.6009
X2.2903 Y-0.6085
X2.2517 Y-0.6136
X2.2129 Y-0.6172
X2.174 Y-0.6197
X2.135 Y-0.6214
X2.096 Y-0.6225
X2.057 Y-0.6233
X2.0181 Y-0.6238
X1.9791 Y-0.6242
X1.9597 Y-0.6221
X1.9229 Y-0.6093
X1.8907 Y-0.5872
X1.8608 Y-0.5622
X1.8352 Y-0.5413
X1.8174 Y-0.529
X1.8021 Y-0.5202
X1.7847 Y-0.5119
X1.7618 Y-0.5032
X1.7306 Y-0.4941
X1.6924 Y-0.4863
X1.6538 Y-0.481
X1.6149 Y-0.4775
X1.576 Y-0.4751
X1.5371 Y-0.4735
X1.4981 Y-0.4724
X1.4591 Y-0.4716
X1.4201 Y-0.4711
X1.3811 Y-0.4708
X1.3526 Y-0.4716
X1.3324 Y-0.4738
X1.3159 Y-0.477
X1.3016 Y-0.4809
X1.2891 Y-0.4855
X1.2779 Y-0.4906
X1.268 Y-0.4962
X1.2591 Y-0.5022
X1.2505 Y-0.509
X1.2221 Y-0.5356
X1.1932 Y-0.5619
X1.1592 Y-0.5809
X1.1227 Y-0.5945
X1.0848 Y-0.604
X1.0464 Y-0.6105
X1.0077 Y-0.6151
X0.9688 Y-0.6182
X0.9299 Y-0.6204
X0.8909 Y-0.6218
X0.8519 Y-0.6228
X0.813 Y-0.6219
X0.7742 Y-0.6176
X0.7358 Y-0.611
X0.6976 Y-0.6029
X0.6598 Y-0.5937
X0.6221 Y-0.5837
X0.5845 Y-0.5733
X0.547 Y-0.5625
X0.5096 Y-0.5514
X0.4723 Y-0.5402
X0.435 Y-0.5289
X0.3977 Y-0.5175
X0.3604 Y-0.5061
X0.3231 Y-0.4946
X0.2895 Y-0.4749
X0.2644 Y-0.445
X0.2554 Y-0.4277
X0.2446 Y-0.3903
X0.2453 Y-0.3708
X0.2499 Y-0.3518
X0.2659 Y-0.3163
X0.2922 Y-0.2875
X0.3243 Y-0.2653
X0.3595 Y-0.2487
X0.3965 Y-0.2364
X0.4345 Y-0.2275
X0.4729 Y-0.221
X0.5117 Y-0.2164
X0.5505 Y-0.213
X0.5894 Y-0.2107
X0.6284 Y-0.209
X0.6673 Y-0.2078
X0.7063 Y-0.207
X0.7453 Y-0.2064
X0.7843 Y-0.206
X0.8233 Y-0.2057
X0.8623 Y-0.2055
X0.9013 Y-0.2053
X0.9793 Y-0.2052
X1.0962 Y-0.2051
X1.4471 Y-0.205
X2.4609
X2.4999
X2.5388 Y-0.2078
X2.5747 Y-0.223
X2.5819 Y-0.2295
X2.5884 Y-0.2369
X2.5935 Y-0.2452
X2.5972 Y-0.2542
X2.5993 Y-0.2637
X2.5998 Y-0.2734
X2.5975 Y-0.2928
X2.5819 Y-0.3285
X2.5576 Y-0.3591
X2.5285 Y-0.3849
X2.4963 Y-0.407
X2.4624 Y-0.4262
X2.4273 Y-0.4432
X2.3914 Y-0.4585
X2.3547 Y-0.4716
X2.3172 Y-0.4823
X2.2791 Y-0.4906
X2.2407 Y-0.4971
X2.202 Y-0.502
X2.1632 Y-0.5057
X2.1243 Y-0.5085
X2.0853 Y-0.5105
X2.0465 Y-0.5074
X2.0089 Y-0.4969
X1.9729 Y-0.4819
X1.9378 Y-0.4651
X1.9278 Y-0.4602
X1.9176 Y-0.4554
X1.9046 Y-0.4494
X1.8988 Y-0.4468
X1.8928 Y-0.4441
X1.8865 Y-0.4413
X1.8797 Y-0.4384
X1.8725 Y-0.4354
X1.8668 Y-0.4331
X1.8613 Y-0.4309
X1.8557 Y-0.4287
X1.8501 Y-0.4265
X1.8444 Y-0.4244
X1.8387 Y-0.4224
X1.8327 Y-0.4202
X1.8266 Y-0.4181
X1.8209 Y-0.4162
X1.8152 Y-0.4143
X1.8095 Y-0.4125
X1.8038 Y-0.4107
X1.798 Y-0.409
X1.7923 Y-0.4073
X1.7862 Y-0.4056
X1.7804 Y-0.404
X1.7746 Y-0.4025
X1.7688 Y-0.401
X1.763 Y-0.3995
X1.7571 Y-0.3981
X1.7509 Y-0.3966
X1.7443 Y-0.3951
X1.7383 Y-0.3938
X1.7323 Y-0.3926
X1.7261 Y-0.3913
X1.7194 Y-0.39
X1.7124 Y-0.3887
X1.7049 Y-0.3873
X1.6977 Y-0.3861
X1.6905 Y-0.3849
X1.6828 Y-0.3837
X1.6745 Y-0.3824
X1.6657 Y-0.3812
X1.6569 Y-0.38
X1.6479 Y-0.3788
X1.6382 Y-0.3776
X1.6276 Y-0.3764
X1.6167 Y-0.3753
X1.6053 Y-0.3742
X1.5927 Y-0.373
X1.579 Y-0.3719
X1.5647 Y-0.3708
X1.5484 Y-0.3697
X1.5309 Y-0.3686
X1.5108 Y-0.3675
X1.495 Y-0.3668
X1.4818 Y-0.3663
X1.4682 Y-0.3659
X1.4606 Y-0.3657
X1.4535 Y-0.3656
X1.4461 Y-0.3655
X1.4387
X1.4327
X1.4267 Y-0.3656
X1.4207 Y-0.3657
X1.4147 Y-0.3659
X1.4087 Y-0.3661
X1.4027 Y-0.3664
X1.3967 Y-0.3668
X1.3907 Y-0.3672
X1.3848 Y-0.3677
X1.3788 Y-0.3682
X1.3728 Y-0.3688
X1.3669 Y-0.3695
X1.3609 Y-0.3703
X1.355 Y-0.3712
X1.349 Y-0.3721
X1.3431 Y-0.3732
X1.3372 Y-0.3743
X1.3314 Y-0.3755
X1.3255 Y-0.3768
X1.3197 Y-0.3783
X1.3139 Y-0.3798
X1.3081 Y-0.3814
X1.3024 Y-0.3831
X1.2966 Y-0.385
X1.291 Y-0.3869
X1.2853 Y-0.389
X1.2797 Y-0.3911
X1.2742 Y-0.3934
X1.2687 Y-0.3958
X1.2632 Y-0.3983
X1.2578 Y-0.4009
X1.2524 Y-0.4035
X1.2471 Y-0.4063
X1.2418 Y-0.4091
X1.2365 Y-0.412
X1.2026 Y-0.4311
X1.1681 Y-0.4493
X1.1323 Y-0.4647
X1.0953 Y-0.4771
X1.0575 Y-0.4869
X1.0193 Y-0.4944
X0.9807 Y-0.5
X0.9419 Y-0.5043
X0.903 Y-0.5069
X0.8642 Y-0.51
X0.8252 Y-0.5098
X0.7863 Y-0.507
X0.7476 Y-0.502
X0.7092 Y-0.4954
X0.671 Y-0.4874
X0.6331 Y-0.4786
X0.5953 Y-0.469
X0.5717 Y-0.4626
X0.5295 Y-0.4509
X0.492 Y-0.4402
X0.4873 Y-0.4388
G3 X0.4743 Y-0.4871 R0.025
X0.4749 Y-0.4873 R0.025
G1 X0.4787 Y-0.4882 Z-0.0297
X0.4824 Y-0.4892 Z-0.0287
X0.4859 Y-0.4901 Z-0.0272
X0.4892 Y-0.4909 Z-0.0252
X0.4921 Y-0.4916 Z-0.0226
X0.4945 Y-0.4923 Z-0.0197
X0.4965 Y-0.4928 Z-0.0163
X0.498 Y-0.4931 Z-0.0127
X0.4989 Y-0.4934 Z-0.0089
X0.4992 Z-0.005
G0 Z0.2
X2.4974 Y-0.5235
Z0.02
G1 Z-0.005 F5.3
Y-0.5232 Z-0.0089
X2.4971 Y-0.5223 Z-0.0127
X2.4967 Y-0.5209 Z-0.0163
X2.4962 Y-0.5189 Z-0.0197
X2.4955 Y-0.5164 Z-0.0226
X2.4947 Y-0.5136 Z-0.0252
X2.4939 Y-0.5103 Z-0.0272
X2.4929 Y-0.5068 Z-0.0287
X2.4919 Y-0.5031 Z-0.0297
X2.4909 Y-0.4994 Z-0.03
G3 X2.4624 Y-0.4262 R0.3646
G1 X2.4576 Y-0.4177
X2.4526 Y-0.4143
X2.4474 Y-0.4113
X2.442 Y-0.4087
X2.4365 Y-0.4064
X2.4308 Y-0.4044
X2.4251 Y-0.4026
X2.4193 Y-0.401
X2.4135 Y-0.3996
X2.4076 Y-0.3984
X2.4017 Y-0.3973
X2.3958 Y-0.3964
X2.3898 Y-0.3956
X2.3839 Y-0.3948
X2.3779 Y-0.3942
X2.3719 Y-0.3937
X2.366 Y-0.3933
X2.36 Y-0.3929
X2.354 Y-0.3927
X2.348 Y-0.3924
X2.342 Y-0.3923
X2.3359 Y-0.3922
X2.3294 Y-0.3921
X2.3226 Y-0.392
X2.3154 Y-0.3921
X2.306 Y-0.3922
X2.2944 Y-0.3924
X2.2815 Y-0.3927
X2.2606 Y-0.3934
X2.2216 Y-0.3949
X2.1827 Y-0.3968
X2.1437
X2.105 Y-0.3925
X2.0669 Y-0.3841
X2.0575 Y-0.3813
G3 X2.0542 Y-0.381 R0.0111
G1 X1.9791 Y-0.3848
X1.2138 Y-0.424 F15.
X1.1922 Y-0.4251 F5.3
G3 X1.1933 Y-0.4472 R0.0111
X1.2026 Y-0.4311 R0.0111
G1 X1.2002 Y-0.4269
X1.1955 Y-0.4231
X1.1904 Y-0.4198
X1.1851 Y-0.417
X1.1797 Y-0.4145
X1.1741 Y-0.4123
X1.1685 Y-0.4103
X1.1627 Y-0.4085
X1.1569 Y-0.407
X1.1511 Y-0.4055
X1.1452 Y-0.4043
X1.1393 Y-0.4032
X1.1334 Y-0.4022
X1.1275 Y-0.4013
X1.1215 Y-0.4005
X1.1156 Y-0.3999
X1.1096 Y-0.3993
X1.1036 Y-0.3988
X1.0977 Y-0.3983
X1.0917 Y-0.3979
X1.0857 Y-0.3976
X1.0797 Y-0.3974
X1.0736 Y-0.3971
X1.0671 Y-0.397
X1.0603 Y-0.3968
X1.0521 Y-0.3967
X1.0397 Y-0.3966
X1.0258 Y-0.3967
X1.0116 Y-0.3968
X0.9972 Y-0.397
X0.9193 Y-0.3988
X0.8803 Y-0.3986
X0.8413 Y-0.3968
X0.8025 Y-0.3933
X0.7638 Y-0.3883
X0.7254 Y-0.382
X0.7062 Y-0.3783
X0.7015 Y-0.3773
G3 X0.6924 Y-0.4264 R0.025
X0.693 Y-0.4265 R0.025
G1 X0.6969 Y-0.4272 Z-0.0297
X0.7006 Y-0.4279 Z-0.0287
X0.7042 Y-0.4285 Z-0.0272
X0.7075 Y-0.429 Z-0.0252
X0.7105 Y-0.4295 Z-0.0226
X0.713 Y-0.43 Z-0.0197
X0.715 Y-0.4303 Z-0.0163
X0.7165 Y-0.4306 Z-0.0127
X0.7174 Y-0.4307 Z-0.0089
X0.7177 Y-0.4308 Z-0.005
G0 Z0.6

(ADAPTIVE2)
M8
G0 X-0.0169 Y-2.7297
Z0.6
Z0.2
Z-0.275
G1 Z-0.3 F5.3
Y-2.7294 Z-0.3039
X-0.0166 Y-2.7286 Z-0.3077
X-0.0163 Y-2.7271 Z-0.3113
X-0.0158 Y-2.7251 Z-0.3147
X-0.0151 Y-2.7227 Z-0.3177
X-0.0144 Y-2.7198 Z-0.3202
X-0.0136 Y-2.7165 Z-0.3223
X-0.0127 Y-2.713 Z-0.3238
X-0.0117 Y-2.7093 Z-0.3247
X-0.0107 Y-2.7055 Z-0.325
G3 X0.0004 Y-2.6278 R0.3646
G1 Y-2.6241
X0.0008 Y-2.623
X0.0235 Y-2.5913
X0.0474 Y-2.5605
X0.0648 Y-2.5256
X0.0706 Y-2.507
X0.0729 Y-2.4981
X0.0752 Y-2.4885
X0.0774 Y-2.4779
X0.0795 Y-2.4663
X0.0817 Y-2.4533
X0.0837 Y-2.4386
X0.0858 Y-2.4213
X0.0878 Y-2.4006
X0.0898 Y-2.3742
X0.0917 Y-2.3374
X0.0928 Y-2.2984
X0.0935 Y-2.2595
X0.0938 Y-2.2205
X0.094 Y-2.1815
X0.0941 Y-2.1425
Y-2.0645
X0.094 Y-1.5966
X0.0937 Y-0.6608
X0.0935 Y-0.0845
X0.0938 Y-0.0833
X0.0946 Y-0.0824
X0.0955 Y-0.0816
X0.0966 Y-0.0813
X0.1101 Y-0.0807
X0.1176 Y-0.0792
X0.1244 Y-0.0754
X0.1297 Y-0.0698
X0.1313 Y-0.0674
X0.1377 Y-0.0586
X0.142 Y-0.0536
X0.1509 Y-0.0444
X0.1549 Y-0.0409
X0.1659 Y-0.032
X0.1685 Y-0.0302
X0.1774 Y-0.0245
X0.1862 Y-0.02
X0.1951 Y-0.016
X0.1993 Y-0.0143
X0.2039 Y-0.0126
X0.2128 Y-0.01
X0.2216 Y-0.008
X0.2305 Y-0.0063
X0.2393 Y-0.0058
X0.2482 Y-0.0053
X0.257 Y-0.005
X2.743
X2.7518 Y-0.0053
X2.7607 Y-0.0058
X2.7695 Y-0.0063
X2.7784 Y-0.008
X2.7872 Y-0.01
X2.7961 Y-0.0126
X2.8007 Y-0.0143
X2.8049 Y-0.016
X2.8138 Y-0.02
X2.8199 Y-0.0232
X2.8554 Y-0.0393
X2.8597 Y-0.0417
X2.8649 Y-0.0446
X2.8702 Y-0.0474
X2.8756 Y-0.05
X2.8811 Y-0.0525
X2.8867 Y-0.0549
X2.8876 Y-0.0557
X2.8902 Y-0.0599
X2.8984 Y-0.098
X2.902 Y-0.1368
X2.9038 Y-0.1757
X2.9047 Y-0.2147
X2.9052 Y-0.2537
X2.9055 Y-0.2927
X2.9056 Y-0.3317
X2.9058 Y-0.4097
X2.9059 Y-0.6826
X2.9062 Y-1.9693
X2.9064 Y-2.4165
X2.906 Y-2.4176
X2.9053 Y-2.4186
X2.9043 Y-2.4194
X2.9032 Y-2.4197
X2.8894 Y-2.4202
X2.8818 Y-2.4217
X2.875 Y-2.4255
X2.8697 Y-2.4312
X2.8687 Y-2.4326
X2.8623 Y-2.4414
X2.858 Y-2.4464
X2.8491 Y-2.4556
X2.8451 Y-2.4591
X2.8341 Y-2.468
X2.8315 Y-2.4698
X2.8226 Y-2.4755
X2.8138 Y-2.48
X2.8049 Y-2.484
X2.8007 Y-2.4857
X2.7961 Y-2.4874
X2.7872 Y-2.49
X2.7784 Y-2.492
X2.7695 Y-2.4937
X2.7607 Y-2.4942
X2.7518 Y-2.4947
X2.743 Y-2.495
X0.257
X0.2482 Y-2.4947
X0.2393 Y-2.4942
X0.2305 Y-2.4937
X0.2216 Y-2.492
X0.2128 Y-2.49
X0.2039 Y-2.4874
X0.1993 Y-2.4857
X0.1951 Y-2.484
X0.1862 Y-2.48
X0.1774 Y-2.4755
X0.1685 Y-2.4698
X0.1659 Y-2.468
X0.1549 Y-2.4591
X0.1509 Y-2.4556
X0.142 Y-2.4464
X0.1377 Y-2.4414
X0.1313 Y-2.4326
X0.1252 Y-2.4237
X0.1243 Y-2.4221
X0.1205 Y-2.4148
X0.1163 Y-2.406
X0.113 Y-2.3971
X0.1103 Y-2.3883
X0.1081 Y-2.3794
X0.1066 Y-2.3705
X0.1059 Y-2.3617
X0.1051 Y-2.344
X0.105 Y-2.3351
Y-0.1649
X0.1051 Y-0.156
X0.1059 Y-0.1383
G3 X0.0812 Y-0.1131 R0.025
X0.0559 Y-0.1378 R0.025
G1 Y-0.1417 Z-0.3247
X0.0558 Y-0.1455 Z-0.3238
Y-0.1492 Z-0.3223
Y-0.1525 Z-0.3202
Y-0.1555 Z-0.3177
X0.0557 Y-0.158 Z-0.3147
Y-0.1601 Z-0.3113
Y-0.1616 Z-0.3077
Y-0.1625 Z-0.3039
Y-0.1628 Z-0.3
G0 Z0.2
X2.7373 Y0.0391
Z-0.275
G1 Z-0.3 F5.3
X2.7376 Y0.0389 Z-0.3039
X2.7383 Y0.0383 Z-0.3077
X2.7394 Y0.0373 Z-0.3113
X2.7409 Y0.0359 Z-0.3147
X2.7428 Y0.0342 Z-0.3177
X2.745 Y0.0322 Z-0.3202
X2.7475 Y0.03 Z-0.3223
X2.7502 Y0.0276 Z-0.3238
X2.7531 Y0.0251 Z-0.3247
X2.756 Y0.0225 Z-0.325
G3 X2.8199 Y-0.0232 R0.3646
G1 X2.8226 Y-0.0245
X2.8315 Y-0.0302
X2.8341 Y-0.032
X2.8451 Y-0.0409
X2.8491 Y-0.0444
X2.858 Y-0.0536
X2.8623 Y-0.0586
X2.8687 Y-0.0674
X2.8748 Y-0.0763
X2.8757 Y-0.0779
X2.8795 Y-0.0852
X2.8837 Y-0.094
X2.887 Y-0.1029
X2.8897 Y-0.1117
X2.8919 Y-0.1206
X2.8934 Y-0.1295
X2.8941 Y-0.1383
X2.8949 Y-0.156
X2.895 Y-0.1649
Y-2.3351
X2.8949 Y-2.344
X2.8941 Y-2.3617
G3 X2.9324 Y-2.3831 R0.025
G1 X2.9346 Y-2.3811 Z-0.3248
X2.9368 Y-2.3791 Z-0.3243
X2.9389 Y-2.3772 Z-0.3234
X2.9404 Y-2.3744 Z-0.3219
X2.9417 Y-2.3717 Z-0.32
X2.9429 Y-2.3694 Z-0.3177
X2.9433 Y-2.3672 Z-0.3151
X2.9436 Y-2.3653 Z-0.3122
X2.9439 Y-2.3639 Z-0.3091
X2.9441 Y-2.3629 Z-0.3058
Y-2.3624 Z-0.3029
Y-2.3622 Z-0.3
G0 Z0.2
X0.0633 Y-2.1724
Z-0.16
G1 Z-0.185 F5.3
X0.0635 Y-2.1721 Z-0.1889
X0.064 Y-2.1714 Z-0.1927
X0.0649 Y-2.1701 Z-0.1963
X0.0661 Y-2.1684 Z-0.1997
X0.0675 Y-2.1664 Z-0.2026
X0.0692 Y-2.1639 Z-0.2052
X0.0711 Y-2.1612 Z-0.2072
X0.0732 Y-2.1582 Z-0.2087
X0.0754 Y-2.155 Z-0.2097
X0.0776 Y-2.1518 Z-0.21
G3 X0.105 Y-2.0782 R0.1583
G1 X0.1056 Y-2.0694
X0.1071 Y-2.0517
X0.1088 Y-2.0428
X0.1111 Y-2.0339
X0.1139 Y-2.0251
X0.1176 Y-2.0162
X0.122 Y-2.0074
X0.1243 Y-2.003
X0.1268 Y-1.9985
X0.1332 Y-1.9894
X0.1401 Y-1.9808
X0.142 Y-1.9785
X0.1482 Y-1.9719
X0.1509 Y-1.9693
X0.1582 Y-1.9631
X0.1597 Y-1.9618
X0.1685 Y-1.9553
X0.1774 Y-1.9495
X0.1855 Y-1.9454
X0.2073 Y-1.9327
X0.2344 Y-1.9077
X0.2567 Y-1.8757
X0.2729 Y-1.8403
X0.2841 Y-1.8029
X0.2917 Y-1.7647
X0.2967 Y-1.726
X0.2998 Y-1.6871
X0.3018 Y-1.6482
X0.303 Y-1.6092
X0.3038 Y-1.5702
X0.3043 Y-1.5313
X0.3045 Y-1.4923
X0.3047 Y-1.4533
X0.3048 Y-1.4143
X0.3049 Y-1.3363
X0.305 Y-1.1024
Y-0.6123
X0.3038 Y-0.6045
X0.3001 Y-0.5974
X0.2945 Y-0.5919
X0.2874 Y-0.5884
X0.2305 Y-0.5708
X0.2039 Y-0.5624
X0.1951 Y-0.559
X0.1862 Y-0.555
X0.1774 Y-0.5505
X0.1685 Y-0.5447
X0.1597 Y-0.5382
X0.1582 Y-0.5369
X0.1509 Y-0.5307
X0.1482 Y-0.5281
X0.142 Y-0.5215
X0.1401 Y-0.5192
X0.1332 Y-0.5106
G3 X0.0893 Y-0.528 R0.025
G1 X0.09 Y-0.5447
X0.1485 Y-1.8946 F15.
X0.1498 Y-1.9238 F5.3
G3 X0.1855 Y-1.9454 R0.025
G1 X0.1862 Y-1.945
X0.1951 Y-1.941
X0.2039 Y-1.9376
X0.2356 Y-1.9276
X0.3455 Y-1.8936
X0.3736 Y-1.8833
X0.4032 Y-1.8644
X0.4307 Y-1.8368
X0.4522 Y-1.8043
X0.4683 Y-1.7688
X0.48 Y-1.7316
X0.4882 Y-1.6935
X0.4939 Y-1.6549
X0.4977 Y-1.6161
X0.5003 Y-1.5772
X0.5019 Y-1.5382
X0.503 Y-1.4993
X0.5037 Y-1.4603
X0.5042 Y-1.4213
X0.5045 Y-1.3823
X0.5047 Y-1.3433
X0.5048 Y-1.3043
X0.5049 Y-1.2263
X0.505 Y-1.0314
Y-0.6805
X0.5048 Y-0.6734
X0.5033 Y-0.6658
X0.4997 Y-0.6591
X0.4941 Y-0.6537
X0.4872 Y-0.6503
X0.2874 Y-0.5884
G3 X0.2559 Y-0.6137 R0.025
G1 X0.2573 Y-0.6451
X0.3124 Y-1.8369 F15.
X0.3139 Y-1.8706 F5.3
G3 X0.3455 Y-1.8936 R0.025
G1 X0.5401 Y-1.8333
X0.5689 Y-1.8227
X0.599 Y-1.8035
X0.6265 Y-1.7759
X0.6482 Y-1.7435
X0.6648 Y-1.7082
X0.6769 Y-1.6712
X0.6857 Y-1.6332
X0.6918 Y-1.5947
X0.6961 Y-1.5559
X0.6991 Y-1.5171
X0.701 Y-1.4781
X0.7024 Y-1.4391
X0.7033 Y-1.4002
X0.7039 Y-1.3612
X0.7043 Y-1.3222
X0.7045 Y-1.2832
X0.7047 Y-1.2442
X0.7049 Y-1.1662
X0.705 Y-1.0493
Y-0.7763
Y-0.7373
X0.7049 Y-0.7352
X0.7034 Y-0.7277
X0.6997 Y-0.721
X0.6942 Y-0.7157
X0.6873 Y-0.7124
X0.4872 Y-0.6503
G3 X0.4557 Y-0.6756 R0.025
G1 X0.4571 Y-0.7071
X0.507 Y-1.7765 F15.
X0.5086 Y-1.8103 F5.3
G3 X0.5401 Y-1.8333 R0.025
G1 X0.6994 Y-1.7839
X0.7259 Y-1.7771
X0.7592 Y-1.7669
X0.7891 Y-1.75
X0.8181 Y-1.7239
X0.8412 Y-1.6925
X0.8591 Y-1.6579
X0.8724 Y-1.6212
X0.8822 Y-1.5835
X0.8892 Y-1.5451
X0.8941 Y-1.5064
X0.8976 Y-1.4676
X0.9 Y-1.4287
X0.9016 Y-1.3897
X0.9027 Y-1.3507
X0.9035 Y-1.3118
X0.904 Y-1.2728
X0.9043 Y-1.2338
X0.9045 Y-1.1948
X0.9047 Y-1.1558
X0.9049 Y-1.0778
X0.905 Y-0.9608
Y-0.8049
X0.9037 Y-0.7659
X0.9014 Y-0.747
X0.8995 Y-0.74
X0.8957 Y-0.7339
X0.8903 Y-0.7291
X0.8837 Y-0.726
X0.8766 Y-0.725
X0.7524
X0.7305 Y-0.7236
X0.7284 Y-0.7234
X0.7259 Y-0.7229
X0.6994 Y-0.7161
X0.6873 Y-0.7124
G3 X0.6558 Y-0.7375 R0.025
G1 X0.657 Y-0.7691
X0.6943 Y-1.7188 F15.
X0.6956 Y-1.7537 F5.3
G3 X0.7259 Y-1.7771 R0.025
G1 X0.7284 Y-1.7766
X0.7305 Y-1.7764
X0.7524 Y-1.775
X0.8851
X0.9093 Y-1.7738
X0.94 Y-1.7654
X0.9724 Y-1.7483
X1.0021 Y-1.7231
X1.0266 Y-1.6928
X1.0462 Y-1.659
X1.0614 Y-1.6231
X1.073 Y-1.5859
X1.0819 Y-1.548
X1.0884 Y-1.5095
X1.0932 Y-1.4708
X1.0967 Y-1.432
X1.0991 Y-1.3931
X1.1009 Y-1.3541
X1.1022 Y-1.3152
X1.103 Y-1.2762
X1.1037 Y-1.2372
X1.1041 Y-1.1982
X1.1044 Y-1.1592
X1.1046 Y-1.1202
X1.1047 Y-1.0812
X1.1049 Y-1.0032
X1.105 Y-0.8863
X1.1048 Y-0.8473
X1.1039 Y-0.8083
X1.1011 Y-0.7694
X1.0972 Y-0.7459
X1.0951 Y-0.7392
X1.0912 Y-0.7334
X1.0859 Y-0.7289
X1.0795 Y-0.726
X1.0726 Y-0.725
X0.8766
G3 X0.8525 Y-0.7502 R0.025
G1 X0.8528 Y-0.7901
X0.8607 Y-1.7099 F15.
X0.861 Y-1.7502 F5.3
G3 X0.8851 Y-1.775 R0.025
G1 X1.0709
X1.0986 Y-1.7736
X1.1298 Y-1.7651
X1.1639 Y-1.7471
X1.1937 Y-1.7219
X1.2183 Y-1.6917
X1.2383 Y-1.6582
X1.2542 Y-1.6226
X1.2667 Y-1.5857
X1.2763 Y-1.5479
X1.2837 Y-1.5096
X1.2894 Y-1.471
X1.2936 Y-1.4323
X1.2967 Y-1.3934
X1.299 Y-1.3545
X1.3007 Y-1.3155
X1.302 Y-1.2766
X1.3029 Y-1.2376
X1.3035 Y-1.1986
X1.3039 Y-1.1596
X1.3043 Y-1.1206
X1.3045 Y-1.0816
X1.3046 Y-1.0426
X1.3048 Y-0.9647
Y-0.9257
X1.3046 Y-0.8867
X1.3039 Y-0.8477
X1.3023 Y-0.8087
X1.2988 Y-0.7699
X1.292 Y-0.7315
X1.2805 Y-0.6942
X1.2727 Y-0.6777
X1.268 Y-0.671
X1.2613 Y-0.6661
X1.2535 Y-0.6637
X1.2452 Y-0.664
X1.2376 Y-0.6669
X1.2312 Y-0.6721
X1.2302 Y-0.6733
X1.2213 Y-0.6822
X1.2155 Y-0.6875
X1.2125 Y-0.69
X1.2046 Y-0.6964
X1.2036 Y-0.6971
X1.1948 Y-0.7023
X1.1859 Y-0.7073
X1.1771 Y-0.7118
X1.1714 Y-0.7141
X1.1682 Y-0.7153
X1.1594 Y-0.7181
X1.1505 Y-0.7202
X1.1378 Y-0.7229
X1.1329 Y-0.7239
X1.124 Y-0.7243
X1.1063 Y-0.7249
X1.0975 Y-0.725
X1.0726
G3 X1.0484 Y-0.7499 R0.025
G1 Y-0.7901
X1.0469 Y-1.7099 F15.
X1.0468 Y-1.75 F5.3
G3 X1.0709 Y-1.775 R0.025
G1 X1.0975
X1.1063 Y-1.7751
X1.124 Y-1.7757
X1.1329 Y-1.7761
X1.1378 Y-1.7771
X1.1505 Y-1.7798
X1.1594 Y-1.7819
X1.1682 Y-1.7847
X1.1714 Y-1.7859
X1.1771 Y-1.7882
X1.1859 Y-1.7927
X1.1896 Y-1.7948
X1.2094 Y-1.8048
X1.2331 Y-1.8109
X1.2626 Y-1.8118
X1.295 Y-1.8058
X1.3308 Y-1.7906
X1.3627 Y-1.7681
X1.3899 Y-1.7402
X1.4129 Y-1.7086
X1.4318 Y-1.6746
X1.4473 Y-1.6388
X1.4599 Y-1.6019
X1.47 Y-1.5642
X1.4781 Y-1.5261
X1.4844 Y-1.4876
X1.4894 Y-1.4489
X1.4933 Y-1.4101
X1.4963 Y-1.3713
X1.4985 Y-1.3323
X1.5002 Y-1.2934
X1.5015 Y-1.2544
X1.5025 Y-1.2154
X1.5032 Y-1.1764
X1.5037 Y-1.1375
X1.5041 Y-1.0985
X1.5043 Y-1.0595
X1.5045 Y-1.0205
X1.5046 Y-0.9815
Y-0.9425
X1.5043 Y-0.9035
X1.5035 Y-0.8645
X1.5017 Y-0.8256
X1.4986 Y-0.7867
X1.4939 Y-0.748
X1.4867 Y-0.7097
X1.477 Y-0.6719
X1.4639 Y-0.6352
X1.4466 Y-0.6002
X1.4332 Y-0.5808
X1.4277 Y-0.575
X1.4206 Y-0.5713
X1.4127 Y-0.57
X1.3009
X1.2921 Y-0.5701
X1.2899 Y-0.5703
X1.2877 Y-0.5707
X1.2855 Y-0.5714
X1.2831 Y-0.5724
X1.281 Y-0.5735
X1.2788 Y-0.575
X1.2766 Y-0.5768
X1.2744 Y-0.5791
X1.2727 Y-0.5812
X1.2713 Y-0.5834
X1.2702 Y-0.5856
X1.2693 Y-0.5879
X1.2687 Y-0.5901
X1.2668 Y-0.5989
X1.2622 Y-0.6166
G3 X1.2616 Y-0.6204 R0.025
G1 X1.2562 Y-0.6949
X1.1815 Y-1.7205 F15.
X1.1778 Y-1.7717 F5.3
G3 X1.1896 Y-1.7948 R0.025
G1 X1.1948 Y-1.7977
X1.2036 Y-1.8029
X1.2046 Y-1.8036
X1.2125 Y-1.81
X1.2155 Y-1.8125
X1.2213 Y-1.8178
X1.2302 Y-1.8267
X1.2332 Y-1.8302
X1.2403 Y-1.8391
X1.2462 Y-1.8479
X1.2479 Y-1.8504
X1.2513 Y-1.8568
X1.2558 Y-1.8656
X1.2631 Y-1.8786
X1.2781 Y-1.8953
X1.2988 Y-1.9101
X1.3269 Y-1.9222
X1.3596 Y-1.9283
X1.3985 Y-1.9271
X1.4363 Y-1.9175
X1.4717 Y-1.9011
X1.5041 Y-1.8795
X1.5333 Y-1.8536
X1.5593 Y-1.8246
X1.5822 Y-1.793
X1.6022 Y-1.7595
X1.6197 Y-1.7247
X1.6347 Y-1.6887
X1.6475 Y-1.6518
X1.6583 Y-1.6144
X1.6675 Y-1.5765
X1.6751 Y-1.5382
X1.6814 Y-1.4998
X1.6865 Y-1.4611
X1.6906 Y-1.4223
X1.6939 Y-1.3835
X1.6965 Y-1.3446
X1.6986 Y-1.3056
X1.7002 Y-1.2667
X1.7014 Y-1.2277
X1.7023 Y-1.1887
X1.703 Y-1.1497
X1.7036 Y-1.1108
X1.704 Y-1.0718
X1.7042 Y-1.0328
X1.7043 Y-0.9938
Y-0.9548
X1.7039 Y-0.9158
X1.7029 Y-0.8768
X1.7012 Y-0.8379
X1.6984 Y-0.799
X1.6944 Y-0.7602
X1.6889 Y-0.7216
X1.6818 Y-0.6833
X1.6726 Y-0.6454
X1.6613 Y-0.6081
X1.6533 Y-0.5863
X1.6496 Y-0.5797
X1.6441 Y-0.5745
X1.6373 Y-0.5711
X1.6298 Y-0.57
X1.4127
G3 X1.3887 Y-0.5923 R0.025
G1 X1.3841 Y-0.6349
X1.2606 Y-1.7878 F15.
X1.2536 Y-1.8526 F5.3
G3 X1.2558 Y-1.8656 R0.025
G1 X1.2567 Y-1.8675
X1.2595 Y-1.8745
X1.2622 Y-1.8834
X1.2668 Y-1.9011
X1.2687 Y-1.9099
X1.2693 Y-1.9121
X1.2702 Y-1.9144
X1.2713 Y-1.9166
X1.2727 Y-1.9188
X1.2744 Y-1.9209
X1.2766 Y-1.9232
X1.2788 Y-1.925
X1.281 Y-1.9265
X1.2833 Y-1.9277
X1.2855 Y-1.9286
X1.2877 Y-1.9293
X1.2899 Y-1.9297
X1.2921 Y-1.9299
X1.3009 Y-1.93
X1.5929
X1.6295 Y-1.9282
X1.6656 Y-1.9183
X1.7001 Y-1.9001
X1.7307 Y-1.8759
X1.7468 Y-1.8586
X1.7481 Y-1.857
X1.7493 Y-1.8554
X1.7504 Y-1.8536
G3 X1.7175 Y-1.8197 R0.025
G1 X1.7024 Y-1.8268
X1.5939 Y-1.8774 F15.
X1.5832 Y-1.8824 F5.3
G3 X1.5929 Y-1.93 R0.025
G1 X1.6991
X1.7079 Y-1.9299
X1.7101 Y-1.9297
X1.7123 Y-1.9293
X1.7145 Y-1.9286
X1.7169 Y-1.9276
X1.719 Y-1.9265
X1.7212 Y-1.925
X1.7234 Y-1.9232
X1.7256 Y-1.9209
X1.7273 Y-1.9188
X1.7287 Y-1.9166
X1.7298 Y-1.9144
X1.7307 Y-1.9121
X1.7313 Y-1.9099
X1.7332 Y-1.9011
X1.7355 Y-1.8922
G3 X1.7099 Y-1.8617 R0.025
G1 X1.6806 Y-1.8631
G3 X1.6775 Y-1.8635 R0.025
X1.6861 Y-1.9127 R0.025 F15.
X1.6945 Y-1.9096 R0.025
X1.6952 Y-1.9092 R0.1583
X1.7501 Y-1.8541 R0.1583 F5.3
G1 X1.7521 Y-1.8504
X1.7538 Y-1.8479
X1.7597 Y-1.8391
X1.761 Y-1.8375
X1.7838 Y-1.8058
X1.8033 Y-1.7721
X1.82 Y-1.7368
X1.8341 Y-1.7005
X1.8462 Y-1.6634
X1.8565 Y-1.6258
X1.8653 Y-1.5878
X1.8727 Y-1.5496
X1.8789 Y-1.5111
X1.8841 Y-1.4724
X1.8883 Y-1.4337
X1.8918 Y-1.3948
X1.8947 Y-1.3559
X1.897 Y-1.317
X1.8988 Y-1.2781
X1.9003 Y-1.2391
X1.9014 Y-1.2001
X1.9023 Y-1.1612
X1.903 Y-1.1222
X1.9035 Y-1.0832
X1.9038 Y-1.0442
X1.9039 Y-1.0052
X1.9038 Y-0.9662
X1.9033 Y-0.9272
X1.9024 Y-0.8883
X1.9007 Y-0.8493
X1.8982 Y-0.8104
X1.8947 Y-0.7716
X1.8917 Y-0.746
X1.8899 Y-0.7392
X1.8863 Y-0.7332
X1.8812 Y-0.7284
X1.875 Y-0.7252
X1.8681 Y-0.7239
X1.8671
X1.8622 Y-0.7229
X1.8495 Y-0.7202
X1.8406 Y-0.7181
X1.8318 Y-0.7153
X1.8286 Y-0.7141
X1.8229 Y-0.7118
X1.8141 Y-0.7073
X1.8052 Y-0.7023
X1.7964 Y-0.6971
X1.7954 Y-0.6964
X1.7875 Y-0.69
X1.7845 Y-0.6875
X1.7787 Y-0.6822
X1.7698 Y-0.6733
X1.7668 Y-0.6698
X1.7597 Y-0.6609
X1.7538 Y-0.6521
X1.7521 Y-0.6496
X1.7487 Y-0.6432
X1.7433 Y-0.6325
X1.7405 Y-0.6255
X1.7378 Y-0.6166
X1.7332 Y-0.5989
X1.7313 Y-0.5901
X1.7307 Y-0.5879
X1.7298 Y-0.5856
X1.7287 Y-0.5834
X1.7273 Y-0.5812
X1.7256 Y-0.5791
X1.7234 Y-0.5768
X1.7212 Y-0.575
X1.719 Y-0.5735
X1.7167 Y-0.5723
X1.7145 Y-0.5714
X1.7123 Y-0.5707
X1.7101 Y-0.5703
X1.7079 Y-0.5701
X1.6991 Y-0.57
X1.6298
G3 X1.6058 Y-0.5972 R0.025
G1 X1.6092 Y-0.635
X1.7153 Y-1.8035 F15.
X1.7171 Y-1.8234 F5.3
G3 X1.761 Y-1.8375 R0.025
G1 X1.7668 Y-1.8302
X1.7698 Y-1.8267
X1.7787 Y-1.8178
X1.7845 Y-1.8125
X1.7875 Y-1.81
X1.7954 Y-1.8036
X1.7964 Y-1.8029
X1.8052 Y-1.7977
X1.8141 Y-1.7927
X1.8229 Y-1.7882
X1.8286 Y-1.7859
X1.8318 Y-1.7847
X1.8406 Y-1.7819
X1.8495 Y-1.7798
X1.8622 Y-1.7771
X1.8671 Y-1.7761
X1.876 Y-1.7757
X1.9001 Y-1.7737
X1.9296 Y-1.7645
X1.9616 Y-1.7463
X1.9905 Y-1.7201
X2.014 Y-1.6891
X2.0329 Y-1.6549
X2.0478 Y-1.6189
X2.0595 Y-1.5817
X2.0688 Y-1.5438
X2.0762 Y-1.5056
X2.0821 Y-1.467
X2.0868 Y-1.4283
X2.0906 Y-1.3895
X2.0937 Y-1.3506
X2.0961 Y-1.3117
X2.0981 Y-1.2728
X2.0996 Y-1.2338
X2.1009 Y-1.1948
X2.1018 Y-1.1559
X2.1026 Y-1.1169
X2.1031 Y-1.0779
X2.1034 Y-1.0389
Y-0.9999
X2.1031 Y-0.9609
X2.1025 Y-0.9219
X2.1012 Y-0.883
X2.0994 Y-0.844
X2.0968 Y-0.8051
X2.0929 Y-0.7663
X2.0891 Y-0.7454
X2.0869 Y-0.7389
X2.083 Y-0.7332
X2.0776 Y-0.7287
X2.0713 Y-0.726
X2.0645 Y-0.725
X1.9025
X1.8937 Y-0.7249
X1.876 Y-0.7243
X1.8681 Y-0.7239
G3 X1.8427 Y-0.7491 R0.025
G1 X1.8431 Y-0.7878
X1.8507 Y-1.7114 F15.
X1.851 Y-1.7509 F5.3
G3 X1.876 Y-1.7757 R0.025
G1 X1.8937 Y-1.7751
X1.9025 Y-1.775
X2.0529
X2.0834 Y-1.7735
X2.115 Y-1.7648
X2.1492 Y-1.7468
X2.1789 Y-1.7216
X2.2037 Y-1.6915
X2.224 Y-1.6582
X2.2402 Y-1.6228
X2.2533 Y-1.586
X2.2637 Y-1.5484
X2.272 Y-1.5104
X2.2787 Y-1.4719
X2.284 Y-1.4333
X2.2883 Y-1.3946
X2.2918 Y-1.3557
X2.2945 Y-1.3168
X2.2968 Y-1.2779
X2.2985 Y-1.239
X2.3 Y-1.2
X2.3011 Y-1.161
X2.3019 Y-1.122
X2.3025 Y-1.083
X2.3028 Y-1.0441
Y-1.0051
X2.3025 Y-0.9661
X2.3018 Y-0.9271
X2.3006 Y-0.8881
X2.2988 Y-0.8492
X2.2962 Y-0.8103
X2.2921 Y-0.7715
X2.2872 Y-0.7446
X2.2849 Y-0.7377
X2.2807 Y-0.7318
X2.275 Y-0.7274
X2.2683 Y-0.7247
X2.261 Y-0.7241
X2.2476 Y-0.725
X2.0645
G3 X2.0404 Y-0.7497 R0.025
G1 X2.0399 Y-0.7901
X2.0293 Y-1.7099 F15.
X2.0288 Y-1.7497 F5.3
G3 X2.0529 Y-1.775 R0.025
G1 X2.2476
X2.27
X2.3014 Y-1.7681
X2.3358 Y-1.7521
X2.3668 Y-1.7284
X2.3929 Y-1.6994
X2.4145 Y-1.667
X2.4321 Y-1.6322
X2.4463 Y-1.5958
X2.4577 Y-1.5586
X2.467 Y-1.5207
X2.4745 Y-1.4824
X2.4805 Y-1.4439
X2.4853 Y-1.4052
X2.4893 Y-1.3664
X2.4925 Y-1.3276
X2.495 Y-1.2887
X2.4971 Y-1.2497
X2.4987 Y-1.2108
X2.5 Y-1.1718
X2.501 Y-1.1328
X2.5017 Y-1.0938
X2.5021 Y-1.0548
X2.5022 Y-1.0159
X2.5019 Y-0.9769
X2.5013 Y-0.9379
X2.5002 Y-0.8989
X2.4985 Y-0.86
X2.496 Y-0.821
X2.4921 Y-0.7822
X2.486 Y-0.7437
X2.4759 Y-0.7061
X2.4683 Y-0.6878
X2.4645 Y-0.6815
X2.4591 Y-0.6766
X2.4524 Y-0.6735
X2.4451 Y-0.6725
X2.4378 Y-0.6736
X2.3006 Y-0.7161
X2.2737 Y-0.7229
X2.2716 Y-0.7234
X2.2695 Y-0.7236
X2.261 Y-0.7241
G3 X2.2385 Y-0.7487 R0.025
G1 X2.2379 Y-0.7907
X2.2256 Y-1.7084 F15.
X2.225 Y-1.7498 F5.3
G3 X2.2476 Y-1.775 R0.025
G1 X2.2695 Y-1.7764
X2.2716 Y-1.7766
X2.2741 Y-1.7771
X2.3006 Y-1.7839
X2.3891 Y-1.8113
X2.4102 Y-1.8167
X2.4161 Y-1.8181
X2.422 Y-1.8192
X2.4279 Y-1.82
X2.4339 Y-1.8205
X2.4399 Y-1.8208
X2.4459
X2.4519 Y-1.8205
X2.4579 Y-1.82
X2.4638 Y-1.8193
X2.4697 Y-1.8183
X2.4756 Y-1.8171
X2.4814 Y-1.8156
X2.4872 Y-1.814
X2.4929 Y-1.8121
X2.4986 Y-1.8101
X2.5041 Y-1.8079
X2.5096 Y-1.8055
X2.515 Y-1.8029
X2.5204 Y-1.8001
X2.5256 Y-1.7972
X2.5308 Y-1.7941
X2.5358 Y-1.7909
X2.5408 Y-1.7875
X2.5457 Y-1.784
X2.5504 Y-1.7804
X2.5551 Y-1.7766
X2.5597 Y-1.7727
X2.5642 Y-1.7688
X2.5685 Y-1.7647
X2.5728 Y-1.7605
X2.577 Y-1.7562
X2.5811 Y-1.7518
X2.5852 Y-1.7473
X2.5892 Y-1.7425
X2.5934 Y-1.7374
X2.5976 Y-1.732
X2.6019 Y-1.7262
X2.6063 Y-1.7201
X2.6107 Y-1.7135
X2.6148 Y-1.7071
X2.6189 Y-1.7005
X2.623 Y-1.6935
X2.6273 Y-1.6859
X2.6316 Y-1.6776
X2.6361 Y-1.6686
X2.6406 Y-1.6592
X2.6446 Y-1.6501
X2.6467 Y-1.6451
X2.651 Y-1.6345
X2.6555 Y-1.6228
X2.66 Y-1.61
X2.6641 Y-1.5977
X2.6684 Y-1.5836
X2.6731 Y-1.5672
X2.6772 Y-1.5512
X2.6816 Y-1.5327
X2.6861 Y-1.5117
X2.6904 Y-1.4891
X2.6948 Y-1.4626
X2.6993 Y-1.4315
X2.7035 Y-1.3968
X2.7074 Y-1.358
X2.7105 Y-1.3191
X2.713 Y-1.2802
X2.715 Y-1.2412
X2.7166 Y-1.2023
X2.7179 Y-1.1633
X2.7188 Y-1.1243
X2.7194 Y-1.0853
X2.7197 Y-1.0464
Y-1.0074
X2.7194 Y-0.9684
X2.7186 Y-0.9294
X2.7174 Y-0.8904
X2.7156 Y-0.8531
X2.7136 Y-0.8239
X2.7109 Y-0.7946
X2.709 Y-0.7773
X2.7068 Y-0.7611
X2.7038 Y-0.742
X2.7008 Y-0.7254
X2.6984 Y-0.7139
X2.6956 Y-0.7016
X2.6925 Y-0.6892
X2.6898 Y-0.6793
X2.6872 Y-0.6704
X2.6843 Y-0.6615
X2.6815 Y-0.6534
X2.6787 Y-0.646
X2.676 Y-0.6391
X2.6733 Y-0.6326
X2.6705 Y-0.6264
X2.6694 Y-0.6242
X2.6655 Y-0.6183
X2.6601 Y-0.6137
X2.6535 Y-0.6109
X2.6465 Y-0.61
X2.6395 Y-0.6111
X2.4378 Y-0.6736
G3 X2.4211 Y-0.6961 R0.025
G1 X2.4189 Y-0.7448
X2.3744 Y-1.7401 F15.
X2.3724 Y-1.7866 F5.3
G3 X2.3891 Y-1.8113 R0.025
G1 X2.5749 Y-1.8689
X2.598 Y-1.8748
X2.6039 Y-1.8762
X2.6098 Y-1.8773
X2.6157 Y-1.8781
X2.6217 Y-1.8787
X2.6277 Y-1.879
X2.6337
X2.6397 Y-1.8788
X2.6457 Y-1.8784
X2.6516 Y-1.8778
X2.6576 Y-1.8769
X2.6635 Y-1.8758
X2.6693 Y-1.8745
X2.6751 Y-1.873
X2.6809 Y-1.8713
X2.6866 Y-1.8694
X2.6922 Y-1.8673
X2.6978 Y-1.8651
X2.7033 Y-1.8627
X2.7087 Y-1.8601
X2.714 Y-1.8573
X2.7193 Y-1.8544
X2.7244 Y-1.8514
X2.7295 Y-1.8482
X2.7345 Y-1.8449
X2.7394 Y-1.8415
X2.7443 Y-1.8379
X2.749 Y-1.8342
X2.7537 Y-1.8304
X2.7582 Y-1.8265
X2.7627 Y-1.8225
X2.7672 Y-1.8184
X2.7717 Y-1.814
X2.7762 Y-1.8093
X2.7809 Y-1.8044
X2.7854 Y-1.7993
X2.7886 Y-1.7956
G3 X2.7608 Y-1.7564 R0.025
G1 X2.7476 Y-1.7611
X2.5907 Y-1.8161 F15.
X2.5748 Y-1.8217 F5.3
G3 X2.5749 Y-1.8689 R0.025
G1 X2.7695 Y-1.9292
X2.7961 Y-1.9376
X2.8049 Y-1.941
X2.8138 Y-1.945
X2.8226 Y-1.9495
X2.8315 Y-1.9553
X2.8403 Y-1.9618
X2.8418 Y-1.9631
X2.8491 Y-1.9693
X2.8518 Y-1.9719
X2.858 Y-1.9785
X2.8599 Y-1.9808
X2.8668 Y-1.9894
G3 X2.9051 Y-1.9572 R0.025
X2.9047 Y-1.9567 R0.025
G1 X2.9021 Y-1.9537 Z-0.2097
X2.8996 Y-1.9509 Z-0.2087
X2.8973 Y-1.9481 Z-0.2072
X2.8951 Y-1.9456 Z-0.2052
X2.8931 Y-1.9433 Z-0.2026
X2.8915 Y-1.9414 Z-0.1997
X2.8901 Y-1.9398 Z-0.1963
X2.8892 Y-1.9387 Z-0.1927
X2.8886 Y-1.938 Z-0.1889
X2.8884 Y-1.9378 Z-0.185
G0 Z0.2
X2.9367 Y-0.3276
Z-0.16
G1 Z-0.185 F5.3
X2.9365 Y-0.3279 Z-0.1889
X2.936 Y-0.3286 Z-0.1927
X2.9351 Y-0.3299 Z-0.1963
X2.9339 Y-0.3316 Z-0.1997
X2.9325 Y-0.3336 Z-0.2026
X2.9308 Y-0.3361 Z-0.2052
X2.9289 Y-0.3388 Z-0.2072
X2.9268 Y-0.3418 Z-0.2087
X2.9246 Y-0.345 Z-0.2097
X2.9224 Y-0.3482 Z-0.21
G3 X2.895 Y-0.4218 R0.1583
G1 X2.8944 Y-0.4306
X2.8929 Y-0.4483
X2.8912 Y-0.4572
X2.8889 Y-0.4661
X2.8861 Y-0.4749
X2.8824 Y-0.4838
X2.878 Y-0.4926
X2.8757 Y-0.497
X2.8732 Y-0.5015
X2.8668 Y-0.5106
X2.8599 Y-0.5192
X2.858 Y-0.5215
X2.8518 Y-0.5281
X2.8491 Y-0.5307
X2.8418 Y-0.5369
X2.8403 Y-0.5382
X2.8315 Y-0.5447
X2.8226 Y-0.5505
X2.8138 Y-0.555
X2.8049 Y-0.559
X2.7961 Y-0.5624
X2.7644 Y-0.5724
X2.6395 Y-0.6111
G3 X2.6323 Y-0.6544 R0.025
G1 X2.6349 Y-0.6558 Z-0.2098
X2.6375 Y-0.6571 Z-0.2092
X2.64 Y-0.6585 Z-0.2083
X2.6428 Y-0.6589 Z-0.2071
X2.6453 Y-0.6593 Z-0.2055
X2.6477 Y-0.6597 Z-0.2036
X2.6503 Y-0.6593 Z-0.2009
X2.6525 Y-0.6589 Z-0.1978
X2.6541 Y-0.6587 Z-0.1944
X2.6553 Y-0.6585 Z-0.1908
X2.6558 Y-0.6583 Z-0.1879
X2.6559 Z-0.185
G0 Z0.2
X0.0031 Y-2.2026
Z0.
G1 Z-0.025 F5.3
X0.0034 Y-2.2027 Z-0.0289
X0.0043 Y-2.2029 Z-0.0327
X0.0057 Y-2.2033 Z-0.0363
X0.0077 Y-2.2038 Z-0.0397
X0.0102 Y-2.2044 Z-0.0426
X0.0131 Y-2.2051 Z-0.0452
X0.0163 Y-2.206 Z-0.0472
X0.0198 Y-2.2069 Z-0.0487
X0.0235 Y-2.2078 Z-0.0497
X0.0273 Y-2.2088 Z-0.05
G3 X0.105 Y-2.22 R0.3646
G1 X0.1063
X0.1235 Y-2.2255
X0.1292 Y-2.2272
X0.1351 Y-2.2284
X0.141 Y-2.2292
X0.147 Y-2.2296
X0.153 Y-2.2295
X0.159 Y-2.2291
X0.165 Y-2.2284
X0.1709 Y-2.2273
X0.1767 Y-2.2258
X0.1824 Y-2.2241
X0.1881 Y-2.2221
X0.1936 Y-2.2198
X0.1991 Y-2.2173
X0.2044 Y-2.2145
X0.2096 Y-2.2115
X0.2146 Y-2.2083
X0.2196 Y-2.2048
X0.2244 Y-2.2012
X0.229 Y-2.1974
X0.2335 Y-2.1935
X0.2389 Y-2.1885
X0.2668 Y-2.1613
X0.3011 Y-2.1428
X0.3372 Y-2.128
X0.3739 Y-2.1149
X0.4109 Y-2.1025
X0.448 Y-2.0906
X0.4852 Y-2.0788
X0.5224 Y-2.0671
X0.5969 Y-2.0439
X0.7086 Y-2.0093
X0.7466 Y-2.0006
X0.7854 Y-1.9968
X0.8243 Y-1.995
X0.8633 Y-1.9941
X0.9023 Y-1.9936
X0.9413 Y-1.9933
X0.9803 Y-1.9932
X1.029 Y-1.9931
X1.0388
X1.0412 Y-1.9932
X1.0436 Y-1.9933
X1.0449 Y-1.9934
X1.046 Y-1.994
X1.0746 Y-2.0204
X1.0819 Y-2.0286
X1.0884 Y-2.0357
X1.0945 Y-2.0421
X1.1003 Y-2.0479
X1.106 Y-2.0533
X1.1115 Y-2.0584
X1.117 Y-2.0631
X1.1224 Y-2.0677
X1.1277 Y-2.0719
X1.1331 Y-2.076
X1.1383 Y-2.0798
X1.1436 Y-2.0835
X1.1489 Y-2.087
X1.1541 Y-2.0903
X1.1593 Y-2.0934
X1.1646 Y-2.0965
X1.1699 Y-2.0993
X1.1752 Y-2.1021
X1.1806 Y-2.1047
X1.1862 Y-2.1072
X1.192 Y-2.1097
X1.198 Y-2.1122
X1.2044 Y-2.1146
X1.2112 Y-2.117
X1.2184 Y-2.1194
X1.2261 Y-2.1218
X1.2342 Y-2.1241
X1.2431 Y-2.1264
X1.2526 Y-2.1286
X1.263 Y-2.1308
X1.2745 Y-2.133
X1.2873 Y-2.1351
X1.3018 Y-2.1372
X1.3187 Y-2.1393
X1.339 Y-2.1413
X1.3646 Y-2.1433
X1.3997 Y-2.1452
X1.4387 Y-2.1465
X1.4777 Y-2.1472
X1.5167 Y-2.1476
X1.5557 Y-2.1478
X1.5946 Y-2.1479
X1.6336
X1.651
X1.663 Y-2.1476
X1.6731 Y-2.1471
X1.6824 Y-2.1464
X1.6908 Y-2.1457
X1.6988 Y-2.1447
X1.7064 Y-2.1437
X1.7137 Y-2.1425
X1.7207 Y-2.1413
X1.7274 Y-2.1399
X1.734 Y-2.1384
X1.7405 Y-2.1367
X1.7467 Y-2.135
X1.7527 Y-2.1332
X1.7588 Y-2.1313
X1.7646 Y-2.1292
X1.7703 Y-2.1271
X1.7759 Y-2.1249
X1.7815 Y-2.1225
X1.7869 Y-2.1201
X1.7924 Y-2.1175
X1.7977 Y-2.1148
X1.803 Y-2.112
X1.8082 Y-2.109
X1.8134 Y-2.1059
X1.8185 Y-2.1028
X1.8235 Y-2.0995
X1.8284 Y-2.096
X1.8333 Y-2.0925
X1.838 Y-2.0888
X1.8427 Y-2.0851
X1.8473 Y-2.0812
X1.8517 Y-2.0772
X1.8561 Y-2.0731
X1.8604 Y-2.0689
X1.8646 Y-2.0646
X1.8686 Y-2.0601
X1.8726 Y-2.0556
X1.8764 Y-2.051
X1.8803 Y-2.0461
X1.884 Y-2.0412
X1.8954 Y-2.0254
X1.897 Y-2.0235
X1.9133 Y-2.0129
X1.9507 Y-2.0018
X1.9895 Y-1.9974
X2.0284 Y-1.9953
X2.0674 Y-1.9942
X2.1064 Y-1.9936
X2.1454 Y-1.9933
X2.1843 Y-1.9932
X2.2232 Y-1.9961
X2.2614 Y-2.004
X2.2992 Y-2.0138
X2.3367 Y-2.0244
X2.3741 Y-2.0355
X2.4114 Y-2.0468
X2.4487 Y-2.0582
X2.5232 Y-2.0812
X2.6489 Y-2.1201
X2.6535 Y-2.1215
X2.6558 Y-2.1223
X2.6581 Y-2.1232
X2.6591 Y-2.124
X2.6604 Y-2.126
X2.6693 Y-2.164
X2.6731 Y-2.2028
X2.675 Y-2.2417
X2.6755 Y-2.2661
X2.6756 Y-2.2746
Y-2.2758
X2.6752 Y-2.277
X2.6745 Y-2.278
X2.6735 Y-2.2787
X2.6688 Y-2.2801
X2.6299 Y-2.2787
X2.5909 Y-2.2779
X2.5519 Y-2.2775
X2.5129 Y-2.2773
X2.4739 Y-2.2771
X2.3959 Y-2.277
X2.084
X1.5723
X0.3343
X0.3246 Y-2.2769
G3 X0.3002 Y-2.3026 R0.025
X0.3258 Y-2.3269 R0.025
G1 X0.3297 Y-2.3268 Z-0.0497
X0.3335 Y-2.3267 Z-0.0487
X0.3372 Y-2.3266 Z-0.0472
X0.3405 Y-2.3265 Z-0.0452
X0.3435 Z-0.0426
X0.346 Y-2.3264 Z-0.0397
X0.3481 Z-0.0363
X0.3496 Y-2.3263 Z-0.0327
X0.3505 Z-0.0289
X0.3508 Z-0.025
G0 Z0.2
X1.0464 Y-1.8911
Z0.
G1 Z-0.025 F5.3
X1.0463 Y-1.8914 Z-0.0289
X1.0461 Y-1.8923 Z-0.0327
X1.0457 Y-1.8938 Z-0.0363
X1.0452 Y-1.8957 Z-0.0397
X1.0446 Y-1.8982 Z-0.0426
X1.0438 Y-1.9011 Z-0.0452
X1.043 Y-1.9043 Z-0.0472
X1.0421 Y-1.9079 Z-0.0487
X1.0412 Y-1.9116 Z-0.0497
X1.0402 Y-1.9153 Z-0.05
G3 X1.029 Y-1.9931 R0.3646
G1 Y-1.9992
X1.0287 Y-2.0003
X1.0173 Y-2.0162
X1.0128 Y-2.0202
X1.0086 Y-2.0245
X1.0047 Y-2.029
X1.004 Y-2.03
X0.996 Y-2.0356
X0.9595 Y-2.0493
X0.9208 Y-2.0542
X0.8819 Y-2.0565
X0.8429 Y-2.0577
X0.8039 Y-2.0583
X0.765 Y-2.0586
X0.7503 Y-2.0587
G3 X0.7516 Y-2.1087 R0.025
X0.7523 R0.025
G1 X0.7562 Y-2.1085 Z-0.0497
X0.76 Y-2.1084 Z-0.0487
X0.7636 Y-2.1082 Z-0.0472
X0.767 Y-2.1081 Z-0.0452
X0.7699 Y-2.108 Z-0.0426
X0.7725 Y-2.1079 Z-0.0397
X0.7745 Y-2.1078 Z-0.0363
X0.776 Y-2.1077 Z-0.0327
X0.7769 Z-0.0289
X0.7773 Z-0.025
G0 Z0.2
X2.3395 Y-2.379
Z0.
G1 Z-0.025 F5.3
X2.3396 Y-2.3787 Z-0.0289
X2.3398 Y-2.3778 Z-0.0327
X2.3402 Y-2.3763 Z-0.0363
X2.3407 Y-2.3743 Z-0.0397
X2.3413 Y-2.3719 Z-0.0426
X2.3421 Y-2.369 Z-0.0452
X2.3429 Y-2.3657 Z-0.0472
X2.3438 Y-2.3622 Z-0.0487
X2.3448 Y-2.3585 Z-0.0497
X2.3457 Y-2.3548 Z-0.05
G3 X2.357 Y-2.277 R0.3646
G1 Y-2.2734
X2.3617 Y-2.2586
X2.3634 Y-2.2528
X2.3647 Y-2.247
X2.3654 Y-2.241
X2.3658 Y-2.235
Y-2.229
X2.3654 Y-2.223
X2.3646 Y-2.2171
X2.3635 Y-2.2112
X2.3621 Y-2.2054
X2.3604 Y-2.1996
X2.3584 Y-2.194
X2.3561 Y-2.1884
X2.3535 Y-2.183
X2.3508 Y-2.1776
X2.3478 Y-2.1725
X2.3445 Y-2.1674
X2.3411 Y-2.1625
X2.3375 Y-2.1577
X2.3337 Y-2.153
X2.3297 Y-2.1485
X2.3256 Y-2.1442
X2.3213 Y-2.14
X2.3169 Y-2.1359
X2.3123 Y-2.132
X2.3077 Y-2.1283
X2.3029 Y-2.1246
X2.298 Y-2.1212
X2.293 Y-2.1178
X2.2879 Y-2.1146
X2.2828 Y-2.1116
X2.2775 Y-2.1086
X2.2722 Y-2.1058
X2.2668 Y-2.1032
X2.2614 Y-2.1006
X2.2557 Y-2.0981
X2.2498 Y-2.0957
X2.2435 Y-2.0932
X2.2368 Y-2.0908
X2.2298 Y-2.0884
X2.2223 Y-2.086
X2.2143 Y-2.0837
X2.2057 Y-2.0814
X2.1965 Y-2.0792
X2.1864 Y-2.0769
X2.1753 Y-2.0747
X2.163 Y-2.0726
X2.1491 Y-2.0705
X2.1331 Y-2.0684
X2.1141 Y-2.0664
X2.0907 Y-2.0644
X2.0596 Y-2.0625
X2.0449 Y-2.0619
X2.0401 Y-2.0617
G3 Y-2.1117 R0.025
G1 X2.044 Z-0.0497
X2.0478 Z-0.0487
X2.0515 Z-0.0472
X2.0548 Z-0.0452
X2.0578 Z-0.0426
X2.0603 Z-0.0397
X2.0624 Z-0.0363
X2.0639 Z-0.0327
X2.0648 Z-0.0289
X2.0651 Z-0.025
G0 Z0.2
X0.0869 Y0.0361
Z0.
G1 Z-0.025 F5.3
X0.0871 Y0.0358 Z-0.0289
X0.0875 Y0.0351 Z-0.0327
X0.0883 Y0.0338 Z-0.0363
X0.0894 Y0.032 Z-0.0397
X0.0908 Y0.0299 Z-0.0426
X0.0923 Y0.0273 Z-0.0452
X0.0941 Y0.0245 Z-0.0472
X0.096 Y0.0214 Z-0.0487
X0.098 Y0.0182 Z-0.0497
X0.1001 Y0.0148 Z-0.05
G3 X0.1483 Y-0.0471 R0.3646
G1 X0.1492 Y-0.0479
X0.1677 Y-0.0823
X0.1697 Y-0.0879
X0.172 Y-0.0935
X0.1745 Y-0.0989
X0.1773 Y-0.1042
X0.1803 Y-0.1094
X0.1835 Y-0.1145
X0.1869 Y-0.1194
X0.1905 Y-0.1242
X0.1943 Y-0.1289
X0.1983 Y-0.1334
X0.2024 Y-0.1377
X0.2067 Y-0.1419
X0.2111 Y-0.146
X0.2157 Y-0.1499
X0.2203 Y-0.1537
X0.2251 Y-0.1573
X0.23 Y-0.1608
X0.235 Y-0.1641
X0.2401 Y-0.1673
X0.2452 Y-0.1704
X0.2505 Y-0.1733
X0.2558 Y-0.1761
X0.2612 Y-0.1788
X0.2666 Y-0.1813
X0.2722 Y-0.1838
X0.2782 Y-0.1863
X0.2845 Y-0.1887
X0.2911 Y-0.1912
X0.2981 Y-0.1936
X0.3056 Y-0.1959
X0.3136 Y-0.1982
X0.3222 Y-0.2005
X0.3314 Y-0.2028
X0.3415 Y-0.205
X0.3526 Y-0.2072
X0.3648 Y-0.2094
X0.3787 Y-0.2115
X0.3947 Y-0.2135
X0.4136 Y-0.2156
X0.4369 Y-0.2176
X0.4678 Y-0.2195
X0.5068 Y-0.2211
X0.5457 Y-0.222
X0.5847 Y-0.2225
X0.6237 Y-0.2227
X0.6627 Y-0.2228
X0.7407 Y-0.223
X1.0136
X2.0664
X2.6659
X2.6732
X2.6744 Y-0.2231
X2.6755 Y-0.2235
X2.6765 Y-0.2242
X2.6772 Y-0.2252
X2.6801 Y-0.2345
X2.6787 Y-0.2735
X2.6779 Y-0.3125
X2.6776 Y-0.3417
X2.6775 Y-0.3478
X2.6774 Y-0.349
X2.677 Y-0.3502
X2.6755 Y-0.3521
X2.6426 Y-0.373
X2.6068 Y-0.3885
X2.5703 Y-0.402
X2.5333 Y-0.4145
X2.4963 Y-0.4266
X2.4591 Y-0.4384
X2.4219 Y-0.4501
X2.3475 Y-0.4733
X2.3102 Y-0.4849
X2.2729 Y-0.4962
X2.2343 Y-0.5017
X2.1954 Y-0.5043
X2.1564 Y-0.5056
X2.1174 Y-0.5062
X2.0785 Y-0.5066
X2.0395 Y-0.5068
X1.981 Y-0.5069
X1.9664
X1.9566 Y-0.5068
X1.9554 Y-0.5067
X1.9543 Y-0.5062
X1.9253 Y-0.4801
X1.9218 Y-0.476
X1.9152 Y-0.4686
X1.9089 Y-0.4619
X1.903 Y-0.4558
X1.8973 Y-0.4502
X1.8917 Y-0.4449
X1.8863 Y-0.4401
X1.8809 Y-0.4354
X1.8756 Y-0.431
X1.8703 Y-0.4268
X1.865 Y-0.4228
X1.8598 Y-0.4191
X1.8546 Y-0.4155
X1.8493 Y-0.412
X1.8441 Y-0.4088
X1.8389 Y-0.4057
X1.8336 Y-0.4027
X1.8283 Y-0.3999
X1.823 Y-0.3972
X1.8176 Y-0.3946
X1.8119 Y-0.3921
X1.8061 Y-0.3896
X1.7999 Y-0.3871
X1.7934 Y-0.3847
X1.7865 Y-0.3823
X1.7792 Y-0.3799
X1.7714 Y-0.3776
X1.7631 Y-0.3753
X1.7541 Y-0.373
X1.7443 Y-0.3708
X1.7336 Y-0.3686
X1.7218 Y-0.3664
X1.7086 Y-0.3643
X1.6934 Y-0.3622
X1.6757 Y-0.3601
X1.6542 Y-0.3581
X1.6265 Y-0.3562
X1.5876 Y-0.3543
X1.5486 Y-0.3532
X1.5096 Y-0.3527
X1.4707 Y-0.3524
X1.4317 Y-0.3522
X1.3927 Y-0.3521
X1.3537
X1.3407 Y-0.3523
X1.33 Y-0.3527
X1.3205 Y-0.3533
X1.3119 Y-0.3541
X1.3037 Y-0.3549
X1.296 Y-0.3559
X1.2887 Y-0.3571
X1.2815 Y-0.3583
X1.2747 Y-0.3597
X1.2681 Y-0.3611
X1.2616 Y-0.3627
X1.2553 Y-0.3644
X1.2492 Y-0.3662
X1.2431 Y-0.3681
X1.2372 Y-0.3701
X1.2315 Y-0.3722
X1.2259 Y-0.3744
X1.2203 Y-0.3767
X1.2148 Y-0.3791
X1.2094 Y-0.3817
X1.204 Y-0.3843
X1.1987 Y-0.3871
X1.1934 Y-0.39
X1.1882 Y-0.3931
X1.1831 Y-0.3962
X1.1781 Y-0.3995
X1.1732 Y-0.4029
X1.1683 Y-0.4064
X1.1635 Y-0.41
X1.1588 Y-0.4137
X1.1542 Y-0.4176
X1.1497 Y-0.4215
X1.1453 Y-0.4256
X1.141 Y-0.4298
X1.1368 Y-0.434
X1.1327 Y-0.4384
X1.1287 Y-0.4429
X1.1248 Y-0.4475
X1.121 Y-0.4523
X1.1171 Y-0.4574
X1.1131 Y-0.4628
X1.1075 Y-0.4708
X1.1046 Y-0.4747
X1.1031 Y-0.4766
X1.0867 Y-0.4871
X1.0493 Y-0.4982
X1.0105 Y-0.5026
X0.9716 Y-0.5047
X0.9326 Y-0.5058
X0.8937 Y-0.5064
X0.8547 Y-0.5067
X0.8157 Y-0.5068
X0.7768 Y-0.5039
X0.7386 Y-0.496
X0.7009 Y-0.4862
X0.6634 Y-0.4756
X0.612 Y-0.4603
X0.5747 Y-0.449
X0.5374 Y-0.4375
X0.4629 Y-0.4145
X0.3465 Y-0.3785
X0.3442 Y-0.3777
X0.3419 Y-0.3768
X0.341 Y-0.3761
X0.3396 Y-0.374
X0.3385 Y-0.3693
X0.3375 Y-0.3645
G3 X0.289 Y-0.3767 R0.025
G1 X0.29 Y-0.3805 Z-0.0497
X0.2909 Y-0.3842 Z-0.0487
X0.2918 Y-0.3877 Z-0.0472
X0.2926 Y-0.391 Z-0.0452
X0.2933 Y-0.3939 Z-0.0426
X0.294 Y-0.3964 Z-0.0397
X0.2945 Y-0.3983 Z-0.0363
X0.2948 Y-0.3998 Z-0.0327
X0.2951 Y-0.4007 Z-0.0289
Y-0.401 Z-0.025
G0 Z0.2
X2.3985 Y-0.5642
Z0.
G1 Z-0.025 F5.3
Y-0.5639 Z-0.0289
X2.3984 Y-0.563 Z-0.0327
X2.3983 Y-0.5615 Z-0.0363
X2.3982 Y-0.5595 Z-0.0397
X2.3981 Y-0.5569 Z-0.0426
X2.3979 Y-0.5539 Z-0.0452
X2.3978 Y-0.5506 Z-0.0472
X2.3976 Y-0.547 Z-0.0487
X2.3974 Y-0.5432 Z-0.0497
X2.3972 Y-0.5393 Z-0.05
G3 X2.3847 Y-0.4617 R0.3646
G1 X2.384 Y-0.4594
X2.3841 Y-0.4425
X2.384 Y-0.4365
X2.3834 Y-0.4305
X2.3824 Y-0.4246
X2.381 Y-0.4188
X2.3792 Y-0.4131
X2.377 Y-0.4075
X2.3745 Y-0.402
X2.3717 Y-0.3967
X2.3686 Y-0.3916
X2.3653 Y-0.3866
X2.3617 Y-0.3818
X2.3579 Y-0.3771
X2.354 Y-0.3726
X2.3498 Y-0.3682
X2.3455 Y-0.364
X2.3411 Y-0.36
X2.3365 Y-0.3562
X2.3318 Y-0.3525
X2.3269 Y-0.3489
X2.322 Y-0.3455
X2.3169 Y-0.3423
X2.3118 Y-0.3392
X2.3066 Y-0.3362
X2.3013 Y-0.3334
X2.2959 Y-0.3308
X2.2905 Y-0.3282
X2.285 Y-0.3258
X2.2793 Y-0.3235
X2.2734 Y-0.3212
X2.2672 Y-0.3189
X2.2606 Y-0.3167
X2.2534 Y-0.3145
X2.2457 Y-0.3123
X2.2375 Y-0.3101
X2.2286 Y-0.308
X2.2191 Y-0.3059
X2.2085 Y-0.3038
X2.1965 Y-0.3018
X2.1831 Y-0.2998
X2.1677 Y-0.2978
X2.1491 Y-0.2959
X2.1262 Y-0.294
X2.0951 Y-0.2921
X2.0854 Y-0.2917
X2.0808 Y-0.2902
G3 X2.0761 Y-0.2898 R0.0111
G1 X2.003 Y-0.3001
X1.1553 Y-0.4191 F15.
X1.1354 Y-0.4218 F5.3
G3 X1.1384 Y-0.4438 R0.0111
X1.1453 Y-0.4256 R0.0111
G1 X1.1445 Y-0.4247
X1.1376 Y-0.41
X1.135 Y-0.4046
X1.1321 Y-0.3994
X1.129 Y-0.3943
X1.1256 Y-0.3893
X1.122 Y-0.3845
X1.1182 Y-0.3798
X1.1143 Y-0.3753
X1.1101 Y-0.3709
X1.1059 Y-0.3667
X1.1014 Y-0.3627
X1.0969 Y-0.3588
X1.0922 Y-0.3551
X1.0874 Y-0.3515
X1.0825 Y-0.348
X1.0774 Y-0.3447
X1.0723 Y-0.3416
X1.0671 Y-0.3386
X1.0619 Y-0.3357
X1.0565 Y-0.333
X1.0511 Y-0.3304
X1.0457 Y-0.3279
X1.04 Y-0.3255
X1.0341 Y-0.3231
X1.0278 Y-0.3208
X1.0211 Y-0.3184
X1.0141 Y-0.3161
X1.0066 Y-0.3139
X0.9986 Y-0.3117
X0.9899 Y-0.3095
X0.9804 Y-0.3073
X0.9701 Y-0.3052
X0.9587 Y-0.3031
X0.946 Y-0.301
X0.9313 Y-0.299
X0.9142 Y-0.297
X0.8754 Y-0.2934
X0.8366 Y-0.2895
X0.7982 Y-0.2828
X0.7791 Y-0.2785
X0.7744 Y-0.2773
G3 X0.7635 Y-0.3261 R0.025
X0.7642 Y-0.3263 R0.025
G1 X0.768 Y-0.3271 Z-0.0497
X0.7718 Y-0.3278 Z-0.0487
X0.7753 Y-0.3286 Z-0.0472
X0.7786 Y-0.3293 Z-0.0452
X0.7815 Y-0.3299 Z-0.0426
X0.784 Y-0.3304 Z-0.0397
X0.786 Y-0.3308 Z-0.0363
X0.7875 Y-0.3311 Z-0.0327
X0.7884 Y-0.3313 Z-0.0289
X0.7887 Y-0.3314 Z-0.025
G0 Z0.6

(2D CONTOUR4)
M8
G0 X2.8331 Y-0.6086
Z0.6
Z0.2
G1 Z0.0394 F5.3
Z-0.185 F1.8
X2.833 Y-0.6083 Z-0.1889
X2.8327 Y-0.6075 Z-0.1927
X2.8323 Y-0.606 Z-0.1963
X2.8317 Y-0.6041 Z-0.1997
X2.8309 Y-0.6016 Z-0.2027
X2.83 Y-0.5988 Z-0.2052
X2.8291 Y-0.5956 Z-0.2073
X2.828 Y-0.5921 Z-0.2088
X2.8269 Y-0.5885 Z-0.2097
X2.8257 Y-0.5848 Z-0.21
X2.8183 Y-0.5609 F5.3
G3 X2.787 Y-0.5444 R0.025
G1 X2.287 Y-0.6994
G2 X2.25 Y-0.705 R0.125
G1 X1.885
G2 X1.75 Y-0.57 R0.135
G1 Y-0.55
X1.25
Y-0.57
G2 X1.115 Y-0.705 R0.135
G1 X0.75
G2 X0.713 Y-0.6994 R0.125
G1 X0.213 Y-0.5444
G2 X0.125 Y-0.425 R0.125
G1 Y-0.15
G2 X0.25 Y-0.025 R0.125
G1 X2.75
G2 X2.875 Y-0.15 R0.125
G1 Y-0.425
G2 X2.787 Y-0.5444 R0.125
G3 X2.7705 Y-0.5757 R0.025
G1 X2.7779 Y-0.5996
X2.7791 Y-0.6033 Z-0.2097
X2.7802 Y-0.6069 Z-0.2088
X2.7813 Y-0.6104 Z-0.2073
X2.7823 Y-0.6136 Z-0.2052
X2.7832 Y-0.6164 Z-0.2027
X2.7839 Y-0.6189 Z-0.1997
X2.7845 Y-0.6208 Z-0.1963
X2.785 Y-0.6223 Z-0.1927
X2.7852 Y-0.6231 Z-0.1889
X2.7853 Y-0.6234 Z-0.185
G0 Z0.6

(2D CONTOUR5)
M8
G0 X0.1669 Y-1.8914
Z0.6
Z0.2
G1 Z0.0394 F5.3
Z-0.185 F1.8
X0.167 Y-1.8917 Z-0.1889
X0.1673 Y-1.8925 Z-0.1927
X0.1677 Y-1.894 Z-0.1963
X0.1683 Y-1.8959 Z-0.1997
X0.1691 Y-1.8984 Z-0.2027
X0.17 Y-1.9012 Z-0.2052
X0.1709 Y-1.9044 Z-0.2073
X0.172 Y-1.9079 Z-0.2088
X0.1731 Y-1.9115 Z-0.2097
X0.1743 Y-1.9153 Z-0.21
X0.1817 Y-1.9391 F5.3
G3 X0.213 Y-1.9556 R0.025
G1 X0.713 Y-1.8006
G2 X0.75 Y-1.795 R0.125
G1 X1.115
G2 X1.25 Y-1.93 R0.135
G1 Y-1.95
X1.75
Y-1.93
G2 X1.885 Y-1.795 R0.135
G1 X2.25
G2 X2.287 Y-1.8006 R0.125
G1 X2.787 Y-1.9556
G2 X2.875 Y-2.075 R0.125
G1 Y-2.35
G2 X2.75 Y-2.475 R0.125
G1 X0.25
G2 X0.125 Y-2.35 R0.125
G1 Y-2.075
G2 X0.213 Y-1.9556 R0.125
G3 X0.2295 Y-1.9243 R0.025
G1 X0.2221 Y-1.9004
X0.2209 Y-1.8967 Z-0.2097
X0.2198 Y-1.8931 Z-0.2088
X0.2187 Y-1.8896 Z-0.2073
X0.2177 Y-1.8864 Z-0.2052
X0.2168 Y-1.8836 Z-0.2027
X0.2161 Y-1.8811 Z-0.1997
X0.2155 Y-1.8792 Z-0.1963
X0.215 Y-1.8777 Z-0.1927
X0.2148 Y-1.8769 Z-0.1889
X0.2147 Y-1.8766 Z-0.185
G0 Z0.6

(DRILL1)
M8
G0 X1.5 Y-1.25
Z0.6
Z0.2
G98 G81 X1.5 Y-1.25 Z-0.5 R-0.01 F1.8
G80
Z0.6

(2D CONTOUR8)
M8
G0 X0.05 Y-2.6
Z0.6
Z0.2
G1 Z0.0394 F5.3
Z-0.3 F1.8
G18 G2 X0.075 Z-0.325 R0.025
G1 X0.1 F5.3
G17 G3 X0.125 Y-2.575 R0.025
G1 Y0.075
G3 X0.1 Y0.1 R0.025
G1 X0.075
G18 G3 X0.05 Z-0.3 R0.025
G0 Z0.2
X2.95
G1 Z0.0394 F5.3
Z-0.3 F1.8
G3 X2.925 Z-0.325 R0.025
G1 X2.9 F5.3
G17 G3 X2.875 Y0.075 R0.025
G1 Y-2.575
G3 X2.9 Y-2.6 R0.025
G1 X2.925
G18 G2 X2.95 Z-0.3 R0.025
G0 Z0.6
G17

(2D CONTOUR9)
M8
G0 X3.025 Y-2.55
Z0.6
Z0.2
G1 Z0.0394 F5.3
Z-0.3 F1.8
G19 G3 Y-2.525 Z-0.325 R0.025
G1 Y-2.5 F5.3
G17 G3 X3. Y-2.475 R0.025
G1 X0.
G3 X-0.025 Y-2.5 R0.025
G1 Y-2.525
G19 G2 Y-2.55 Z-0.3 R0.025
G0 Z0.2
Y0.05
G1 Z0.0394 F5.3
Z-0.3 F1.8
G2 Y0.025 Z-0.325 R0.025
G1 Y0. F5.3
G17 G3 X0. Y-0.025 R0.025
G1 X2.75
X3.
G3 X3.025 Y0. R0.025
G1 Y0.025
G19 G3 Y0.05 Z-0.3 R0.025
G0 Z0.6
G17

(2D CONTOUR10)
M8
G0 X0.025 Y-2.1
Z0.6
Z0.2
G1 Z0.0394 F5.3
Z-0.495 F1.8
G18 G2 X0.05 Z-0.52 R0.025
G1 X0.075 F5.3
G17 G3 X0.1 Y-2.075 R0.025
G1 Y-0.425
G3 X0.075 Y-0.4 R0.025
G1 X0.05
G18 G3 X0.025 Z-0.495 R0.025
G1 X0.05 Y-2.1
G2 X0.075 Z-0.52 R0.025 F1.8
G1 X0.1 F5.3
G17 G3 X0.125 Y-2.075 R0.025
G1 Y-0.425
G3 X0.1 Y-0.4 R0.025
G1 X0.075
G18 G3 X0.05 Z-0.495 R0.025
G0 Z0.2
X2.975
G1 Z0.0394 F5.3
Z-0.495 F1.8
G3 X2.95 Z-0.52 R0.025
G1 X2.925 F5.3
G17 G3 X2.9 Y-0.425 R0.025
G1 Y-2.075
G3 X2.925 Y-2.1 R0.025
G1 X2.95
G18 G2 X2.975 Z-0.495 R0.025
G1 X2.95 Y-0.4
G3 X2.925 Z-0.52 R0.025 F1.8
G1 X2.9 F5.3
G17 G3 X2.875 Y-0.425 R0.025
G1 Y-2.075
G3 X2.9 Y-2.1 R0.025
G1 X2.925
G18 G2 X2.95 Z-0.495 R0.025
G0 Z0.6
G17

M9
G28 G91 Z0.
G28 X0. Y0.
M30
