(1002)
(T1  D=0.25 CR=0. - ZMIN=0.15 - FLAT END MILL)
G90 G94 G91.1 G40 G49 G17
G20
G28 G91 Z0.
G90

(FACE5)
M5
M9
T1 M6
S2100 M3
G54
M8
G0 X2.9125 Y-2.2452
G43 Z1.05 H1
Z0.65
G1 Z0.425 F5.3
G18 G3 X2.8875 Z0.4 R0.025
G1 X2.75
X-0.25
G17 G2 Y-2.0178 R0.1137
G1 X2.75
G3 Y-1.7904 R0.1137
G1 X-0.25
G2 Y-1.563 R0.1137
G1 X2.75
G3 Y-1.3356 R0.1137
G1 X-0.25
G2 Y-1.1082 R0.1137
G1 X2.75
G3 Y-0.8808 R0.1137
G1 X-0.25
G2 Y-0.6534 R0.1137
G1 X2.75
G3 Y-0.4259 R0.1137
G1 X-0.25
G2 Y-0.1985 R0.1137
G1 X2.75
G3 Y0.0289 R0.1137
G1 X-0.25
G18 G3 X-0.275 Z0.425 R0.025
G0 Z1.05
G17

(2D CONTOUR11)
M8
G0 X-0.225 Y-1.125
Z1.05
Z0.65
G1 Z0.4894 F5.3
Z0.345 F1.8
G18 G2 X-0.2 Z0.32 R0.025
G1 X-0.175 F5.3
G17 G3 X-0.15 Y-1.1 R0.025
G1 Y-0.15
G2 X0. Y0. R0.15
G1 X2.5
G2 X2.65 Y-0.15 R0.15
G1 Y-2.05
G2 X2.5 Y-2.2 R0.15
G1 X0.
G2 X-0.15 Y-2.05 R0.15
G1 Y-1.1
G2 X-0.1375 Y-1.0813 R0.0203
G3 X-0.125 Y-1.0625 R0.0203
G1 Y-0.15
G2 X0. Y-0.025 R0.125
G1 X2.5
G2 X2.625 Y-0.15 R0.125
G1 Y-2.05
G2 X2.5 Y-2.175 R0.125
G1 X0.
G2 X-0.125 Y-2.05 R0.125
G1 Y-1.0625
G3 X-0.15 Y-1.0375 R0.025
G1 X-0.175
G18 G3 X-0.2 Z0.345 R0.025
G0 Z1.05
G17

(2D CONTOUR12)
M8
G0 X2.725 Y0.25
Z1.05
Z0.65
G1 Z0.4894 F5.3
Z0.175 F1.8
G18 G3 X2.7 Z0.15 R0.025
G1 X2.675 F5.3
G17 G3 X2.65 Y0.225 R0.025
G1 Y-1.925
Y-2.425
G3 X2.675 Y-2.45 R0.025
G1 X2.7
G18 G2 X2.725 Z0.175 R0.025
G0 Z0.65
X2.7 Y0.25
G1 Z0.4894 F5.3
Z0.175 F1.8
G3 X2.675 Z0.15 R0.025
G1 X2.65 F5.3
G17 G3 X2.625 Y0.225 R0.025
G1 Y-1.925
Y-2.425
G3 X2.65 Y-2.45 R0.025
G1 X2.675
G18 G2 X2.7 Z0.175 R0.025
G0 Z0.65
X-0.225
G1 Z0.4894 F5.3
Z0.175 F1.8
G2 X-0.2 Z0.15 R0.025
G1 X-0.175 F5.3
G17 G3 X-0.15 Y-2.425 R0.025
G1 Y0.225
G3 X-0.175 Y0.25 R0.025
G1 X-0.2
G18 G3 X-0.225 Z0.175 R0.025
G0 Z0.65
X-0.2 Y-2.45
G1 Z0.4894 F5.3
Z0.175 F1.8
G2 X-0.175 Z0.15 R0.025
G1 X-0.15 F5.3
G17 G3 X-0.125 Y-2.425 R0.025
G1 Y0.225
G3 X-0.15 Y0.25 R0.025
G1 X-0.175
G18 G3 X-0.2 Z0.175 R0.025
G0 Z1.05
G17

(2D CONTOUR13)
M8
G0 X-0.025 Y0.225
Z1.05
Z0.65
G1 Z0.4894 F5.3
Z0.175 F1.8
G19 G2 Y0.2 Z0.15 R0.025
G1 Y0.175 F5.3
G17 G3 X0. Y0.15 R0.025
G1 X2.5
G3 X2.525 Y0.175 R0.025
G1 Y0.2
G19 G3 Y0.225 Z0.175 R0.025
G0 Z0.65
X-0.025 Y0.2
G1 Z0.4894 F5.3
Z0.175 F1.8
G2 Y0.175 Z0.15 R0.025
G1 Y0.15 F5.3
G17 G3 X0. Y0.125 R0.025
G1 X2.5
G3 X2.525 Y0.15 R0.025
G1 Y0.175
G19 G3 Y0.2 Z0.175 R0.025
G0 Z0.65
Y-2.425
G1 Z0.4894 F5.3
Z0.175 F1.8
G3 Y-2.4 Z0.15 R0.025
G1 Y-2.375 F5.3
G17 G3 X2.5 Y-2.35 R0.025
G1 X0.
G3 X-0.025 Y-2.375 R0.025
G1 Y-2.4
G19 G2 Y-2.425 Z0.175 R0.025
G0 Z0.65
X2.525 Y-2.4
G1 Z0.4894 F5.3
Z0.175 F1.8
G3 Y-2.375 Z0.15 R0.025
G1 Y-2.35 F5.3
G17 G3 X2.5 Y-2.325 R0.025
G1 X0.
G3 X-0.025 Y-2.35 R0.025
G1 Y-2.375
G19 G2 Y-2.4 Z0.175 R0.025
G0 Z1.05
G17

M9
G28 G91 Z0.
G28 X0. Y0.
M30
